;FLAVOR:Marlin
;TIME:5079
;Filament used: 7.13493m
;Layer height: 0.3
;MINX:107.911
;MINY:89.2
;MINZ:0.2
;MAXX:189.089
;MAXY:159.799
;MAXZ:68
;Generated with Cura_SteamEngine 4.6.1
M104 S210
M105
M109 S210
M82 ;absolute extrusion mode
; -- START GCODE --
G21                     ;set units to millimetres
G90                     ;set to absolute positioning
M106 S0                 ;set fan speed to zero (turned off)
G28 X0 Y0               ;move to the X/Y origin (Home)
G28 Z0                  ;move to the Z origin (Home)
G1 Z15.0 F1200          ;move Z to position 15.0 mm
G92 E0                  ;zero the extruded length
G1 E20 F200             ;extrude 20mm of feed stock
G92 E0                  ;zero the extruded length again
G1 F7200                ;set feedrate to 120 mm/s
; -- end of START GCODE --
G92 E0
G92 E0
G1 F1500 E-6.5
;LAYER_COUNT:227
;LAYER:0
M107
G0 F3600 X126.599 Y92.548 Z0.2
;TYPE:SKIRT
G1 F1500 E0
G1 F1800 X127.082 Y91.924 E0.02625
G1 X127.626 Y91.351 E0.05252
G1 X128.224 Y90.836 E0.07877
G1 X128.872 Y90.384 E0.10505
G1 X129.562 Y90 E0.13131
G1 X130.288 Y89.688 E0.1576
G1 X131.041 Y89.451 E0.18385
G1 X131.814 Y89.291 E0.21011
G1 X132.6 Y89.21 E0.23639
G1 X181.289 Y89.2 E1.85579
G1 X182.078 Y89.24 E1.88207
G1 X182.858 Y89.359 E1.90831
G1 X183.623 Y89.557 E1.93459
G1 X184.363 Y89.831 E1.96084
G1 X185.072 Y90.179 E1.98711
G1 X185.743 Y90.597 E2.0134
G1 X186.367 Y91.08 E2.03965
G1 X186.94 Y91.623 E2.0659
G1 X187.455 Y92.222 E2.09218
G1 X187.906 Y92.87 E2.11844
G1 X188.29 Y93.561 E2.14473
G1 X188.602 Y94.286 E2.17098
G1 X188.839 Y95.039 E2.19724
G1 X188.998 Y95.813 E2.22352
G1 X189.079 Y96.598 E2.24977
G1 X189.089 Y99.988 E2.36252
G1 X189.049 Y100.777 E2.38879
G1 X188.93 Y101.557 E2.41504
G1 X188.732 Y102.322 E2.44132
G1 X188.458 Y103.062 E2.46756
G1 X188.11 Y103.771 E2.49383
G1 X187.692 Y104.442 E2.52013
G1 X187.209 Y105.066 E2.54637
G1 X186.666 Y105.639 E2.57263
G1 X186.067 Y106.154 E2.5989
G1 X185.419 Y106.605 E2.62516
G1 X184.728 Y106.989 E2.65145
G1 X184.003 Y107.301 E2.67771
G1 X183.25 Y107.538 E2.70396
G1 X182.476 Y107.697 E2.73024
G1 X181.691 Y107.778 E2.75649
G1 X172.852 Y107.794 E3.05048
G1 X172.724 Y108.689 E3.08055
G1 X172.543 Y109.405 E3.10511
G1 X171.919 Y111.466 E3.17673
G1 X171.653 Y112.209 E3.20298
G1 X171.333 Y112.882 E3.22777
G1 X170.316 Y114.785 E3.29953
G1 X169.909 Y115.462 E3.32581
G1 X169.466 Y116.058 E3.35051
G1 X168.1 Y117.722 E3.42211
G1 X167.568 Y118.306 E3.44839
G1 X167.024 Y118.798 E3.47278
G1 X165.36 Y120.166 E3.54443
G1 X164.726 Y120.636 E3.57068
G1 X164.09 Y121.017 E3.59534
G1 X162.186 Y122.037 E3.66718
G1 X161.472 Y122.374 E3.69344
G1 X160.768 Y122.625 E3.7183
G1 X158.708 Y123.25 E3.7899
G1 X157.941 Y123.441 E3.81619
G1 X157.213 Y123.548 E3.84066
G1 X155.066 Y123.761 E3.91242
G1 X154.277 Y123.799 E3.93869
G1 X153.544 Y123.763 E3.9631
G1 X151.397 Y123.555 E4.03485
G1 X150.616 Y123.439 E4.06111
G1 X149.89 Y123.257 E4.086
G1 X147.828 Y122.633 E4.15765
G1 X147.084 Y122.366 E4.18395
G1 X146.411 Y122.046 E4.20873
G1 X144.506 Y121.028 E4.28057
G1 X143.829 Y120.621 E4.30684
G1 X143.236 Y120.18 E4.33142
G1 X141.569 Y118.813 E4.40313
G1 X140.985 Y118.282 E4.42938
G1 X140.49 Y117.735 E4.45392
G1 X139.122 Y116.071 E4.52556
G1 X138.652 Y115.437 E4.55181
G1 X138.27 Y114.799 E4.57655
G1 X137.252 Y112.897 E4.6483
G1 X136.915 Y112.183 E4.67456
G1 X136.666 Y111.483 E4.69927
G1 X136.04 Y109.422 E4.77091
G1 X135.849 Y108.656 E4.79717
G1 X135.741 Y107.922 E4.82184
G1 X135.729 Y107.8 E4.82592
G1 X133.005 Y107.8 E4.91652
G1 X132.216 Y107.76 E4.9428
G1 X131.436 Y107.641 E4.96904
G1 X130.671 Y107.443 E4.99532
G1 X129.931 Y107.169 E5.02157
G1 X129.222 Y106.821 E5.04784
G1 X128.551 Y106.403 E5.07413
G1 X127.927 Y105.92 E5.10038
G1 X127.354 Y105.377 E5.12663
G1 X126.839 Y104.778 E5.15291
G1 X126.388 Y104.13 E5.17916
G1 X126.004 Y103.439 E5.20546
G1 X125.692 Y102.714 E5.23171
G1 X125.455 Y101.961 E5.25797
G1 X125.296 Y101.187 E5.28425
G1 X125.215 Y100.402 E5.31049
G1 X125.204 Y97.003 E5.42355
G1 X125.244 Y96.214 E5.44982
G1 X125.363 Y95.433 E5.4761
G1 X125.561 Y94.669 E5.50235
G1 X125.834 Y93.928 E5.52861
G1 X126.182 Y93.219 E5.55488
G1 X126.599 Y92.548 E5.58116
G0 F3600 X126.997 Y92.679
G1 F1800 X127.478 Y92.079 E5.60674
G1 X128.018 Y91.532 E5.6323
G1 X128.613 Y91.044 E5.65789
G1 X129.255 Y90.62 E5.68348
G1 X129.937 Y90.265 E5.70906
G1 X130.653 Y89.983 E5.73465
G1 X131.394 Y89.777 E5.76023
G1 X132.153 Y89.649 E5.78583
G1 X133.004 Y89.6 E5.81418
G1 X181.289 Y89.6 E7.42015
G1 X182.057 Y89.64 E7.44573
G1 X182.817 Y89.759 E7.47131
G1 X183.56 Y89.957 E7.49689
G1 X184.279 Y90.231 E7.52248
G1 X184.965 Y90.578 E7.54805
G1 X185.612 Y90.994 E7.57363
G1 X186.212 Y91.475 E7.59921
G1 X186.759 Y92.016 E7.6248
G1 X187.247 Y92.611 E7.65039
G1 X187.67 Y93.253 E7.67596
G1 X188.025 Y93.936 E7.70157
G1 X188.306 Y94.651 E7.72712
G1 X188.512 Y95.393 E7.75273
G1 X188.64 Y96.151 E7.7783
G1 X188.689 Y97 E7.80658
G1 X188.689 Y99.988 E7.90596
G1 X188.649 Y100.756 E7.93154
G1 X188.53 Y101.516 E7.95713
G1 X188.332 Y102.259 E7.9827
G1 X188.058 Y102.978 E8.0083
G1 X187.711 Y103.664 E8.03386
G1 X187.295 Y104.311 E8.05945
G1 X186.814 Y104.911 E8.08503
G1 X186.273 Y105.458 E8.11061
G1 X185.678 Y105.946 E8.13621
G1 X185.036 Y106.369 E8.16178
G1 X184.353 Y106.724 E8.18738
G1 X183.638 Y107.005 E8.21293
G1 X182.896 Y107.211 E8.23855
G1 X182.138 Y107.339 E8.26411
G1 X181.295 Y107.388 E8.2922
G1 X172.489 Y107.395 E8.58509
G1 X172.442 Y107.869 E8.60093
G1 X172.328 Y108.63 E8.62652
G1 X172.161 Y109.289 E8.64914
G1 X171.537 Y111.35 E8.72076
G1 X171.276 Y112.074 E8.74635
G1 X170.98 Y112.694 E8.76921
G1 X169.963 Y114.597 E8.84097
G1 X169.566 Y115.255 E8.86653
G1 X169.157 Y115.804 E8.8893
G1 X167.791 Y117.468 E8.96091
G1 X167.272 Y118.037 E8.98652
G1 X166.77 Y118.489 E9.00899
G1 X165.106 Y119.857 E9.08064
G1 X164.488 Y120.314 E9.1062
G1 X163.901 Y120.664 E9.12893
G1 X161.997 Y121.684 E9.20077
G1 X161.301 Y122.011 E9.22635
G1 X160.651 Y122.242 E9.24929
G1 X158.591 Y122.867 E9.32089
G1 X157.845 Y123.052 E9.34646
G1 X157.174 Y123.15 E9.36901
G1 X155.027 Y123.363 E9.44077
G1 X154.258 Y123.399 E9.46638
G1 X153.582 Y123.365 E9.48889
G1 X151.435 Y123.157 E9.56063
G1 X150.675 Y123.043 E9.58619
G1 X150.006 Y122.874 E9.60914
G1 X147.944 Y122.25 E9.6808
G1 X147.22 Y121.989 E9.70639
G1 X146.599 Y121.694 E9.72926
G1 X144.694 Y120.676 E9.8011
G1 X144.036 Y120.278 E9.82668
G1 X143.49 Y119.871 E9.84933
G1 X141.823 Y118.504 E9.92103
G1 X141.254 Y117.986 E9.94662
G1 X140.799 Y117.481 E9.96923
G1 X139.431 Y115.817 E10.04088
G1 X138.974 Y115.199 E10.06644
G1 X138.623 Y114.61 E10.08925
G1 X137.605 Y112.708 E10.161
G1 X137.278 Y112.012 E10.18658
G1 X137.048 Y111.367 E10.20935
G1 X136.422 Y109.306 E10.28099
G1 X136.237 Y108.559 E10.30659
G1 X136.139 Y107.882 E10.32934
G1 X136.091 Y107.4 E10.34545
G1 X133.005 Y107.4 E10.44809
G1 X132.237 Y107.36 E10.47367
G1 X131.477 Y107.241 E10.49926
G1 X130.734 Y107.043 E10.52483
G1 X130.015 Y106.769 E10.55042
G1 X129.329 Y106.422 E10.57599
G1 X128.682 Y106.006 E10.60158
G1 X128.082 Y105.525 E10.62715
G1 X127.535 Y104.984 E10.65274
G1 X127.047 Y104.389 E10.67834
G1 X126.624 Y103.747 E10.70391
G1 X126.269 Y103.064 E10.72951
G1 X125.988 Y102.349 E10.75506
G1 X125.782 Y101.607 E10.78067
G1 X125.654 Y100.849 E10.80624
G1 X125.605 Y100.002 E10.83446
G1 X125.604 Y97.002 E10.93424
G1 X125.644 Y96.234 E10.95982
G1 X125.763 Y95.474 E10.98541
G1 X125.96 Y94.731 E11.01097
G1 X126.234 Y94.012 E11.03656
G1 X126.581 Y93.326 E11.06213
G1 X126.997 Y92.679 E11.08772
G0 F3600 X127.394 Y92.813
G1 F1800 X127.873 Y92.238 E11.11261
G1 X128.41 Y91.718 E11.13747
G1 X129 Y91.258 E11.16235
G1 X129.636 Y90.864 E11.18724
G1 X130.31 Y90.539 E11.21212
G1 X131.015 Y90.289 E11.237
G1 X131.742 Y90.115 E11.26187
G1 X132.484 Y90.019 E11.28675
G1 X133.004 Y90 E11.30406
G1 X181.289 Y90 E12.91002
G1 X182.036 Y90.04 E12.9349
G1 X182.774 Y90.159 E12.95977
G1 X183.496 Y90.357 E12.98467
G1 X184.192 Y90.63 E13.00953
G1 X184.855 Y90.977 E13.03442
G1 X185.478 Y91.392 E13.05932
G1 X186.052 Y91.871 E13.08419
G1 X186.573 Y92.408 E13.10907
G1 X187.032 Y92.998 E13.13393
G1 X187.427 Y93.634 E13.15883
G1 X187.751 Y94.308 E13.18371
G1 X188.001 Y95.013 E13.20859
G1 X188.175 Y95.741 E13.23348
G1 X188.27 Y96.483 E13.25836
G1 X188.289 Y97 E13.27557
G1 X188.289 Y99.988 E13.37495
G1 X188.249 Y100.735 E13.39983
G1 X188.13 Y101.473 E13.42469
G1 X187.932 Y102.195 E13.44959
G1 X187.659 Y102.891 E13.47446
G1 X187.312 Y103.554 E13.49935
G1 X186.897 Y104.177 E13.52425
G1 X186.418 Y104.751 E13.54911
G1 X185.881 Y105.272 E13.574
G1 X185.291 Y105.731 E13.59886
G1 X184.655 Y106.126 E13.62376
G1 X183.981 Y106.45 E13.64864
G1 X183.276 Y106.7 E13.67351
G1 X182.548 Y106.874 E13.69841
G1 X181.806 Y106.969 E13.72329
G1 X181.294 Y106.988 E13.74033
G1 X172.126 Y106.995 E14.04526
G1 X172.044 Y107.83 E14.07317
G1 X171.932 Y108.569 E14.09803
G1 X171.778 Y109.173 E14.11876
G1 X171.154 Y111.234 E14.19038
G1 X170.899 Y111.938 E14.21528
G1 X170.628 Y112.505 E14.23619
G1 X169.611 Y114.408 E14.30795
G1 X169.223 Y115.048 E14.33284
G1 X168.847 Y115.551 E14.35373
G1 X167.481 Y117.215 E14.42534
G1 X166.977 Y117.767 E14.4502
G1 X166.516 Y118.18 E14.47078
G1 X164.852 Y119.548 E14.54243
G1 X164.25 Y119.992 E14.56731
G1 X163.713 Y120.311 E14.58808
G1 X161.809 Y121.331 E14.65993
G1 X161.131 Y121.649 E14.68483
G1 X160.535 Y121.859 E14.70585
G1 X158.475 Y122.484 E14.77745
G1 X157.749 Y122.663 E14.80232
G1 X157.134 Y122.752 E14.82299
G1 X154.987 Y122.965 E14.89475
G1 X154.24 Y122.999 E14.91962
G1 X153.621 Y122.966 E14.94024
G1 X151.474 Y122.758 E15.01198
G1 X150.734 Y122.647 E15.03687
G1 X150.121 Y122.491 E15.05791
G1 X148.059 Y121.867 E15.12956
G1 X147.356 Y121.612 E15.15443
G1 X146.788 Y121.341 E15.17537
G1 X144.883 Y120.323 E15.24721
G1 X144.243 Y119.935 E15.2721
G1 X143.743 Y119.562 E15.29285
G1 X142.076 Y118.195 E15.36455
G1 X141.524 Y117.69 E15.38943
G1 X141.108 Y117.227 E15.41014
G1 X139.74 Y115.563 E15.48178
G1 X139.296 Y114.961 E15.50666
G1 X138.975 Y114.421 E15.52756
G1 X137.957 Y112.519 E15.59931
G1 X137.64 Y111.842 E15.62417
G1 X137.431 Y111.25 E15.64505
G1 X136.805 Y109.189 E15.71669
G1 X136.626 Y108.463 E15.74156
G1 X136.537 Y107.843 E15.7624
G1 X136.454 Y107 E15.79057
G1 X133.005 Y107 E15.90528
G1 X132.258 Y106.96 E15.93017
G1 X131.52 Y106.841 E15.95503
G1 X130.798 Y106.643 E15.97993
G1 X130.102 Y106.37 E16.00479
G1 X129.439 Y106.023 E16.02968
G1 X128.816 Y105.608 E16.05458
G1 X128.242 Y105.129 E16.07945
G1 X127.721 Y104.592 E16.10433
G1 X127.262 Y104.002 E16.12919
G1 X126.867 Y103.366 E16.1541
G1 X126.543 Y102.692 E16.17897
G1 X126.293 Y101.987 E16.20385
G1 X126.119 Y101.259 E16.22874
G1 X126.024 Y100.517 E16.25362
G1 X126.005 Y100.002 E16.27076
G1 X126.004 Y97.002 E16.37054
G1 X126.044 Y96.255 E16.39543
G1 X126.163 Y95.517 E16.42029
G1 X126.36 Y94.795 E16.44518
G1 X126.633 Y94.099 E16.47005
G1 X126.979 Y93.436 E16.49492
G1 X127.394 Y92.813 E16.51982
G0 F3600 X127.791 Y92.952
G1 F1800 X128.268 Y92.403 E16.54401
G1 X128.802 Y91.911 E16.56816
G1 X129.386 Y91.48 E16.5923
G1 X130.015 Y91.116 E16.61647
G1 X130.68 Y90.823 E16.64064
G1 X131.372 Y90.605 E16.66477
G1 X132.085 Y90.464 E16.68894
G1 X133.004 Y90.4 E16.71958
G1 X181.289 Y90.4 E18.32555
G1 X182.014 Y90.44 E18.3497
G1 X182.731 Y90.559 E18.37387
G1 X183.43 Y90.757 E18.39804
G1 X184.103 Y91.03 E18.42219
G1 X184.742 Y91.375 E18.44635
G1 X185.339 Y91.789 E18.47051
G1 X185.887 Y92.265 E18.49465
G1 X186.38 Y92.799 E18.51882
G1 X186.81 Y93.384 E18.54297
G1 X187.174 Y94.013 E18.56714
G1 X187.467 Y94.678 E18.59131
G1 X187.685 Y95.371 E18.61548
G1 X187.825 Y96.083 E18.63961
G1 X187.889 Y97 E18.67018
G1 X187.889 Y99.988 E18.76957
G1 X187.849 Y100.713 E18.79372
G1 X187.73 Y101.43 E18.81789
G1 X187.532 Y102.129 E18.84205
G1 X187.259 Y102.802 E18.86621
G1 X186.914 Y103.441 E18.89036
G1 X186.5 Y104.038 E18.91453
G1 X186.024 Y104.586 E18.93867
G1 X185.49 Y105.079 E18.96284
G1 X184.905 Y105.509 E18.98699
G1 X184.276 Y105.873 E19.01116
G1 X183.611 Y106.166 E19.03533
G1 X182.918 Y106.384 E19.05949
G1 X182.206 Y106.524 E19.08363
G1 X181.294 Y106.588 E19.11403
G1 X171.764 Y106.595 E19.431
G1 X171.646 Y107.791 E19.47098
G1 X171.536 Y108.509 E19.49514
G1 X171.395 Y109.058 E19.51399
G1 X170.771 Y111.119 E19.58561
G1 X170.522 Y111.801 E19.60976
G1 X170.275 Y112.317 E19.62879
G1 X169.258 Y114.22 E19.70055
G1 X168.881 Y114.841 E19.72471
G1 X168.538 Y115.297 E19.74369
G1 X167.172 Y116.961 E19.8153
G1 X166.681 Y117.496 E19.83945
G1 X166.262 Y117.871 E19.85815
G1 X164.598 Y119.239 E19.9298
G1 X164.013 Y119.669 E19.95395
G1 X163.524 Y119.959 E19.97286
G1 X161.62 Y120.979 E20.0447
G1 X160.961 Y121.286 E20.06888
G1 X160.419 Y121.477 E20.08799
G1 X158.359 Y122.102 E20.15959
G1 X157.654 Y122.274 E20.18373
G1 X157.095 Y122.354 E20.20251
G1 X154.948 Y122.567 E20.27427
G1 X154.222 Y122.599 E20.29844
G1 X153.66 Y122.568 E20.31716
G1 X151.513 Y122.36 E20.3889
G1 X150.795 Y122.251 E20.41306
G1 X150.237 Y122.108 E20.43222
G1 X148.175 Y121.484 E20.50387
G1 X147.493 Y121.236 E20.52801
G1 X146.976 Y120.988 E20.54708
G1 X145.071 Y119.97 E20.61892
G1 X144.451 Y119.593 E20.64305
G1 X143.997 Y119.252 E20.66194
G1 X142.33 Y117.885 E20.73364
G1 X141.794 Y117.395 E20.7578
G1 X141.417 Y116.973 E20.77662
G1 X140.049 Y115.309 E20.84826
G1 X139.619 Y114.724 E20.87241
G1 X139.328 Y114.232 E20.89142
G1 X138.31 Y112.33 E20.96318
G1 X138.003 Y111.672 E20.98733
G1 X137.814 Y111.134 E21.00629
G1 X137.188 Y109.073 E21.07793
G1 X137.015 Y108.368 E21.10208
G1 X136.935 Y107.804 E21.12102
G1 X136.816 Y106.6 E21.16126
G1 X133.005 Y106.6 E21.28802
G1 X132.28 Y106.56 E21.31217
G1 X131.563 Y106.441 E21.33634
G1 X130.864 Y106.243 E21.36051
G1 X130.191 Y105.97 E21.38466
G1 X129.552 Y105.625 E21.40881
G1 X128.955 Y105.211 E21.43298
G1 X128.407 Y104.735 E21.45712
G1 X127.914 Y104.201 E21.48129
G1 X127.484 Y103.616 E21.50544
G1 X127.12 Y102.987 E21.52961
G1 X126.827 Y102.322 E21.55378
G1 X126.609 Y101.629 E21.57794
G1 X126.469 Y100.917 E21.60208
G1 X126.405 Y100.002 E21.63259
G1 X126.404 Y97.002 E21.73237
G1 X126.444 Y96.277 E21.75652
G1 X126.563 Y95.56 E21.78069
G1 X126.76 Y94.861 E21.80485
G1 X127.033 Y94.188 E21.829
G1 X127.378 Y93.549 E21.85315
G1 X127.791 Y92.952 E21.8773
G0 F3600 X127.777 Y93.666
G1 F1800 X128.188 Y93.095 E21.9007
G1 X128.662 Y92.574 E21.92413
G1 X129.192 Y92.111 E21.94753
G1 X129.77 Y91.71 E21.97093
G1 X130.391 Y91.378 E21.99435
G1 X131.045 Y91.118 E22.01776
G1 X131.725 Y90.933 E22.0412
G1 X132.421 Y90.828 E22.06461
G1 X133.004 Y90.8 E22.08402
G1 X181.289 Y90.8 E23.68999
G1 X181.992 Y90.84 E23.71341
G1 X182.686 Y90.959 E23.73683
G1 X183.361 Y91.157 E23.76022
G1 X184.01 Y91.429 E23.78363
G1 X184.624 Y91.774 E23.80705
G1 X185.195 Y92.185 E23.83045
G1 X185.716 Y92.659 E23.85388
G1 X186.18 Y93.189 E23.87731
G1 X186.58 Y93.768 E23.90072
G1 X186.912 Y94.389 E23.92414
G1 X187.172 Y95.043 E23.94754
G1 X187.356 Y95.723 E23.97097
G1 X187.462 Y96.419 E23.99439
G1 X187.489 Y97 E24.01374
G1 X187.489 Y99.988 E24.11312
G1 X187.449 Y100.691 E24.13654
G1 X187.33 Y101.385 E24.15996
G1 X187.132 Y102.06 E24.18335
G1 X186.86 Y102.709 E24.20676
G1 X186.515 Y103.323 E24.23018
G1 X186.104 Y103.894 E24.25358
G1 X185.63 Y104.415 E24.27701
G1 X185.1 Y104.879 E24.30044
G1 X184.521 Y105.279 E24.32384
G1 X183.9 Y105.611 E24.34726
G1 X183.246 Y105.871 E24.37067
G1 X182.566 Y106.055 E24.3941
G1 X181.87 Y106.161 E24.41752
G1 X181.294 Y106.188 E24.4367
G1 X171.401 Y106.195 E24.76574
G1 X171.248 Y107.752 E24.81778
G1 X171.14 Y108.447 E24.84117
G1 X171.012 Y108.942 E24.85817
G1 X170.388 Y111.003 E24.9298
G1 X170.146 Y111.664 E24.95321
G1 X169.922 Y112.128 E24.97035
G1 X168.905 Y114.031 E25.04211
G1 X168.539 Y114.632 E25.06552
G1 X168.229 Y115.043 E25.08264
G1 X166.863 Y116.707 E25.15424
G1 X166.386 Y117.225 E25.17766
G1 X166.008 Y117.562 E25.19451
G1 X164.344 Y118.93 E25.26615
G1 X163.776 Y119.346 E25.28957
G1 X163.335 Y119.606 E25.3066
G1 X161.431 Y120.626 E25.37844
G1 X160.792 Y120.923 E25.40188
G1 X160.303 Y121.094 E25.41911
G1 X158.243 Y121.719 E25.49071
G1 X157.559 Y121.885 E25.51412
G1 X157.055 Y121.956 E25.53105
