;FLAVOR:Marlin
;TIME:2354
;Filament used: 3.62045m
;Layer height: 0.3
;MINX:120.7
;MINY:95.7
;MINZ:0.2
;MAXX:176.3
;MAXY:129.796
;MAXZ:39.8
;Generated with Cura_SteamEngine 4.6.1
M104 S210
M105
M109 S210
M82 ;absolute extrusion mode
; -- START GCODE --
G21                     ;set units to millimetres
G90                     ;set to absolute positioning
M106 S0                 ;set fan speed to zero (turned off)
G28 X0 Y0               ;move to the X/Y origin (Home)
G28 Z0                  ;move to the Z origin (Home)
G1 Z15.0 F1200          ;move Z to position 15.0 mm
G92 E0                  ;zero the extruded length
G1 E20 F200             ;extrude 20mm of feed stock
G92 E0                  ;zero the extruded length again
G1 F7200                ;set feedrate to 120 mm/s
; -- end of START GCODE --
G92 E0
G92 E0
G1 F1500 E-6.5
;LAYER_COUNT:133
;LAYER:0
M107
G0 F3600 X122.58 Y98.539 Z0.2
;TYPE:SKIRT
G1 F1500 E0
G1 F1800 X122.985 Y98.102 E0.01982
G1 X123.688 Y97.455 E0.05159
G1 X124.324 Y96.988 E0.07784
G1 X125.004 Y96.587 E0.10409
G1 X125.722 Y96.257 E0.13038
G1 X126.469 Y96.002 E0.15663
G1 X127.238 Y95.823 E0.18289
G1 X128.022 Y95.723 E0.20918
G1 X128.617 Y95.7 E0.22898
G1 X168.383 Y95.7 E1.5516
G1 X169.172 Y95.74 E1.57788
G1 X169.952 Y95.859 E1.60412
G1 X170.717 Y96.057 E1.63041
G1 X171.457 Y96.331 E1.65665
G1 X172.166 Y96.679 E1.68292
G1 X172.837 Y97.097 E1.70921
G1 X173.461 Y97.58 E1.73546
G1 X173.898 Y97.985 E1.75528
G1 X174.545 Y98.688 E1.78705
G1 X175.012 Y99.324 E1.8133
G1 X175.413 Y100.004 E1.83955
G1 X175.743 Y100.722 E1.86584
G1 X175.998 Y101.469 E1.89209
G1 X176.177 Y102.238 E1.91835
G1 X176.277 Y103.022 E1.94464
G1 X176.3 Y103.617 E1.96444
G1 X176.3 Y111.12 E2.21399
G1 X176.26 Y111.909 E2.24027
G1 X176.141 Y112.689 E2.26651
G1 X176.121 Y112.766 E2.26916
G1 X176.177 Y113.006 E2.27735
G1 X176.277 Y113.79 E2.30364
G1 X176.3 Y114.385 E2.32345
G1 X176.3 Y121.888 E2.573
G1 X176.26 Y122.677 E2.59927
G1 X176.141 Y123.457 E2.62552
G1 X175.943 Y124.222 E2.6518
G1 X175.669 Y124.962 E2.67804
G1 X175.321 Y125.671 E2.70431
G1 X174.903 Y126.342 E2.73061
G1 X174.42 Y126.966 E2.75685
G1 X173.877 Y127.539 E2.78311
G1 X173.278 Y128.054 E2.80938
G1 X172.63 Y128.505 E2.83564
G1 X172.105 Y128.805 E2.85575
G1 X171.174 Y129.245 E2.89
G1 X170.426 Y129.5 E2.91629
G1 X169.657 Y129.678 E2.94254
G1 X168.874 Y129.777 E2.96879
G1 X168.084 Y129.796 E2.99507
G1 X167.297 Y129.736 E3.02132
G1 X166.52 Y129.596 E3.04758
G1 X165.76 Y129.378 E3.07388
G1 X165.027 Y129.085 E3.10014
G1 X164.327 Y128.719 E3.12641
G1 X163.888 Y128.44 E3.14371
G1 X161.462 Y126.783 E3.24142
G1 X159.07 Y125.512 E3.33151
G1 X156.504 Y124.491 E3.42337
G1 X153.869 Y123.76 E3.51432
G1 X151.219 Y123.328 E3.60362
G1 X148.502 Y123.181 E3.69412
G1 X145.781 Y123.329 E3.78476
G1 X143.127 Y123.761 E3.87419
G1 X140.502 Y124.488 E3.96478
G1 X137.995 Y125.486 E4.05453
G1 X135.599 Y126.753 E4.14468
G1 X133.078 Y128.456 E4.24587
G1 X132.402 Y128.864 E4.27213
G1 X131.688 Y129.202 E4.2984
G1 X130.944 Y129.466 E4.32466
G1 X130.176 Y129.653 E4.35095
G1 X129.394 Y129.762 E4.37721
G1 X128.605 Y129.791 E4.40347
G1 X127.817 Y129.74 E4.42973
G1 X127.038 Y129.61 E4.456
G1 X126.276 Y129.402 E4.48227
G1 X125.54 Y129.118 E4.50851
G1 X125.068 Y128.889 E4.52596
G1 X124.178 Y128.373 E4.56018
G1 X123.543 Y127.903 E4.58645
G1 X122.96 Y127.371 E4.6127
G1 X122.433 Y126.782 E4.63899
G1 X121.969 Y126.144 E4.66523
G1 X121.571 Y125.461 E4.69152
G1 X121.244 Y124.743 E4.71776
G1 X120.992 Y123.994 E4.74405
G1 X120.817 Y123.224 E4.77031
G1 X120.72 Y122.44 E4.79659
G1 X120.7 Y121.88 E4.81522
G1 X120.7 Y114.385 E5.06451
G1 X120.74 Y113.596 E5.09078
G1 X120.859 Y112.816 E5.11703
G1 X120.88 Y112.734 E5.11984
G1 X120.817 Y112.456 E5.12932
G1 X120.72 Y111.672 E5.1556
G1 X120.7 Y111.112 E5.17424
G1 X120.7 Y103.617 E5.42352
G1 X120.74 Y102.828 E5.4498
G1 X120.859 Y102.048 E5.47604
G1 X121.057 Y101.283 E5.50232
G1 X121.331 Y100.543 E5.52857
G1 X121.679 Y99.834 E5.55484
G1 X122.097 Y99.163 E5.58113
G1 X122.58 Y98.539 E5.60737
G0 F3600 X122.975 Y98.694
G1 F1800 X123.384 Y98.267 E5.62704
G1 X123.956 Y97.753 E5.65262
G1 X124.578 Y97.3 E5.67821
G1 X125.243 Y96.914 E5.70379
G1 X125.945 Y96.599 E5.72938
G1 X126.676 Y96.359 E5.75497
G1 X127.427 Y96.196 E5.78053
G1 X128.192 Y96.112 E5.80612
G1 X168.383 Y96.1 E7.14288
G1 X169.151 Y96.14 E7.16846
G1 X169.911 Y96.259 E7.19405
G1 X170.654 Y96.457 E7.21962
G1 X171.373 Y96.731 E7.24521
G1 X172.059 Y97.078 E7.27078
G1 X172.706 Y97.494 E7.29637
G1 X173.306 Y97.975 E7.32194
G1 X173.733 Y98.384 E7.34161
G1 X174.247 Y98.956 E7.36719
G1 X174.7 Y99.578 E7.39278
G1 X175.086 Y100.243 E7.41835
G1 X175.401 Y100.945 E7.44394
G1 X175.641 Y101.676 E7.46953
G1 X175.804 Y102.427 E7.49509
G1 X175.888 Y103.192 E7.52069
G1 X175.9 Y111.12 E7.78438
G1 X175.86 Y111.888 E7.80996
G1 X175.741 Y112.648 E7.83554
G1 X175.71 Y112.763 E7.8395
G1 X175.804 Y113.195 E7.85421
G1 X175.888 Y113.96 E7.8798
G1 X175.9 Y121.888 E8.14349
G1 X175.86 Y122.656 E8.16907
G1 X175.741 Y123.416 E8.19466
G1 X175.543 Y124.159 E8.22023
G1 X175.269 Y124.878 E8.24582
G1 X174.922 Y125.564 E8.27139
G1 X174.506 Y126.211 E8.29697
G1 X174.025 Y126.811 E8.32255
G1 X173.484 Y127.358 E8.34814
G1 X172.889 Y127.846 E8.37373
G1 X171.92 Y128.45 E8.41171
G1 X171.007 Y128.881 E8.44529
G1 X170.278 Y129.126 E8.47087
G1 X169.528 Y129.294 E8.49643
G1 X168.764 Y129.384 E8.52202
G1 X167.995 Y129.393 E8.5476
G1 X167.229 Y129.323 E8.57318
G1 X166.474 Y129.174 E8.59878
G1 X165.739 Y128.947 E8.62436
G1 X165.032 Y128.645 E8.64994
G1 X164.113 Y128.11 E8.6853
G1 X161.668 Y126.44 E8.78378
G1 X159.238 Y125.149 E8.8753
G1 X156.622 Y124.108 E8.96895
G1 X153.967 Y123.371 E9.06059
G1 X151.249 Y122.928 E9.15219
G1 X148.502 Y122.78 E9.24368
G1 X145.749 Y122.929 E9.33538
G1 X143.032 Y123.372 E9.42695
G1 X140.374 Y124.109 E9.51869
G1 X137.827 Y125.122 E9.60985
G1 X135.392 Y126.41 E9.70147
G1 X132.854 Y128.124 E9.80334
G1 X132.195 Y128.521 E9.82892
G1 X131.498 Y128.847 E9.85452
G1 X130.772 Y129.1 E9.88009
G1 X130.023 Y129.275 E9.90567
G1 X129.26 Y129.372 E9.93125
G1 X128.491 Y129.389 E9.95684
G1 X127.724 Y129.326 E9.98243
G1 X126.968 Y129.184 E10.00802
G1 X126.231 Y128.964 E10.0336
G1 X125.255 Y128.535 E10.06906
G1 X124.383 Y128.029 E10.10259
G1 X123.767 Y127.568 E10.12818
G1 X123.202 Y127.046 E10.15376
G1 X122.694 Y126.468 E10.17936
G1 X122.249 Y125.841 E10.20493
G1 X121.872 Y125.171 E10.2305
G1 X121.566 Y124.465 E10.25609
G1 X121.335 Y123.731 E10.28169
G1 X121.182 Y122.978 E10.30724
G1 X121.1 Y121.88 E10.34386
G1 X121.1 Y114.385 E10.59315
G1 X121.14 Y113.617 E10.61873
G1 X121.259 Y112.857 E10.64431
G1 X121.29 Y112.741 E10.64831
G1 X121.182 Y112.21 E10.66633
G1 X121.1 Y111.112 E10.70295
G1 X121.1 Y103.617 E10.95224
G1 X121.14 Y102.849 E10.97781
G1 X121.259 Y102.089 E11.0034
G1 X121.457 Y101.346 E11.02897
G1 X121.731 Y100.627 E11.05457
G1 X122.078 Y99.941 E11.08014
G1 X122.494 Y99.294 E11.10572
G1 X122.975 Y98.694 E11.1313
G0 F3600 X122.892 Y99.428
G1 F1800 X123.55 Y98.667 E11.16476
G1 X124.224 Y98.05 E11.19515
G1 X124.83 Y97.613 E11.22
G1 X125.48 Y97.242 E11.24489
G1 X126.166 Y96.943 E11.26978
G1 X126.88 Y96.719 E11.29467
G1 X127.613 Y96.572 E11.31953
G1 X128.617 Y96.5 E11.35301
G1 X168.383 Y96.5 E12.67564
G1 X169.13 Y96.54 E12.70052
G1 X169.868 Y96.659 E12.72538
G1 X170.59 Y96.857 E12.75028
G1 X171.286 Y97.13 E12.77515
G1 X171.949 Y97.477 E12.80004
G1 X172.572 Y97.892 E12.82493
G1 X173.333 Y98.55 E12.85839
G1 X173.95 Y99.224 E12.88879
G1 X174.387 Y99.83 E12.91364
G1 X174.758 Y100.48 E12.93853
G1 X175.057 Y101.166 E12.96342
G1 X175.281 Y101.88 E12.98831
G1 X175.428 Y102.613 E13.01317
G1 X175.5 Y103.617 E13.04665
G1 X175.5 Y111.12 E13.2962
G1 X175.46 Y111.867 E13.32108
G1 X175.341 Y112.605 E13.34595
G1 X175.301 Y112.75 E13.35095
G1 X175.428 Y113.381 E13.37236
G1 X175.5 Y114.385 E13.40583
G1 X175.5 Y121.888 E13.65539
G1 X175.46 Y122.635 E13.68027
G1 X175.341 Y123.373 E13.70513
G1 X175.143 Y124.095 E13.73003
G1 X174.87 Y124.791 E13.7549
G1 X174.523 Y125.454 E13.77979
G1 X174.108 Y126.077 E13.80468
G1 X173.629 Y126.651 E13.82955
G1 X173.092 Y127.172 E13.85443
G1 X172.502 Y127.631 E13.8793
G1 X171.735 Y128.096 E13.90913
G1 X170.841 Y128.516 E13.94198
G1 X170.131 Y128.752 E13.96687
G1 X169.4 Y128.91 E13.99174
G1 X168.656 Y128.989 E14.01663
G1 X167.908 Y128.989 E14.0415
G1 X167.164 Y128.908 E14.0664
G1 X166.433 Y128.749 E14.09128
G1 X165.724 Y128.513 E14.11613
G1 X165.043 Y128.202 E14.14103
G1 X164.339 Y127.779 E14.16835
G1 X161.882 Y126.101 E14.26731
G1 X159.403 Y124.784 E14.36067
G1 X156.756 Y123.731 E14.45542
G1 X154.047 Y122.979 E14.54893
G1 X151.299 Y122.531 E14.64154
G1 X148.502 Y122.38 E14.7347
G1 X145.701 Y122.532 E14.828
G1 X142.952 Y122.98 E14.92064
G1 X140.248 Y123.729 E15.01396
G1 X137.651 Y124.762 E15.10692
G1 X135.191 Y126.063 E15.19948
G1 X132.63 Y127.793 E15.30227
G1 X131.988 Y128.178 E15.32717
G1 X131.31 Y128.492 E15.35202
G1 X130.601 Y128.732 E15.37692
G1 X129.871 Y128.895 E15.40179
G1 X129.128 Y128.98 E15.42667
G1 X128.38 Y128.984 E15.45155
G1 X127.635 Y128.909 E15.47645
G1 X126.903 Y128.754 E15.50134
G1 X126.192 Y128.523 E15.5262
G1 X125.442 Y128.181 E15.55362
G1 X124.588 Y127.685 E15.58646
G1 X123.991 Y127.234 E15.61135
G1 X123.446 Y126.723 E15.6362
G1 X122.958 Y126.156 E15.66108
G1 X122.533 Y125.54 E15.68597
G1 X122.176 Y124.882 E15.71087
G1 X121.892 Y124.19 E15.73575
G1 X121.683 Y123.472 E15.76062
G1 X121.552 Y122.735 E15.78552
G1 X121.5 Y121.88 E15.81401
G1 X121.5 Y114.385 E16.06329
G1 X121.54 Y113.638 E16.08817
G1 X121.659 Y112.9 E16.11304
G1 X121.698 Y112.757 E16.11797
G1 X121.552 Y111.967 E16.14469
G1 X121.5 Y111.112 E16.17318
G1 X121.5 Y103.617 E16.42246
G1 X121.54 Y102.87 E16.44734
G1 X121.659 Y102.132 E16.4722
G1 X121.857 Y101.41 E16.49711
G1 X122.13 Y100.714 E16.52197
G1 X122.477 Y100.051 E16.54686
G1 X122.892 Y99.428 E16.57176
G0 F3600 X123.289 Y99.567
G1 F1800 X123.833 Y98.95 E16.59912
G1 X124.491 Y98.349 E16.62876
G1 X125.082 Y97.926 E16.65293
G1 X125.716 Y97.572 E16.67708
G1 X126.385 Y97.289 E16.70124
G1 X127.081 Y97.081 E16.7254
G1 X127.796 Y96.951 E16.74957
G1 X128.617 Y96.9 E16.77693
G1 X168.383 Y96.9 E18.09955
G1 X169.108 Y96.94 E18.1237
G1 X169.825 Y97.059 E18.14788
G1 X170.524 Y97.257 E18.17204
G1 X171.197 Y97.53 E18.1962
G1 X171.836 Y97.875 E18.22035
G1 X172.433 Y98.289 E18.24451
G1 X173.05 Y98.833 E18.27187
G1 X173.651 Y99.491 E18.30151
G1 X174.074 Y100.082 E18.32569
G1 X174.428 Y100.716 E18.34984
G1 X174.711 Y101.385 E18.374
G1 X174.919 Y102.081 E18.39816
G1 X175.049 Y102.796 E18.42233
G1 X175.1 Y103.617 E18.44969
G1 X175.1 Y111.12 E18.69924
G1 X175.06 Y111.845 E18.72339
G1 X174.941 Y112.562 E18.74756
G1 X174.889 Y112.747 E18.75395
G1 X175.049 Y113.564 E18.78164
G1 X175.1 Y114.385 E18.809
G1 X175.1 Y121.888 E19.05855
G1 X175.06 Y122.613 E19.0827
G1 X174.941 Y123.33 E19.10688
G1 X174.743 Y124.029 E19.13104
G1 X174.47 Y124.702 E19.1552
G1 X174.125 Y125.341 E19.17935
G1 X173.711 Y125.938 E19.20351
G1 X173.235 Y126.486 E19.22766
G1 X172.701 Y126.979 E19.25183
G1 X172.116 Y127.409 E19.27598
G1 X171.55 Y127.741 E19.2978
G1 X170.675 Y128.152 E19.32996
G1 X169.985 Y128.377 E19.35409
G1 X169.274 Y128.525 E19.37825
G1 X168.551 Y128.594 E19.40241
G1 X167.824 Y128.583 E19.42659
G1 X167.104 Y128.492 E19.45073
G1 X166.397 Y128.323 E19.4749
G1 X165.714 Y128.077 E19.49905
G1 X165.062 Y127.757 E19.52321
G1 X164.564 Y127.449 E19.54268
G1 X162.085 Y125.756 E19.64253
G1 X159.568 Y124.419 E19.73732
G1 X156.891 Y123.353 E19.83316
G1 X154.128 Y122.586 E19.92853
G1 X151.338 Y122.132 E20.02255
G1 X148.502 Y121.978 E20.11701
G1 X145.662 Y122.133 E20.21161
G1 X142.862 Y122.589 E20.30596
G1 X140.122 Y123.348 E20.40053
G1 X137.491 Y124.395 E20.49471
G1 X134.977 Y125.725 E20.58931
G1 X132.406 Y127.461 E20.69249
G1 X131.783 Y127.834 E20.71664
G1 X131.122 Y128.136 E20.74081
G1 X130.432 Y128.364 E20.76498
G1 X129.722 Y128.514 E20.78912
G1 X128.999 Y128.586 E20.81328
G1 X128.272 Y128.577 E20.83746
G1 X127.551 Y128.489 E20.86162
G1 X126.844 Y128.322 E20.88578
G1 X126.16 Y128.079 E20.90993
G1 X125.629 Y127.828 E20.92946
G1 X124.794 Y127.342 E20.9616
G1 X124.217 Y126.901 E20.98575
G1 X123.691 Y126.4 E21.00991
G1 X123.223 Y125.844 E21.03408
G1 X122.82 Y125.24 E21.05823
G1 X122.485 Y124.596 E21.08238
G1 X122.223 Y123.918 E21.10655
G1 X122.037 Y123.216 E21.13071
G1 X121.929 Y122.498 E21.15486
G1 X121.9 Y121.88 E21.17543
G1 X121.9 Y114.385 E21.42472
G1 X121.94 Y113.66 E21.44887
G1 X122.059 Y112.943 E21.47304
G1 X122.115 Y112.744 E21.47992
G1 X122.037 Y112.448 E21.4901
G1 X121.929 Y111.73 E21.51425
G1 X121.9 Y111.112 E21.53483
G1 X121.9 Y103.617 E21.78411
G1 X121.94 Y102.892 E21.80826
G1 X122.059 Y102.175 E21.83243
G1 X122.257 Y101.476 E21.8566
G1 X122.53 Y100.803 E21.88075
G1 X122.875 Y100.164 E21.90491
G1 X123.289 Y99.567 E21.92907
G0 F3600 X123.685 Y99.711
G1 F1800 X124.116 Y99.233 E21.95048
G1 X124.758 Y98.647 E21.97939
G1 X125.333 Y98.241 E22.0028
G1 X125.951 Y97.903 E22.02623
G1 X126.602 Y97.636 E22.04963
G1 X127.28 Y97.446 E22.07305
G1 X127.975 Y97.333 E22.09647
G1 X128.617 Y97.3 E22.11785
G1 X168.383 Y97.3 E23.44047
G1 X169.086 Y97.34 E23.46389
G1 X169.78 Y97.459 E23.48731
G1 X170.455 Y97.657 E23.51071
G1 X171.104 Y97.929 E23.53411
G1 X171.718 Y98.274 E23.55754
G1 X172.289 Y98.685 E23.58094
G1 X172.767 Y99.116 E23.60234
G1 X173.353 Y99.758 E23.63125
G1 X173.759 Y100.333 E23.65467
G1 X174.097 Y100.951 E23.67809
G1 X174.364 Y101.602 E23.7015
G1 X174.554 Y102.28 E23.72492
G1 X174.667 Y102.975 E23.74834
G1 X174.7 Y103.617 E23.76972
G1 X174.7 Y111.12 E24.01927
G1 X174.66 Y111.823 E24.04269
G1 X174.541 Y112.517 E24.06611
G1 X174.472 Y112.754 E24.07432
G1 X174.554 Y113.048 E24.08447
G1 X174.667 Y113.743 E24.10789
G1 X174.7 Y114.385 E24.12927
G1 X174.7 Y121.888 E24.37882
G1 X174.66 Y122.591 E24.40224
G1 X174.541 Y123.285 E24.42566
G1 X174.343 Y123.96 E24.44906
G1 X174.071 Y124.609 E24.47246
G1 X173.726 Y125.223 E24.49588
G1 X173.315 Y125.794 E24.51928
G1 X172.841 Y126.315 E24.54271
G1 X172.311 Y126.779 E24.56614
G1 X171.732 Y127.179 E24.58955
G1 X171.152 Y127.497 E24.61155
G1 X170.51 Y127.787 E24.63498
G1 X169.84 Y128.001 E24.65837
G1 X169.15 Y128.139 E24.68177
G1 X168.448 Y128.197 E24.7052
G1 X167.744 Y128.175 E24.72863
G1 X167.048 Y128.074 E24.75202
G1 X166.367 Y127.894 E24.77545
G1 X165.711 Y127.639 E24.79886
G1 X165.088 Y127.31 E24.82229
G1 X162.29 Y125.411 E24.93476
G1 X159.744 Y124.059 E25.03064
G1 X157.009 Y122.97 E25.12855
G1 X154.217 Y122.196 E25.22492
G1 X151.387 Y121.734 E25.32029
G1 X148.501 Y121.578 E25.41642
G1 X145.612 Y121.735 E25.51265
G1 X142.783 Y122.196 E25.60798
G1 X139.987 Y122.971 E25.70449
G1 X137.323 Y124.031 E25.79985
G1 X134.776 Y125.378 E25.89568
G1 X132.182 Y127.13 E25.99979
G1 X131.577 Y127.49 E26.02321
G1 X130.935 Y127.78 E26.04664
G1 X130.265 Y127.994 E26.07003
G1 X129.575 Y128.132 E26.09343
G1 X128.873 Y128.19 E26.11686
G1 X128.169 Y128.168 E26.14029
G1 X127.473 Y128.067 E26.16368
G1 X126.792 Y127.887 E26.18711
G1 X126.136 Y127.632 E26.21052
G1 X125.604 Y127.362 E26.23036
G1 X125.001 Y126.998 E26.25379
G1 X124.443 Y126.569 E26.2772
G1 X123.938 Y126.079 E26.3006
G1 X123.491 Y125.534 E26.32404
G1 X123.109 Y124.943 E26.34745
G1 X122.797 Y124.312 E26.37086
G1 X122.558 Y123.65 E26.39427
G1 X122.396 Y122.965 E26.41768
G1 X122.312 Y122.266 E26.4411
G1 X122.3 Y114.385 E26.70322
G1 X122.34 Y113.682 E26.72664
G1 X122.459 Y112.988 E26.75006
G1 X122.528 Y112.754 E26.75817
G1 X122.396 Y112.197 E26.77721
G1 X122.312 Y111.498 E26.80063
G1 X122.3 Y103.617 E27.06275
G1 X122.34 Y102.914 E27.08617
G1 X122.459 Y102.22 E27.10959
G1 X122.657 Y101.545 E27.13299
G1 X122.929 Y100.896 E27.15639
G1 X123.274 Y100.282 E27.17982
G1 X123.685 Y99.711 E27.20322
G0 F3600 X124.082 Y99.859
G1 F1800 X124.516 Y99.399 E27.22425
G1 X125.025 Y98.946 E27.24692
G1 X125.583 Y98.557 E27.26954
G1 X126.183 Y98.235 E27.29219
G1 X126.817 Y97.986 E27.31484
G1 X127.476 Y97.813 E27.3375
G1 X128.15 Y97.719 E27.36014
G1 X128.617 Y97.7 E27.37568
G1 X168.383 Y97.7 E28.69831
G1 X169.063 Y97.74 E28.72096
G1 X169.733 Y97.859 E28.7436
G1 X170.385 Y98.056 E28.76625
