;FLAVOR:Marlin
;TIME:657
;Filament used: 0.940261m
;Layer height: 0.3
;MINX:130.701
;MINY:87.201
;MINZ:0.2
;MAXX:166.299
;MAXY:122.799
;MAXZ:20
;Generated with Cura_SteamEngine 4.6.1
M104 S210
M105
M109 S210
M82 ;absolute extrusion mode
; -- START GCODE --
G21                     ;set units to millimetres
G90                     ;set to absolute positioning
M106 S0                 ;set fan speed to zero (turned off)
G28 X0 Y0               ;move to the X/Y origin (Home)
G28 Z0                  ;move to the Z origin (Home)
G1 Z15.0 F1200          ;move Z to position 15.0 mm
G92 E0                  ;zero the extruded length
G1 E20 F200             ;extrude 20mm of feed stock
G92 E0                  ;zero the extruded length again
G1 F7200                ;set feedrate to 120 mm/s
; -- end of START GCODE --
G92 E0
G92 E0
G1 F1500 E-6.5
;LAYER_COUNT:67
;LAYER:0
M107
G0 F3600 X133.703 Y95.106 Z0.2
;TYPE:SKIRT
G1 F1500 E0
G1 F1800 X134.147 Y94.509 E0.02475
G1 X135.392 Y92.991 E0.09004
G1 X135.923 Y92.406 E0.11632
G1 X136.466 Y91.915 E0.14067
G1 X137.981 Y90.668 E0.20593
G1 X138.615 Y90.197 E0.2322
G1 X139.252 Y89.816 E0.25689
G1 X140.979 Y88.89 E0.32207
G1 X141.693 Y88.552 E0.34834
G1 X142.397 Y88.301 E0.3732
G1 X144.269 Y87.732 E0.43827
G1 X145.035 Y87.541 E0.46453
G1 X145.767 Y87.433 E0.48914
G1 X147.723 Y87.239 E0.55452
G1 X148.512 Y87.201 E0.58079
G1 X149.257 Y87.239 E0.6056
G1 X151.228 Y87.433 E0.67147
G1 X152.009 Y87.55 E0.69774
G1 X152.731 Y87.732 E0.7225
G1 X154.499 Y88.269 E0.78396
G1 X155.242 Y88.536 E0.81022
G1 X155.84 Y88.817 E0.8322
G1 X157.653 Y89.763 E0.90021
G1 X158.334 Y90.163 E0.92648
G1 X158.991 Y90.647 E0.95362
G1 X160.509 Y91.892 E1.01892
G1 X161.094 Y92.423 E1.0452
G1 X161.585 Y92.966 E1.06955
G1 X162.832 Y94.481 E1.13481
G1 X163.303 Y95.115 E1.16108
G1 X163.683 Y95.75 E1.18569
G1 X164.609 Y97.476 E1.25084
G1 X164.947 Y98.19 E1.27711
G1 X165.199 Y98.896 E1.30205
G1 X165.768 Y100.768 E1.36712
G1 X165.959 Y101.534 E1.39338
G1 X166.067 Y102.265 E1.41796
G1 X166.261 Y104.217 E1.4832
G1 X166.299 Y105.005 E1.50944
G1 X166.262 Y105.742 E1.53398
G1 X166.072 Y107.698 E1.59935
G1 X165.956 Y108.479 E1.62561
G1 X165.777 Y109.197 E1.65022
G1 X165.212 Y111.07 E1.71529
G1 X164.946 Y111.813 E1.74154
G1 X164.626 Y112.487 E1.76635
G1 X163.705 Y114.214 E1.83145
G1 X163.299 Y114.891 E1.8577
G1 X162.854 Y115.491 E1.88255
G1 X161.608 Y117.01 E1.9479
G1 X161.077 Y117.594 E1.97415
G1 X160.534 Y118.085 E1.9985
G1 X159.019 Y119.332 E2.06376
G1 X158.385 Y119.803 E2.09003
G1 X157.748 Y120.184 E2.11472
G1 X156.021 Y121.11 E2.17989
G1 X155.307 Y121.448 E2.20617
G1 X154.603 Y121.699 E2.23103
G1 X152.731 Y122.268 E2.2961
G1 X151.965 Y122.459 E2.32236
G1 X151.233 Y122.567 E2.34697
G1 X149.277 Y122.761 E2.41234
G1 X148.488 Y122.799 E2.43862
G1 X147.751 Y122.762 E2.46316
G1 X145.8 Y122.572 E2.52836
G1 X145.019 Y122.456 E2.55462
G1 X144.303 Y122.277 E2.57917
G1 X142.43 Y121.712 E2.64424
G1 X141.687 Y121.446 E2.67048
G1 X141.011 Y121.126 E2.69536
G1 X139.283 Y120.204 E2.7605
G1 X138.606 Y119.797 E2.78678
G1 X138.008 Y119.352 E2.81157
G1 X136.488 Y118.105 E2.87696
G1 X135.903 Y117.574 E2.90324
G1 X135.412 Y117.032 E2.92756
G1 X134.166 Y115.518 E2.99278
G1 X133.696 Y114.883 E3.01905
G1 X133.314 Y114.245 E3.04379
G1 X132.389 Y112.519 E3.10892
G1 X132.052 Y111.805 E3.13518
G1 X131.801 Y111.103 E3.15997
G1 X131.232 Y109.231 E3.22505
G1 X131.041 Y108.465 E3.25131
G1 X130.933 Y107.734 E3.27588
G1 X130.739 Y105.78 E3.34119
G1 X130.701 Y104.991 E3.36747
G1 X130.738 Y104.254 E3.39201
G1 X130.928 Y102.3 E3.45731
G1 X131.044 Y101.519 E3.48357
G1 X131.224 Y100.801 E3.50819
G1 X131.789 Y98.929 E3.57322
G1 X132.055 Y98.186 E3.59947
G1 X132.374 Y97.511 E3.6243
G1 X133.296 Y95.783 E3.68945
G1 X133.703 Y95.106 E3.71572
G0 F3600 X134.046 Y95.313
G1 F1800 X134.456 Y94.762 E3.73856
G1 X135.701 Y93.244 E3.80386
G1 X136.219 Y92.676 E3.82943
G1 X136.72 Y92.224 E3.85187
G1 X138.235 Y90.977 E3.91713
G1 X138.854 Y90.519 E3.94275
G1 X139.441 Y90.168 E3.96549
G1 X141.168 Y89.242 E4.03067
G1 X141.864 Y88.915 E4.05625
G1 X142.513 Y88.684 E4.07916
G1 X144.385 Y88.115 E4.14423
G1 X145.132 Y87.93 E4.16983
G1 X145.807 Y87.831 E4.19252
G1 X147.763 Y87.637 E4.2579
G1 X148.531 Y87.601 E4.28347
G1 X149.218 Y87.637 E4.30635
G1 X151.189 Y87.831 E4.37222
G1 X151.949 Y87.946 E4.39779
G1 X152.615 Y88.114 E4.42063
G1 X154.383 Y88.651 E4.48209
G1 X155.106 Y88.913 E4.50767
G1 X155.655 Y89.171 E4.52784
G1 X157.468 Y90.117 E4.59586
G1 X158.131 Y90.508 E4.62146
G1 X158.738 Y90.956 E4.64655
G1 X160.256 Y92.201 E4.71185
G1 X160.824 Y92.719 E4.73742
G1 X161.276 Y93.22 E4.75986
G1 X162.523 Y94.735 E4.82512
G1 X162.981 Y95.354 E4.85073
G1 X163.331 Y95.94 E4.87344
G1 X164.257 Y97.666 E4.93858
G1 X164.585 Y98.361 E4.96414
G1 X164.816 Y99.012 E4.98712
G1 X165.385 Y100.884 E5.05219
G1 X165.57 Y101.631 E5.07779
G1 X165.669 Y102.304 E5.10042
G1 X165.863 Y104.256 E5.16566
G1 X165.899 Y105.024 E5.19123
G1 X165.864 Y105.703 E5.21384
G1 X165.674 Y107.659 E5.27921
G1 X165.56 Y108.42 E5.3048
G1 X165.394 Y109.081 E5.32747
G1 X164.829 Y110.954 E5.39254
G1 X164.569 Y111.678 E5.41812
G1 X164.274 Y112.299 E5.44099
G1 X163.353 Y114.026 E5.50609
G1 X162.956 Y114.685 E5.53168
G1 X162.544 Y115.237 E5.55459
G1 X161.298 Y116.756 E5.61993
G1 X160.78 Y117.325 E5.64552
G1 X160.28 Y117.776 E5.66792
G1 X158.765 Y119.023 E5.73318
G1 X158.146 Y119.481 E5.75879
G1 X157.559 Y119.832 E5.78154
G1 X155.832 Y120.758 E5.84672
G1 X155.136 Y121.085 E5.87229
G1 X154.487 Y121.316 E5.89521
G1 X152.615 Y121.885 E5.96028
G1 X151.868 Y122.07 E5.98588
G1 X151.193 Y122.169 E6.00857
G1 X149.237 Y122.363 E6.07394
G1 X148.469 Y122.399 E6.09952
G1 X147.79 Y122.364 E6.12213
G1 X145.839 Y122.174 E6.18733
G1 X145.078 Y122.06 E6.21292
G1 X144.419 Y121.894 E6.23552
G1 X142.546 Y121.329 E6.30059
G1 X141.822 Y121.069 E6.32618
G1 X141.199 Y120.773 E6.34912
G1 X139.471 Y119.851 E6.41426
G1 X138.813 Y119.454 E6.43982
G1 X138.261 Y119.043 E6.46271
G1 X136.741 Y117.796 E6.5281
G1 X136.173 Y117.278 E6.55367
G1 X135.721 Y116.777 E6.57612
G1 X134.475 Y115.263 E6.64133
G1 X134.018 Y114.645 E6.6669
G1 X133.667 Y114.056 E6.6897
G1 X132.742 Y112.33 E6.75483
G1 X132.414 Y111.635 E6.78039
G1 X132.184 Y110.987 E6.80326
G1 X131.615 Y109.115 E6.86834
G1 X131.43 Y108.368 E6.89393
G1 X131.331 Y107.694 E6.91659
G1 X131.137 Y105.74 E6.9819
G1 X131.101 Y104.972 E7.00747
G1 X131.136 Y104.293 E7.03009
G1 X131.326 Y102.339 E7.09538
G1 X131.44 Y101.578 E7.12098
G1 X131.607 Y100.917 E7.14365
G1 X132.172 Y99.045 E7.20869
G1 X132.432 Y98.321 E7.23428
G1 X132.727 Y97.699 E7.25717
G1 X133.649 Y95.971 E7.32232
G1 X134.046 Y95.313 E7.34788
G0 F3600 X134.389 Y95.52
G1 F1800 X134.766 Y95.016 E7.36881
G1 X136.011 Y93.498 E7.43411
G1 X136.515 Y92.946 E7.45897
G1 X136.974 Y92.532 E7.47953
G1 X138.489 Y91.285 E7.54479
G1 X139.092 Y90.841 E7.5697
G1 X139.63 Y90.521 E7.59052
G1 X141.357 Y89.595 E7.65569
G1 X142.034 Y89.277 E7.68057
G1 X142.629 Y89.067 E7.70156
G1 X144.501 Y88.498 E7.76663
G1 X145.228 Y88.319 E7.79153
G1 X145.846 Y88.229 E7.81231
G1 X147.802 Y88.035 E7.87768
G1 X148.549 Y88.001 E7.90255
G1 X149.179 Y88.035 E7.92354
G1 X151.15 Y88.229 E7.98941
G1 X151.889 Y88.342 E8.01428
G1 X152.498 Y88.497 E8.03518
G1 X154.266 Y89.034 E8.09663
G1 X154.969 Y89.289 E8.12151
G1 X155.47 Y89.526 E8.13994
G1 X157.283 Y90.472 E8.20796
G1 X157.927 Y90.853 E8.23284
G1 X158.484 Y91.266 E8.25591
G1 X160.002 Y92.511 E8.3212
G1 X160.554 Y93.015 E8.34606
G1 X160.968 Y93.474 E8.36662
G1 X162.215 Y94.989 E8.43189
G1 X162.659 Y95.592 E8.45679
G1 X162.978 Y96.129 E8.47757
G1 X163.904 Y97.855 E8.54271
G1 X164.222 Y98.532 E8.56759
G1 X164.433 Y99.128 E8.58862
G1 X165.002 Y101 E8.6537
G1 X165.181 Y101.727 E8.6786
G1 X165.271 Y102.344 E8.69934
G1 X165.465 Y104.296 E8.76458
G1 X165.499 Y105.043 E8.78945
G1 X165.466 Y105.665 E8.81017
G1 X165.276 Y107.621 E8.87553
G1 X165.164 Y108.36 E8.90039
G1 X165.011 Y108.966 E8.92118
G1 X164.446 Y110.839 E8.98625
G1 X164.192 Y111.542 E9.01111
G1 X163.921 Y112.111 E9.03207
G1 X163 Y113.838 E9.09717
G1 X162.613 Y114.478 E9.12204
G1 X162.235 Y114.983 E9.14303
G1 X160.989 Y116.502 E9.20837
G1 X160.484 Y117.055 E9.23328
G1 X160.026 Y117.468 E9.25379
G1 X158.511 Y118.715 E9.31905
G1 X157.908 Y119.159 E9.34396
G1 X157.37 Y119.479 E9.36478
G1 X155.643 Y120.405 E9.42996
G1 X154.966 Y120.723 E9.45483
G1 X154.371 Y120.933 E9.47582
G1 X152.499 Y121.502 E9.54089
G1 X151.772 Y121.681 E9.5658
G1 X151.154 Y121.771 E9.58657
G1 X149.198 Y121.965 E9.65194
G1 X148.451 Y121.999 E9.67682
G1 X147.829 Y121.966 E9.69753
G1 X145.878 Y121.776 E9.76273
G1 X145.138 Y121.664 E9.78762
G1 X144.534 Y121.511 E9.80835
G1 X142.661 Y120.946 E9.87342
G1 X141.958 Y120.692 E9.89828
G1 X141.388 Y120.42 E9.91928
G1 X139.66 Y119.498 E9.98443
G1 X139.02 Y119.111 E10.0093
G1 X138.515 Y118.734 E10.03026
G1 X136.995 Y117.487 E10.09565
G1 X136.443 Y116.982 E10.12054
G1 X136.03 Y116.523 E10.14107
G1 X134.784 Y115.009 E10.20629
G1 X134.34 Y114.407 E10.23117
G1 X134.019 Y113.868 E10.25204
G1 X133.094 Y112.142 E10.31717
G1 X132.777 Y111.464 E10.34206
G1 X132.567 Y110.871 E10.36298
G1 X131.998 Y108.999 E10.42806
G1 X131.819 Y108.272 E10.45296
G1 X131.729 Y107.655 E10.4737
G1 X131.535 Y105.701 E10.53901
G1 X131.501 Y104.953 E10.56391
G1 X131.534 Y104.332 E10.5846
G1 X131.724 Y102.378 E10.64989
G1 X131.836 Y101.638 E10.67479
G1 X131.99 Y101.032 E10.69558
G1 X132.555 Y99.16 E10.76062
G1 X132.809 Y98.457 E10.78548
G1 X133.08 Y97.888 E10.80644
G1 X134.002 Y96.16 E10.87159
G1 X134.389 Y95.52 E10.89646
G0 F3600 X134.732 Y95.727
G1 F1800 X135.075 Y95.27 E10.91547
G1 X136.32 Y93.752 E10.98076
G1 X136.811 Y93.216 E11.00494
G1 X137.229 Y92.841 E11.02362
G1 X138.744 Y91.594 E11.08888
G1 X139.329 Y91.164 E11.11303
G1 X139.819 Y90.873 E11.13199
G1 X141.546 Y89.947 E11.19716
G1 X142.204 Y89.64 E11.22131
G1 X142.746 Y89.449 E11.24042
G1 X144.618 Y88.88 E11.3055
G1 X145.323 Y88.708 E11.32964
G1 X145.886 Y88.627 E11.34855
G1 X147.842 Y88.433 E11.41393
G1 X148.567 Y88.401 E11.43807
G1 X149.139 Y88.433 E11.45712
G1 X151.11 Y88.627 E11.523
G1 X151.828 Y88.738 E11.54716
G1 X152.382 Y88.88 E11.56618
G1 X154.15 Y89.417 E11.62764
G1 X154.832 Y89.666 E11.65179
G1 X155.285 Y89.881 E11.66846
G1 X157.098 Y90.827 E11.73648
G1 X157.723 Y91.198 E11.76065
G1 X158.23 Y91.575 E11.78167
G1 X159.748 Y92.82 E11.84697
G1 X160.284 Y93.311 E11.87114
G1 X160.659 Y93.729 E11.88982
G1 X161.906 Y95.244 E11.95508
G1 X162.336 Y95.829 E11.97923
G1 X162.626 Y96.318 E11.99814
G1 X163.552 Y98.044 E12.06329
G1 X163.86 Y98.702 E12.08745
G1 X164.051 Y99.245 E12.1066
G1 X164.62 Y101.117 E12.17167
G1 X164.792 Y101.822 E12.19581
G1 X164.873 Y102.383 E12.21466
G1 X165.067 Y104.335 E12.2799
G1 X165.099 Y105.061 E12.30407
G1 X165.068 Y105.626 E12.32289
G1 X164.878 Y107.582 E12.38826
G1 X164.768 Y108.3 E12.41242
G1 X164.628 Y108.85 E12.43129
G1 X164.063 Y110.723 E12.49636
G1 X163.815 Y111.406 E12.52053
G1 X163.568 Y111.923 E12.53959
G1 X162.647 Y113.65 E12.60468
G1 X162.27 Y114.271 E12.62885
G1 X161.926 Y114.73 E12.64793
G1 X160.68 Y116.249 E12.71327
G1 X160.189 Y116.784 E12.73742
G1 X159.771 Y117.159 E12.7561
G1 X158.256 Y118.406 E12.82136
G1 X157.671 Y118.836 E12.84551
G1 X157.181 Y119.127 E12.86447
G1 X155.454 Y120.053 E12.92964
G1 X154.796 Y120.36 E12.95379
G1 X154.254 Y120.551 E12.97291
G1 X152.382 Y121.12 E13.03798
G1 X151.677 Y121.292 E13.06212
G1 X151.114 Y121.373 E13.08104
G1 X149.158 Y121.567 E13.14641
G1 X148.433 Y121.599 E13.17055
G1 X147.867 Y121.568 E13.1894
G1 X145.916 Y121.378 E13.2546
G1 X145.198 Y121.268 E13.27876
G1 X144.65 Y121.128 E13.29757
G1 X142.777 Y120.563 E13.36264
G1 X142.094 Y120.315 E13.38681
G1 X141.576 Y120.067 E13.40591
G1 X139.848 Y119.145 E13.47105
G1 X139.227 Y118.768 E13.49522
G1 X138.769 Y118.425 E13.51425
G1 X137.249 Y117.178 E13.57964
G1 X136.714 Y116.687 E13.60379
G1 X136.339 Y116.269 E13.62247
G1 X135.093 Y114.755 E13.68768
G1 X134.663 Y114.17 E13.71183
G1 X134.372 Y113.679 E13.73082
G1 X133.447 Y111.953 E13.79595
G1 X133.139 Y111.294 E13.82014
G1 X132.949 Y110.754 E13.83918
G1 X132.38 Y108.882 E13.90426
G1 X132.208 Y108.177 E13.92839
G1 X132.127 Y107.615 E13.94728
G1 X131.933 Y105.661 E14.01259
G1 X131.901 Y104.935 E14.03676
G1 X131.932 Y104.37 E14.05558
G1 X132.122 Y102.416 E14.12088
G1 X132.232 Y101.698 E14.14503
G1 X132.373 Y101.148 E14.16392
G1 X132.938 Y99.276 E14.22896
G1 X133.185 Y98.593 E14.25311
G1 X133.433 Y98.076 E14.27218
G1 X134.355 Y96.348 E14.33733
G1 X134.732 Y95.727 E14.36149
G0 F3600 X135.074 Y95.935
G1 F1800 X135.384 Y95.523 E14.37864
G1 X136.629 Y94.005 E14.44394
G1 X137.106 Y93.487 E14.46736
G1 X137.483 Y93.15 E14.48418
G1 X138.998 Y91.903 E14.54944
G1 X139.566 Y91.487 E14.57286
G1 X140.008 Y91.226 E14.58993
G1 X141.735 Y90.3 E14.6551
G1 X142.374 Y90.003 E14.67854
G1 X142.862 Y89.832 E14.69574
G1 X144.734 Y89.263 E14.76082
G1 X145.418 Y89.097 E14.78423
G1 X145.925 Y89.025 E14.80126
G1 X147.881 Y88.831 E14.86663
G1 X148.584 Y88.802 E14.89004
G1 X149.1 Y88.831 E14.90723
G1 X151.071 Y89.025 E14.9731
G1 X151.767 Y89.133 E14.99652
G1 X152.266 Y89.263 E15.01367
G1 X154.034 Y89.8 E15.07513
G1 X154.695 Y90.042 E15.09854
G1 X155.1 Y90.235 E15.11346
G1 X156.913 Y91.181 E15.18148
G1 X157.518 Y91.542 E15.20491
G1 X157.977 Y91.884 E15.22395
G1 X159.495 Y93.129 E15.28925
G1 X160.013 Y93.606 E15.31267
G1 X160.35 Y93.983 E15.32949
G1 X161.597 Y95.498 E15.39475
G1 X162.013 Y96.066 E15.41817
G1 X162.273 Y96.507 E15.4352
G1 X163.199 Y98.233 E15.50034
G1 X163.496 Y98.871 E15.52375
G1 X163.668 Y99.361 E15.54102
G1 X164.237 Y101.233 E15.6061
G1 X164.403 Y101.917 E15.62951
G1 X164.475 Y102.423 E15.64651
G1 X164.669 Y104.375 E15.71175
G1 X164.698 Y105.078 E15.73515
G1 X164.67 Y105.587 E15.75211
G1 X164.48 Y107.543 E15.81747
G1 X164.372 Y108.239 E15.8409
G1 X164.245 Y108.735 E15.85793
G1 X163.68 Y110.608 E15.92299
G1 X163.439 Y111.269 E15.94639
G1 X163.215 Y111.734 E15.96356
G1 X162.294 Y113.461 E16.02866
G1 X161.928 Y114.063 E16.05209
G1 X161.617 Y114.476 E16.06929
G1 X160.371 Y115.995 E16.13463
G1 X159.894 Y116.513 E16.15805
G1 X159.517 Y116.85 E16.17487
G1 X158.002 Y118.097 E16.24013
G1 X157.434 Y118.513 E16.26355
G1 X156.992 Y118.774 E16.28062
G1 X155.265 Y119.7 E16.3458
G1 X154.626 Y119.997 E16.36924
G1 X154.138 Y120.168 E16.38644
G1 X152.266 Y120.737 E16.45151
G1 X151.582 Y120.903 E16.47492
G1 X151.075 Y120.975 E16.49195
G1 X149.119 Y121.169 E16.55733
G1 X148.416 Y121.198 E16.58073
G1 X147.906 Y121.17 E16.59772
G1 X145.955 Y120.98 E16.66292
G1 X145.259 Y120.872 E16.68634
G1 X144.765 Y120.745 E16.70331
G1 X142.892 Y120.18 E16.76838
G1 X142.231 Y119.939 E16.79178
G1 X141.764 Y119.714 E16.80902
G1 X140.036 Y118.792 E16.87416
G1 X139.435 Y118.426 E16.89757
G1 X139.023 Y118.115 E16.91474
G1 X137.503 Y116.868 E16.98013
G1 X136.985 Y116.392 E17.00352
G1 X136.648 Y116.015 E17.02034
G1 X135.402 Y114.501 E17.08556
G1 X134.986 Y113.933 E17.10898
G1 X134.724 Y113.49 E17.12609
G1 X133.799 Y111.764 E17.19123
G1 X133.503 Y111.125 E17.21465
G1 X133.332 Y110.638 E17.23182
G1 X132.763 Y108.766 E17.29689
G1 X132.597 Y108.082 E17.3203
G1 X132.525 Y107.576 E17.3373
G1 X132.331 Y105.622 E17.40261
G1 X132.302 Y104.918 E17.42605
G1 X132.33 Y104.409 E17.443
G1 X132.52 Y102.455 E17.5083
G1 X132.628 Y101.759 E17.53172
G1 X132.755 Y101.264 E17.54872
G1 X133.32 Y99.392 E17.61376
G1 X133.562 Y98.73 E17.6372
G1 X133.786 Y98.264 E17.6544
G1 X134.708 Y96.536 E17.71954
G1 X135.074 Y95.935 E17.74294
G0 F3600 X135.416 Y96.144
G1 F1800 X135.693 Y95.777 E17.75824
G1 X136.938 Y94.259 E17.82354
G1 X137.4 Y93.759 E17.84618
G1 X137.737 Y93.459 E17.86118
G1 X139.252 Y92.212 E17.92645
G1 X139.802 Y91.811 E17.94909
G1 X140.197 Y91.578 E17.96434
G1 X141.924 Y90.652 E18.02952
G1 X142.542 Y90.366 E18.05217
G1 X142.978 Y90.215 E18.06751
G1 X144.85 Y89.646 E18.13259
G1 X145.512 Y89.486 E18.15524
G1 X145.965 Y89.423 E18.17045
G1 X147.921 Y89.229 E18.23583
G1 X148.601 Y89.202 E18.25846
G1 X151.032 Y89.423 E18.33965
G1 X151.705 Y89.529 E18.36231
G1 X152.15 Y89.645 E18.37761
G1 X153.918 Y90.182 E18.43906
G1 X154.556 Y90.418 E18.46169
G1 X156.728 Y91.536 E18.54294
