;FLAVOR:Marlin
;TIME:4425
;Filament used: 6.55991m
;Layer height: 0.3
;MINX:110.884
;MINY:87.21
;MINZ:0.2
;MAXX:172.115
;MAXY:138.787
;MAXZ:98
;Generated with Cura_SteamEngine 4.6.1
M104 S210
M105
M109 S210
M82 ;absolute extrusion mode
; -- START GCODE --
G21                     ;set units to millimetres
G90                     ;set to absolute positioning
M106 S0                 ;set fan speed to zero (turned off)
G28 X0 Y0               ;move to the X/Y origin (Home)
G28 Z0                  ;move to the Z origin (Home)
G1 Z15.0 F1200          ;move Z to position 15.0 mm
G92 E0                  ;zero the extruded length
G1 E20 F200             ;extrude 20mm of feed stock
G92 E0                  ;zero the extruded length again
G1 F7200                ;set feedrate to 120 mm/s
; -- end of START GCODE --
G92 E0
G92 E0
G1 F1500 E-6.5
;LAYER_COUNT:327
;LAYER:0
M107
G0 F3600 X112.764 Y105.932 Z0.2
;TYPE:SKIRT
G1 F1500 E0
G1 F1800 X113.307 Y105.359 E0.02626
G1 X113.906 Y104.844 E0.05253
G1 X114.554 Y104.393 E0.07879
G1 X115.245 Y104.009 E0.10508
G1 X115.97 Y103.697 E0.13133
G1 X116.723 Y103.46 E0.15759
G1 X117.497 Y103.301 E0.18387
G1 X118.282 Y103.22 E0.21012
G1 X126.885 Y103.21 E0.49626
G1 X126.709 Y103.021 E0.50485
G1 X126.232 Y102.391 E0.53113
G1 X125.822 Y101.716 E0.5574
G1 X125.482 Y101.003 E0.58367
G1 X125.216 Y100.26 E0.60992
G1 X125.027 Y99.493 E0.63619
G1 X124.916 Y98.711 E0.66246
G1 X124.884 Y98.007 E0.6859
G1 X124.884 Y95.01 E0.78558
G1 X124.924 Y94.221 E0.81186
G1 X125.043 Y93.441 E0.8381
G1 X125.241 Y92.676 E0.86438
G1 X125.515 Y91.936 E0.89063
G1 X125.863 Y91.227 E0.9169
G1 X126.281 Y90.556 E0.94319
G1 X126.764 Y89.932 E0.96943
G1 X127.307 Y89.359 E0.99569
G1 X127.906 Y88.844 E1.02196
G1 X128.554 Y88.393 E1.04822
G1 X129.245 Y88.009 E1.07452
G1 X129.97 Y87.697 E1.10077
G1 X130.723 Y87.46 E1.12702
G1 X131.497 Y87.301 E1.15331
G1 X132.282 Y87.22 E1.17955
G1 X147.61 Y87.21 E1.68936
G1 X148.552 Y87.267 E1.72075
G1 X149.404 Y87.411 E1.74949
G1 X150.164 Y87.624 E1.77574
G1 X150.899 Y87.913 E1.80201
G1 X151.601 Y88.274 E1.82827
G1 X152.263 Y88.705 E1.85454
G1 X152.878 Y89.2 E1.8808
G1 X153.44 Y89.755 E1.90707
G1 X153.943 Y90.364 E1.93334
G1 X154.381 Y91.021 E1.9596
G1 X154.751 Y91.718 E1.98585
G1 X155.049 Y92.45 E2.01214
G1 X155.271 Y93.208 E2.03841
G1 X155.415 Y93.984 E2.06466
G1 X155.484 Y95.019 E2.09916
G1 X155.484 Y103.097 E2.36783
G1 X155.543 Y103.646 E2.3862
G1 X155.589 Y103.784 E2.39104
G1 X155.657 Y103.898 E2.39545
G1 X155.76 Y104.008 E2.40046
G1 X155.869 Y104.085 E2.4049
G1 X155.998 Y104.138 E2.40954
G1 X156.142 Y104.164 E2.41441
G1 X156.281 Y104.159 E2.41903
G1 X156.408 Y104.127 E2.42339
G1 X156.537 Y104.062 E2.42819
G1 X157.304 Y103.445 E2.46093
G1 X157.944 Y102.981 E2.48723
G1 X158.627 Y102.585 E2.51348
G1 X159.346 Y102.26 E2.53973
G1 X160.095 Y102.009 E2.566
G1 X160.865 Y101.835 E2.59226
G1 X161.649 Y101.74 E2.61852
G1 X162.439 Y101.725 E2.6448
G1 X163.226 Y101.789 E2.67107
G1 X164.002 Y101.933 E2.69732
G1 X164.76 Y102.155 E2.72359
G1 X165.492 Y102.452 E2.74986
G1 X166.19 Y102.822 E2.77614
G1 X166.847 Y103.26 E2.8024
G1 X167.709 Y104.004 E2.84027
G1 X169.831 Y106.125 E2.94006
G1 X170.361 Y106.711 E2.96634
G1 X170.828 Y107.347 E2.99258
G1 X171.229 Y108.028 E3.01887
G1 X171.559 Y108.745 E3.04512
G1 X171.815 Y109.492 E3.07139
G1 X171.994 Y110.261 E3.09765
G1 X172.094 Y111.045 E3.12393
G1 X172.115 Y111.834 E3.15019
G1 X172.055 Y112.622 E3.17647
G1 X171.917 Y113.399 E3.20272
G1 X171.7 Y114.158 E3.22897
G1 X171.408 Y114.892 E3.25525
G1 X171.043 Y115.592 E3.2815
G1 X170.609 Y116.252 E3.30778
G1 X170.11 Y116.865 E3.33407
G1 X169.311 Y117.634 E3.37095
G1 X167.713 Y118.966 E3.44014
G1 X167.082 Y119.44 E3.46639
G1 X166.547 Y119.77 E3.4873
G1 X164.736 Y120.79 E3.55643
G1 X164.029 Y121.142 E3.5827
G1 X163.451 Y121.368 E3.60334
G1 X161.482 Y122.047 E3.67261
G1 X160.723 Y122.266 E3.69889
G1 X160.124 Y122.382 E3.71918
G1 X158.062 Y122.699 E3.78857
G1 X157.277 Y122.78 E3.81482
G1 X156.644 Y122.787 E3.83587
G1 X156.412 Y122.78 E3.84359
G1 X156.828 Y123.347 E3.86698
G1 X157.229 Y124.028 E3.89327
G1 X157.559 Y124.745 E3.91952
G1 X157.815 Y125.492 E3.94578
G1 X157.994 Y126.261 E3.97204
G1 X158.094 Y127.045 E3.99833
G1 X158.115 Y127.834 E4.02458
G1 X158.055 Y128.622 E4.05087
G1 X157.917 Y129.399 E4.07711
G1 X157.7 Y130.158 E4.10337
G1 X157.408 Y130.892 E4.12964
G1 X157.043 Y131.592 E4.1559
G1 X156.609 Y132.252 E4.18217
G1 X156.11 Y132.865 E4.20846
G1 X155.311 Y133.634 E4.24535
G1 X153.713 Y134.966 E4.31454
G1 X153.082 Y135.44 E4.34079
G1 X152.547 Y135.77 E4.3617
G1 X150.736 Y136.79 E4.43083
G1 X150.029 Y137.142 E4.45709
G1 X149.451 Y137.368 E4.47774
G1 X147.482 Y138.047 E4.54701
G1 X146.723 Y138.266 E4.57328
G1 X146.124 Y138.382 E4.59358
G1 X144.062 Y138.699 E4.66296
G1 X143.277 Y138.78 E4.68921
G1 X142.644 Y138.787 E4.71027
G1 X140.57 Y138.725 E4.77928
G1 X139.783 Y138.661 E4.80554
G1 X139.164 Y138.554 E4.82644
G1 X137.122 Y138.115 E4.8959
G1 X136.359 Y137.91 E4.92218
G1 X135.776 Y137.695 E4.94285
G1 X133.857 Y136.9 E5.01194
G1 X133.143 Y136.561 E5.03822
G1 X132.608 Y136.245 E5.05889
G1 X130.863 Y135.117 E5.128
G1 X130.222 Y134.655 E5.15428
G1 X129.75 Y134.245 E5.17507
G1 X128.231 Y132.815 E5.24446
G1 X127.685 Y132.246 E5.27069
G1 X127.297 Y131.761 E5.29135
G1 X126.065 Y130.088 E5.36045
G1 X125.63 Y129.429 E5.38672
G1 X125.335 Y128.882 E5.40739
G1 X124.421 Y127.008 E5.47673
G1 X124.112 Y126.282 E5.50298
G1 X123.918 Y125.681 E5.52398
G1 X123.361 Y123.68 E5.59307
G1 X123.188 Y122.909 E5.61935
G1 X123.108 Y122.3 E5.63978
G1 X123.063 Y121.81 E5.65614
G1 X118.732 Y121.81 E5.80019
G1 X118.197 Y121.792 E5.818
G1 X117.413 Y121.703 E5.84424
G1 X116.641 Y121.535 E5.87052
G1 X115.891 Y121.29 E5.89676
G1 X115.168 Y120.97 E5.92306
G1 X114.482 Y120.579 E5.94932
G1 X113.84 Y120.12 E5.97557
G1 X113.246 Y119.599 E6.00185
G1 X112.709 Y119.021 E6.02809
G1 X112.232 Y118.391 E6.05437
G1 X111.822 Y117.716 E6.08064
G1 X111.482 Y117.003 E6.10691
G1 X111.216 Y116.26 E6.13316
G1 X111.027 Y115.493 E6.15943
G1 X110.916 Y114.711 E6.1857
G1 X110.884 Y114.007 E6.20914
G1 X110.884 Y111.01 E6.30882
G1 X110.924 Y110.221 E6.3351
G1 X111.043 Y109.441 E6.36134
G1 X111.241 Y108.676 E6.38762
G1 X111.515 Y107.936 E6.41387
G1 X111.863 Y107.227 E6.44014
G1 X112.281 Y106.556 E6.46643
G1 X112.764 Y105.932 E6.49268
G0 F3600 X113.159 Y106.087
G1 F1800 X113.7 Y105.54 E6.51827
G1 X114.295 Y105.052 E6.54386
G1 X114.937 Y104.629 E6.56943
G1 X115.62 Y104.274 E6.59503
G1 X116.335 Y103.993 E6.62059
G1 X117.077 Y103.787 E6.6462
G1 X117.835 Y103.659 E6.67177
G1 X118.684 Y103.61 E6.70005
G1 X127.862 Y103.61 E7.00531
G1 X127.426 Y103.214 E7.0249
G1 X126.914 Y102.64 E7.05049
G1 X126.464 Y102.016 E7.07607
G1 X126.081 Y101.349 E7.10166
G1 X125.77 Y100.645 E7.12725
G1 X125.534 Y99.913 E7.15283
G1 X125.374 Y99.161 E7.17841
G1 X125.294 Y98.396 E7.20399
G1 X125.284 Y95.01 E7.31661
G1 X125.324 Y94.242 E7.34219
G1 X125.443 Y93.482 E7.36777
G1 X125.641 Y92.739 E7.39335
G1 X125.915 Y92.02 E7.41894
G1 X126.262 Y91.334 E7.44451
G1 X126.678 Y90.687 E7.47009
G1 X127.159 Y90.087 E7.49567
G1 X127.7 Y89.54 E7.52126
G1 X128.295 Y89.052 E7.54685
G1 X128.937 Y88.629 E7.57242
G1 X129.62 Y88.274 E7.59802
G1 X130.335 Y87.993 E7.62358
G1 X131.077 Y87.787 E7.64919
G1 X131.835 Y87.659 E7.67476
G1 X132.684 Y87.61 E7.70304
G1 X147.61 Y87.61 E8.19948
G1 X148.503 Y87.664 E8.22924
G1 X149.335 Y87.806 E8.25731
G1 X150.075 Y88.016 E8.28289
G1 X150.789 Y88.302 E8.30848
G1 X151.469 Y88.66 E8.33404
G1 X152.109 Y89.088 E8.35964
G1 X152.701 Y89.579 E8.38523
G1 X153.238 Y90.129 E8.41079
G1 X153.716 Y90.732 E8.43638
G1 X154.128 Y91.381 E8.46195
G1 X154.471 Y92.07 E8.48755
G1 X154.74 Y92.79 E8.51312
G1 X154.934 Y93.535 E8.53872
G1 X155.049 Y94.295 E8.56429
G1 X155.084 Y95.019 E8.58839
G1 X155.084 Y103.112 E8.85757
G1 X155.151 Y103.737 E8.87848
G1 X155.221 Y103.948 E8.88587
G1 X155.336 Y104.141 E8.89334
G1 X155.495 Y104.312 E8.90111
G1 X155.676 Y104.438 E8.90844
G1 X155.885 Y104.524 E8.91596
G1 X156.108 Y104.565 E8.9235
G1 X156.339 Y104.557 E8.93119
G1 X156.552 Y104.502 E8.93851
G1 X156.752 Y104.402 E8.94594
G1 X157.555 Y103.756 E8.98022
G1 X158.178 Y103.306 E9.00578
G1 X158.845 Y102.923 E9.03136
G1 X159.548 Y102.611 E9.05694
G1 X160.28 Y102.373 E9.08255
G1 X161.032 Y102.213 E9.10812
G1 X161.797 Y102.132 E9.1337
G1 X162.566 Y102.13 E9.15928
G1 X163.331 Y102.209 E9.18486
G1 X164.084 Y102.366 E9.21044
G1 X164.817 Y102.601 E9.23605
G1 X165.521 Y102.91 E9.26162
G1 X166.189 Y103.291 E9.28719
G1 X166.814 Y103.74 E9.31279
G1 X167.426 Y104.287 E9.34009
G1 X169.548 Y106.408 E9.43988
G1 X170.063 Y106.979 E9.46545
G1 X170.516 Y107.601 E9.49105
G1 X170.902 Y108.266 E9.51662
G1 X171.217 Y108.968 E9.54221
G1 X171.457 Y109.699 E9.5678
G1 X171.62 Y110.451 E9.5934
G1 X171.705 Y111.215 E9.61896
G1 X171.709 Y111.984 E9.64454
G1 X171.634 Y112.75 E9.67014
G1 X171.479 Y113.503 E9.69571
G1 X171.247 Y114.237 E9.72131
G1 X170.941 Y114.942 E9.74687
G1 X170.562 Y115.612 E9.77248
G1 X170.116 Y116.238 E9.79804
G1 X169.608 Y116.815 E9.82361
G1 X169.055 Y117.326 E9.84865
G1 X167.457 Y118.658 E9.91785
G1 X166.841 Y119.119 E9.94344
G1 X166.35 Y119.422 E9.96263
G1 X164.539 Y120.442 E10.03176
G1 X163.851 Y120.784 E10.05731
G1 X163.32 Y120.99 E10.07626
G1 X161.351 Y121.669 E10.14553
G1 X160.612 Y121.881 E10.1711
G1 X160.063 Y121.987 E10.1897
G1 X158.001 Y122.304 E10.25909
G1 X157.236 Y122.381 E10.28466
G1 X156.656 Y122.387 E10.30395
G1 X155.492 Y122.352 E10.34268
G1 X156.063 Y122.979 E10.37089
G1 X156.516 Y123.601 E10.39648
G1 X156.902 Y124.266 E10.42205
G1 X157.217 Y124.968 E10.44765
G1 X157.457 Y125.699 E10.47324
G1 X157.62 Y126.451 E10.49883
G1 X157.705 Y127.215 E10.5244
G1 X157.709 Y127.984 E10.54997
G1 X157.634 Y128.75 E10.57557
G1 X157.479 Y129.503 E10.60114
G1 X157.247 Y130.237 E10.62675
G1 X156.941 Y130.942 E10.65231
G1 X156.562 Y131.612 E10.67791
G1 X156.116 Y132.238 E10.70348
G1 X155.608 Y132.815 E10.72904
G1 X155.055 Y133.326 E10.75409
G1 X153.457 Y134.658 E10.82328
G1 X152.841 Y135.119 E10.84887
G1 X152.35 Y135.422 E10.86806
G1 X150.539 Y136.442 E10.93719
G1 X149.851 Y136.784 E10.96275
G1 X149.32 Y136.99 E10.98169
G1 X147.351 Y137.669 E11.05096
G1 X146.612 Y137.881 E11.07653
G1 X146.063 Y137.987 E11.09513
G1 X144.001 Y138.304 E11.16452
G1 X143.236 Y138.381 E11.19009
G1 X142.656 Y138.387 E11.20938
G1 X140.582 Y138.325 E11.2784
G1 X139.815 Y138.262 E11.30399
G1 X139.248 Y138.163 E11.32314
G1 X137.206 Y137.724 E11.3926
G1 X136.463 Y137.523 E11.41821
G1 X135.929 Y137.326 E11.43714
G1 X134.01 Y136.531 E11.50622
G1 X133.315 Y136.2 E11.53183
G1 X132.825 Y135.909 E11.55078
G1 X131.08 Y134.781 E11.61989
G1 X130.456 Y134.33 E11.6455
G1 X130.025 Y133.954 E11.66452
G1 X128.506 Y132.524 E11.73391
G1 X127.974 Y131.968 E11.7595
G1 X127.619 Y131.524 E11.77841
G1 X126.387 Y129.851 E11.84751
G1 X125.964 Y129.209 E11.87309
G1 X125.695 Y128.707 E11.89203
G1 X124.781 Y126.833 E11.96138
G1 X124.48 Y126.125 E11.98696
G1 X124.303 Y125.573 E12.00624
G1 X123.746 Y123.572 E12.07533
G1 X123.579 Y122.822 E12.10088
G1 X123.506 Y122.263 E12.11963
G1 X123.428 Y121.41 E12.14812
G1 X118.732 Y121.41 E12.30431
G1 X118.222 Y121.393 E12.32129
G1 X117.458 Y121.305 E12.34686
G1 X116.707 Y121.138 E12.37245
G1 X115.978 Y120.894 E12.39802
G1 X115.278 Y120.576 E12.42359
G1 X114.614 Y120.187 E12.44919
G1 X113.995 Y119.731 E12.47476
G1 X113.426 Y119.214 E12.50033
G1 X112.914 Y118.64 E12.52591
G1 X112.464 Y118.016 E12.5515
G1 X112.081 Y117.349 E12.57708
G1 X111.77 Y116.645 E12.60268
G1 X111.534 Y115.913 E12.62826
G1 X111.374 Y115.161 E12.65383
G1 X111.294 Y114.396 E12.67942
G1 X111.284 Y111.01 E12.79204
G1 X111.324 Y110.242 E12.81761
G1 X111.443 Y109.482 E12.8432
G1 X111.641 Y108.739 E12.86877
G1 X111.915 Y108.02 E12.89437
G1 X112.262 Y107.334 E12.91994
G1 X112.678 Y106.687 E12.94552
G1 X113.159 Y106.087 E12.9711
G0 F3600 X113.555 Y106.247
G1 F1800 X114.092 Y105.726 E12.99598
G1 X114.682 Y105.267 E13.02084
G1 X115.318 Y104.872 E13.04575
G1 X115.992 Y104.548 E13.07062
G1 X116.697 Y104.298 E13.0955
G1 X117.425 Y104.124 E13.12039
G1 X118.167 Y104.029 E13.14527
G1 X118.684 Y104.01 E13.16248
G1 X129.103 Y104.01 E13.50902
G1 X128.749 Y103.796 E13.52278
G1 X128.154 Y103.343 E13.54765
G1 X127.61 Y102.829 E13.57254
G1 X127.124 Y102.26 E13.59743
G1 X126.702 Y101.643 E13.62229
G1 X126.348 Y100.984 E13.64717
G1 X126.067 Y100.29 E13.67208
G1 X125.861 Y99.571 E13.69695
G1 X125.733 Y98.834 E13.72183
G1 X125.684 Y98.007 E13.74939
G1 X125.684 Y95.01 E13.84907
G1 X125.724 Y94.263 E13.87395
G1 X125.843 Y93.525 E13.89881
G1 X126.041 Y92.803 E13.92371
G1 X126.314 Y92.107 E13.94858
G1 X126.661 Y91.444 E13.97347
G1 X127.076 Y90.821 E13.99836
G1 X127.555 Y90.247 E14.02323
G1 X128.092 Y89.726 E14.04811
G1 X128.682 Y89.267 E14.07298
G1 X129.318 Y88.872 E14.09788
G1 X129.992 Y88.548 E14.12275
G1 X130.697 Y88.298 E14.14763
G1 X131.425 Y88.124 E14.17253
G1 X132.167 Y88.029 E14.19741
G1 X132.684 Y88.01 E14.21461
G1 X147.61 Y88.01 E14.71105
G1 X148.455 Y88.061 E14.73921
G1 X149.266 Y88.2 E14.76658
G1 X149.984 Y88.408 E14.79144
G1 X150.677 Y88.691 E14.81634
G1 X151.335 Y89.047 E14.84122
G1 X151.952 Y89.47 E14.8661
G1 X152.519 Y89.957 E14.89096
G1 X153.032 Y90.502 E14.91585
G1 X153.483 Y91.099 E14.94074
G1 X153.869 Y91.74 E14.96563
G1 X154.183 Y92.419 E14.99051
G1 X154.423 Y93.127 E15.01537
G1 X154.587 Y93.857 E15.04026
G1 X154.671 Y94.6 E15.06513
G1 X154.684 Y103.137 E15.34907
G1 X154.757 Y103.819 E15.37188
G1 X154.857 Y104.118 E15.38237
G1 X155.014 Y104.382 E15.39258
G1 X155.232 Y104.616 E15.40322
G1 X155.481 Y104.79 E15.41333
G1 X155.771 Y104.91 E15.42376
G1 X156.083 Y104.966 E15.43431
G1 X156.396 Y104.955 E15.44472
G1 X156.693 Y104.879 E15.45492
G1 X156.971 Y104.74 E15.46526
G1 X157.806 Y104.068 E15.50091
G1 X158.413 Y103.631 E15.52578
G1 X159.063 Y103.261 E15.55066
G1 X159.749 Y102.962 E15.57555
G1 X160.463 Y102.739 E15.60043
G1 X161.196 Y102.593 E15.62529
G1 X161.941 Y102.526 E15.65017
G1 X162.689 Y102.538 E15.67505
G1 X163.432 Y102.631 E15.69995
G1 X164.16 Y102.802 E15.72483
G1 X164.866 Y103.05 E15.74971
G1 X165.541 Y103.372 E15.77459
G1 X166.178 Y103.765 E15.79948
G1 X166.769 Y104.222 E15.82433
G1 X167.144 Y104.57 E15.84135
G1 X169.266 Y106.691 E15.94113
G1 X169.766 Y107.247 E15.96601
G1 X170.204 Y107.854 E15.9909
G1 X170.574 Y108.504 E16.01578
G1 X170.873 Y109.189 E16.04064
G1 X171.098 Y109.903 E16.06554
G1 X171.244 Y110.637 E16.09043
G1 X171.312 Y111.382 E16.11531
G1 X171.3 Y112.13 E16.14019
G1 X171.208 Y112.872 E16.16506
G1 X171.038 Y113.6 E16.18992
G1 X170.79 Y114.306 E16.21481
G1 X170.469 Y114.982 E16.2397
G1 X170.077 Y115.619 E16.26458
G1 X169.62 Y116.211 E16.28945
G1 X169.102 Y116.751 E16.31434
G1 X167.201 Y118.351 E16.39698
G1 X166.602 Y118.799 E16.42186
G1 X166.154 Y119.073 E16.43933
G1 X164.343 Y120.093 E16.50846
G1 X163.673 Y120.425 E16.53333
G1 X163.19 Y120.612 E16.55056
G1 X161.221 Y121.291 E16.61983
G1 X160.502 Y121.496 E16.6447
G1 X160.003 Y121.592 E16.6616
G1 X157.941 Y121.909 E16.73099
G1 X157.196 Y121.983 E16.75589
G1 X156.668 Y121.987 E16.77345
G1 X154.594 Y121.925 E16.84246
G1 X154.491 Y121.916 E16.8459
G1 X155.266 Y122.691 E16.88235
G1 X155.766 Y123.247 E16.90722
G1 X156.204 Y123.854 E16.93212
G1 X156.574 Y124.504 E16.957
G1 X156.873 Y125.189 E16.98185
G1 X157.098 Y125.903 E17.00675
G1 X157.244 Y126.637 E17.03164
G1 X157.312 Y127.382 E17.05653
G1 X157.3 Y128.13 E17.08141
G1 X157.208 Y128.872 E17.10628
G1 X157.038 Y129.6 E17.13114
G1 X156.79 Y130.306 E17.15603
G1 X156.469 Y130.982 E17.18092
G1 X156.077 Y131.619 E17.2058
G1 X155.62 Y132.211 E17.23067
G1 X155.102 Y132.751 E17.25556
G1 X153.201 Y134.351 E17.3382
G1 X152.602 Y134.799 E17.36308
G1 X152.154 Y135.073 E17.38055
G1 X150.343 Y136.093 E17.44968
G1 X149.673 Y136.425 E17.47455
G1 X149.19 Y136.612 E17.49177
G1 X147.221 Y137.291 E17.56105
G1 X146.502 Y137.496 E17.58591
G1 X146.003 Y137.592 E17.60282
G1 X143.941 Y137.909 E17.6722
G1 X143.196 Y137.983 E17.6971
G1 X142.668 Y137.987 E17.71467
G1 X140.594 Y137.925 E17.78368
G1 X139.848 Y137.863 E17.80858
G1 X139.332 Y137.772 E17.826
G1 X137.29 Y137.333 E17.89547
