;FLAVOR:Marlin
;TIME:19437
;Filament used: 30.81m
;Layer height: 0.3
;MINX:38.626
;MINY:47.1
;MINZ:0.2
;MAXX:258.374
;MAXY:167.7
;MAXZ:27.2
;Generated with Cura_SteamEngine 4.6.1
M104 S210
M105
M109 S210
M82 ;absolute extrusion mode
; -- START GCODE --
G21                     ;set units to millimetres
G90                     ;set to absolute positioning
M106 S0                 ;set fan speed to zero (turned off)
G28 X0 Y0               ;move to the X/Y origin (Home)
G28 Z0                  ;move to the Z origin (Home)
G1 Z15.0 F1200          ;move Z to position 15.0 mm
G92 E0                  ;zero the extruded length
G1 E20 F200             ;extrude 20mm of feed stock
G92 E0                  ;zero the extruded length again
G1 F7200                ;set feedrate to 120 mm/s
; -- end of START GCODE --
G92 E0
G92 E0
G1 F1500 E-6.5
;LAYER_COUNT:91
;LAYER:0
M107
G0 F3600 X41.648 Y48.734 Z0.2
;TYPE:SKIRT
G1 F1500 E0
G1 F1800 X42.296 Y48.283 E0.02626
G1 X42.986 Y47.899 E0.05252
G1 X43.712 Y47.587 E0.07881
G1 X44.465 Y47.35 E0.10506
G1 X45.239 Y47.191 E0.13134
G1 X46.024 Y47.11 E0.15759
G1 X250.573 Y47.1 E6.96092
G1 X251.362 Y47.14 E6.98719
G1 X252.142 Y47.259 E7.01344
G1 X252.907 Y47.457 E7.03972
G1 X253.647 Y47.731 E7.06596
G1 X254.356 Y48.079 E7.09223
G1 X255.027 Y48.497 E7.11853
G1 X255.651 Y48.98 E7.14477
G1 X256.224 Y49.523 E7.17103
G1 X256.739 Y50.122 E7.1973
G1 X257.19 Y50.77 E7.22356
G1 X257.574 Y51.461 E7.24985
G1 X257.886 Y52.186 E7.27611
G1 X258.123 Y52.939 E7.30236
G1 X258.282 Y53.713 E7.32864
G1 X258.363 Y54.498 E7.35489
G1 X258.374 Y159.9 E10.86058
G1 X258.334 Y160.689 E10.88685
G1 X258.215 Y161.469 E10.91309
G1 X258.017 Y162.234 E10.93938
G1 X257.743 Y162.974 E10.96562
G1 X257.395 Y163.683 E10.99189
G1 X256.978 Y164.354 E11.01817
G1 X256.494 Y164.978 E11.04443
G1 X255.951 Y165.551 E11.07069
G1 X255.352 Y166.066 E11.09696
G1 X254.704 Y166.517 E11.12322
G1 X254.014 Y166.901 E11.14949
G1 X253.288 Y167.213 E11.17577
G1 X252.535 Y167.45 E11.20202
G1 X251.761 Y167.609 E11.22831
G1 X250.976 Y167.69 E11.25455
G1 X46.427 Y167.7 E18.05788
G1 X45.638 Y167.66 E18.08416
G1 X44.858 Y167.541 E18.1104
G1 X44.093 Y167.343 E18.13668
G1 X43.353 Y167.069 E18.16293
G1 X42.644 Y166.721 E18.1892
G1 X41.973 Y166.303 E18.21549
G1 X41.349 Y165.82 E18.24174
G1 X40.776 Y165.277 E18.26799
G1 X40.261 Y164.678 E18.29427
G1 X39.81 Y164.03 E18.32052
G1 X39.426 Y163.339 E18.34682
G1 X39.114 Y162.614 E18.37307
G1 X38.877 Y161.861 E18.39932
G1 X38.718 Y161.087 E18.42561
G1 X38.637 Y160.302 E18.45185
G1 X38.626 Y54.9 E21.95754
G1 X38.666 Y54.111 E21.98381
G1 X38.785 Y53.331 E22.01006
G1 X38.983 Y52.566 E22.03634
G1 X39.257 Y51.826 E22.06259
G1 X39.605 Y51.117 E22.08885
G1 X40.022 Y50.446 E22.11513
G1 X40.506 Y49.822 E22.1414
G1 X41.049 Y49.249 E22.16765
G1 X41.648 Y48.734 E22.19393
G0 F3600 X42.037 Y48.942
G1 F1800 X42.679 Y48.519 E22.2195
G1 X43.362 Y48.164 E22.2451
G1 X44.077 Y47.883 E22.27065
G1 X44.818 Y47.677 E22.29623
G1 X45.577 Y47.549 E22.32183
G1 X46.426 Y47.5 E22.35012
G1 X250.573 Y47.5 E29.14007
G1 X251.341 Y47.54 E29.16565
G1 X252.101 Y47.659 E29.19124
G1 X252.844 Y47.857 E29.21681
G1 X253.563 Y48.131 E29.2424
G1 X254.249 Y48.478 E29.26797
G1 X254.896 Y48.894 E29.29356
G1 X255.496 Y49.375 E29.31913
G1 X256.043 Y49.916 E29.34472
G1 X256.531 Y50.511 E29.37032
G1 X256.954 Y51.153 E29.39589
G1 X257.309 Y51.836 E29.42149
G1 X257.59 Y52.551 E29.44704
G1 X257.796 Y53.293 E29.47265
G1 X257.924 Y54.051 E29.49822
G1 X257.973 Y54.9 E29.52651
G1 X257.974 Y159.9 E33.01882
G1 X257.934 Y160.668 E33.0444
G1 X257.815 Y161.428 E33.06999
G1 X257.617 Y162.171 E33.09556
G1 X257.343 Y162.89 E33.12115
G1 X256.996 Y163.576 E33.14672
G1 X256.58 Y164.223 E33.17231
G1 X256.099 Y164.823 E33.19788
G1 X255.558 Y165.37 E33.22347
G1 X254.963 Y165.858 E33.24907
G1 X254.321 Y166.281 E33.27464
G1 X253.638 Y166.636 E33.30024
G1 X252.923 Y166.917 E33.32579
G1 X252.182 Y167.123 E33.35137
G1 X251.423 Y167.251 E33.37697
G1 X250.574 Y167.3 E33.40526
G1 X46.427 Y167.3 E40.19521
G1 X45.659 Y167.26 E40.22079
G1 X44.899 Y167.141 E40.24638
G1 X44.156 Y166.943 E40.27195
G1 X43.437 Y166.669 E40.29754
G1 X42.751 Y166.322 E40.32311
G1 X42.104 Y165.906 E40.3487
G1 X41.504 Y165.425 E40.37427
G1 X40.957 Y164.884 E40.39986
G1 X40.469 Y164.289 E40.42546
G1 X40.046 Y163.647 E40.45103
G1 X39.691 Y162.964 E40.47663
G1 X39.41 Y162.249 E40.50218
G1 X39.204 Y161.507 E40.52779
G1 X39.076 Y160.749 E40.55336
G1 X39.027 Y159.9 E40.58165
G1 X39.026 Y54.9 E44.07396
G1 X39.066 Y54.132 E44.09954
G1 X39.185 Y53.372 E44.12513
G1 X39.383 Y52.629 E44.1507
G1 X39.657 Y51.91 E44.17629
G1 X40.004 Y51.224 E44.20186
G1 X40.42 Y50.577 E44.22744
G1 X40.901 Y49.977 E44.25302
G1 X41.442 Y49.43 E44.27861
G1 X42.037 Y48.942 E44.3042
G0 F3600 X42.424 Y49.157
G1 F1800 X43.06 Y48.762 E44.32911
G1 X43.734 Y48.438 E44.35398
G1 X44.439 Y48.188 E44.37886
G1 X45.167 Y48.014 E44.40375
G1 X45.909 Y47.919 E44.42863
G1 X46.426 Y47.9 E44.44584
G1 X250.573 Y47.9 E51.2358
G1 X251.32 Y47.94 E51.26068
G1 X252.058 Y48.059 E51.28554
G1 X252.78 Y48.257 E51.31044
G1 X253.476 Y48.53 E51.33531
G1 X254.139 Y48.877 E51.3602
G1 X254.762 Y49.292 E51.38509
G1 X255.336 Y49.771 E51.40996
G1 X255.857 Y50.308 E51.43485
G1 X256.316 Y50.898 E51.45971
G1 X256.711 Y51.534 E51.48461
G1 X257.035 Y52.208 E51.50948
G1 X257.285 Y52.913 E51.53436
G1 X257.459 Y53.641 E51.55926
G1 X257.554 Y54.383 E51.58414
G1 X257.573 Y54.9 E51.60134
G1 X257.574 Y159.9 E55.09366
G1 X257.534 Y160.647 E55.11854
G1 X257.415 Y161.385 E55.1434
G1 X257.217 Y162.107 E55.1683
G1 X256.944 Y162.803 E55.19317
G1 X256.597 Y163.466 E55.21806
G1 X256.182 Y164.089 E55.24296
G1 X255.703 Y164.663 E55.26782
G1 X255.166 Y165.184 E55.29271
G1 X254.576 Y165.643 E55.31757
G1 X253.94 Y166.038 E55.34247
G1 X253.266 Y166.362 E55.36734
G1 X252.561 Y166.612 E55.39222
G1 X251.833 Y166.786 E55.41712
G1 X251.091 Y166.881 E55.442
G1 X250.574 Y166.9 E55.4592
G1 X46.427 Y166.9 E62.24916
G1 X45.68 Y166.86 E62.27404
G1 X44.942 Y166.741 E62.29891
G1 X44.22 Y166.543 E62.32381
G1 X43.524 Y166.27 E62.34867
G1 X42.861 Y165.923 E62.37356
G1 X42.238 Y165.508 E62.39846
G1 X41.664 Y165.029 E62.42332
G1 X41.143 Y164.492 E62.44821
G1 X40.684 Y163.902 E62.47307
G1 X40.289 Y163.266 E62.49797
G1 X39.965 Y162.592 E62.52285
G1 X39.715 Y161.887 E62.54773
G1 X39.541 Y161.159 E62.57262
G1 X39.446 Y160.417 E62.5975
G1 X39.427 Y159.9 E62.61471
G1 X39.426 Y54.9 E66.10702
G1 X39.466 Y54.153 E66.1319
G1 X39.585 Y53.415 E66.15677
G1 X39.783 Y52.693 E66.18167
G1 X40.056 Y51.997 E66.20653
G1 X40.403 Y51.334 E66.23142
G1 X40.818 Y50.711 E66.25632
G1 X41.297 Y50.137 E66.28119
G1 X41.834 Y49.616 E66.30607
G1 X42.424 Y49.157 E66.33093
G0 F3600 X42.225 Y49.809
G1 F1800 X42.81 Y49.379 E66.35508
G1 X43.439 Y49.015 E66.37925
G1 X44.104 Y48.722 E66.40342
G1 X44.796 Y48.504 E66.42755
G1 X45.509 Y48.364 E66.45172
G1 X46.426 Y48.3 E66.48229
G1 X250.573 Y48.3 E73.27225
G1 X251.298 Y48.34 E73.2964
G1 X252.015 Y48.459 E73.32057
G1 X252.714 Y48.657 E73.34474
G1 X253.387 Y48.93 E73.36889
G1 X254.026 Y49.275 E73.39305
G1 X254.623 Y49.689 E73.41721
G1 X255.171 Y50.165 E73.44135
G1 X255.664 Y50.699 E73.46553
G1 X256.094 Y51.284 E73.48967
G1 X256.458 Y51.913 E73.51384
G1 X256.751 Y52.578 E73.53801
G1 X256.969 Y53.271 E73.56218
G1 X257.109 Y53.983 E73.58631
G1 X257.173 Y54.9 E73.61689
G1 X257.174 Y159.9 E77.1092
G1 X257.134 Y160.625 E77.13335
G1 X257.015 Y161.342 E77.15752
G1 X256.817 Y162.041 E77.18169
G1 X256.544 Y162.714 E77.20584
G1 X256.199 Y163.353 E77.23
G1 X255.785 Y163.95 E77.25416
G1 X255.309 Y164.498 E77.2783
G1 X254.775 Y164.991 E77.30247
G1 X254.19 Y165.421 E77.32662
G1 X253.561 Y165.785 E77.35079
G1 X252.896 Y166.078 E77.37496
G1 X252.204 Y166.296 E77.39909
G1 X251.491 Y166.436 E77.42326
G1 X250.574 Y166.5 E77.45384
G1 X46.427 Y166.5 E84.24379
G1 X45.702 Y166.46 E84.26794
G1 X44.985 Y166.341 E84.29212
G1 X44.286 Y166.143 E84.31628
G1 X43.613 Y165.87 E84.34044
G1 X42.974 Y165.525 E84.36459
G1 X42.377 Y165.111 E84.38875
G1 X41.829 Y164.635 E84.41289
G1 X41.336 Y164.101 E84.43707
G1 X40.906 Y163.516 E84.46122
G1 X40.542 Y162.887 E84.48539
G1 X40.249 Y162.222 E84.50956
G1 X40.031 Y161.529 E84.53372
G1 X39.891 Y160.817 E84.55785
G1 X39.827 Y159.9 E84.58843
G1 X39.826 Y54.9 E88.08074
G1 X39.866 Y54.175 E88.10489
G1 X39.985 Y53.458 E88.12907
G1 X40.183 Y52.759 E88.15323
G1 X40.456 Y52.086 E88.17738
G1 X40.801 Y51.447 E88.20154
G1 X41.215 Y50.85 E88.2257
G1 X41.691 Y50.302 E88.24984
G1 X42.225 Y49.809 E88.27402
G0 F3600 X42.615 Y50.009
G1 F1800 X43.194 Y49.609 E88.29742
G1 X43.815 Y49.277 E88.32084
G1 X44.469 Y49.017 E88.34425
G1 X45.149 Y48.833 E88.36768
G1 X45.845 Y48.727 E88.3911
G1 X46.426 Y48.7 E88.41044
G1 X250.573 Y48.7 E95.2004
G1 X251.276 Y48.74 E95.22382
G1 X251.97 Y48.859 E95.24724
G1 X252.645 Y49.057 E95.27064
G1 X253.294 Y49.329 E95.29404
G1 X253.908 Y49.674 E95.31747
G1 X254.479 Y50.085 E95.34086
G1 X255 Y50.559 E95.36429
G1 X255.464 Y51.089 E95.38772
G1 X255.864 Y51.668 E95.41113
G1 X256.196 Y52.289 E95.43455
G1 X256.456 Y52.943 E95.45796
G1 X256.64 Y53.623 E95.48139
G1 X256.746 Y54.319 E95.5048
G1 X256.773 Y54.9 E95.52415
G1 X256.774 Y159.9 E99.01646
G1 X256.734 Y160.603 E99.03988
G1 X256.615 Y161.297 E99.0633
G1 X256.417 Y161.972 E99.0867
G1 X256.145 Y162.621 E99.1101
G1 X255.8 Y163.235 E99.13353
G1 X255.389 Y163.806 E99.15693
G1 X254.915 Y164.327 E99.18035
G1 X254.385 Y164.791 E99.20378
G1 X253.806 Y165.191 E99.22719
G1 X253.185 Y165.523 E99.25061
G1 X252.531 Y165.783 E99.27402
G1 X251.851 Y165.967 E99.29745
G1 X251.155 Y166.073 E99.32086
G1 X250.574 Y166.1 E99.34021
G1 X46.427 Y166.1 E106.13017
G1 X45.724 Y166.06 E106.15359
G1 X45.03 Y165.941 E106.177
G1 X44.355 Y165.743 E106.2004
G1 X43.706 Y165.471 E106.22381
G1 X43.092 Y165.126 E106.24723
G1 X42.521 Y164.715 E106.27063
G1 X42 Y164.241 E106.29406
G1 X41.536 Y163.711 E106.31749
G1 X41.136 Y163.132 E106.34089
G1 X40.804 Y162.511 E106.36431
G1 X40.544 Y161.857 E106.38772
G1 X40.36 Y161.177 E106.41115
G1 X40.254 Y160.481 E106.43457
G1 X40.227 Y159.9 E106.45391
G1 X40.226 Y54.9 E109.94623
G1 X40.266 Y54.197 E109.96965
G1 X40.385 Y53.503 E109.99307
G1 X40.583 Y52.828 E110.01646
G1 X40.855 Y52.179 E110.03987
G1 X41.2 Y51.565 E110.06329
G1 X41.611 Y50.994 E110.08669
G1 X42.085 Y50.473 E110.11012
G1 X42.615 Y50.009 E110.13355
G0 F3600 X43.004 Y50.217
G1 F1800 X43.576 Y49.848 E110.15619
G1 X44.188 Y49.549 E110.17884
G1 X44.83 Y49.324 E110.20147
G1 X45.495 Y49.175 E110.22414
G1 X46.426 Y49.1 E110.2552
G1 X250.573 Y49.1 E117.04516
G1 X251.253 Y49.14 E117.06781
G1 X251.923 Y49.259 E117.09045
G1 X252.575 Y49.456 E117.1131
G1 X253.199 Y49.728 E117.13574
G1 X253.787 Y50.072 E117.1584
G1 X254.331 Y50.482 E117.18106
G1 X254.822 Y50.953 E117.20369
G1 X255.256 Y51.478 E117.22634
G1 X255.625 Y52.05 E117.24898
G1 X255.924 Y52.662 E117.27164
G1 X256.149 Y53.304 E117.29426
G1 X256.298 Y53.969 E117.31693
G1 X256.373 Y54.9 E117.34799
G1 X256.374 Y159.9 E120.84031
G1 X256.334 Y160.58 E120.86296
G1 X256.215 Y161.25 E120.8856
G1 X256.018 Y161.902 E120.90825
G1 X255.746 Y162.526 E120.93089
G1 X255.402 Y163.114 E120.95355
G1 X254.992 Y163.658 E120.97621
G1 X254.521 Y164.149 E120.99884
G1 X253.996 Y164.583 E121.02149
G1 X253.424 Y164.952 E121.04413
G1 X252.812 Y165.251 E121.06679
G1 X252.17 Y165.476 E121.08941
G1 X251.505 Y165.625 E121.11208
G1 X250.574 Y165.7 E121.14314
G1 X46.427 Y165.7 E127.9331
G1 X45.747 Y165.66 E127.95576
G1 X45.077 Y165.541 E127.97839
G1 X44.425 Y165.344 E128.00104
G1 X43.801 Y165.072 E128.02368
G1 X43.213 Y164.728 E128.04634
G1 X42.669 Y164.318 E128.069
G1 X42.178 Y163.847 E128.09163
G1 X41.744 Y163.322 E128.11428
G1 X41.375 Y162.75 E128.13692
G1 X41.076 Y162.138 E128.15958
G1 X40.851 Y161.496 E128.18221
G1 X40.702 Y160.831 E128.20487
G1 X40.627 Y159.9 E128.23594
G1 X40.626 Y54.9 E131.72825
G1 X40.666 Y54.22 E131.75091
G1 X40.785 Y53.55 E131.77354
G1 X40.982 Y52.898 E131.79619
G1 X41.254 Y52.274 E131.81883
G1 X41.598 Y51.686 E131.84149
G1 X42.008 Y51.142 E131.86415
G1 X42.479 Y50.651 E131.88678
G1 X43.004 Y50.217 E131.90943
G0 F3600 X42.871 Y50.835
G1 F1800 X43.391 Y50.434 E131.93127
G1 X43.955 Y50.098 E131.95311
G1 X44.557 Y49.834 E131.97497
G1 X45.186 Y49.644 E131.99683
G1 X45.833 Y49.533 E132.01866
G1 X46.426 Y49.5 E132.03842
G1 X250.573 Y49.5 E138.82837
G1 X251.229 Y49.54 E138.85023
G1 X251.875 Y49.659 E138.87208
G1 X252.502 Y49.856 E138.89394
G1 X253.1 Y50.128 E138.91579
G1 X253.661 Y50.47 E138.93764
G1 X254.176 Y50.878 E138.95949
G1 X254.638 Y51.345 E138.98134
G1 X255.039 Y51.865 E139.00318
G1 X255.375 Y52.429 E139.02502
G1 X255.639 Y53.031 E139.04688
G1 X255.829 Y53.66 E139.06874
G1 X255.94 Y54.307 E139.09057
G1 X255.973 Y54.9 E139.11032
G1 X255.974 Y159.9 E142.60264
G1 X255.934 Y160.556 E142.6245
G1 X255.815 Y161.202 E142.64634
G1 X255.618 Y161.829 E142.6682
G1 X255.346 Y162.427 E142.69005
G1 X255.004 Y162.988 E142.71191
G1 X254.597 Y163.503 E142.73374
G1 X254.129 Y163.965 E142.75561
G1 X253.609 Y164.366 E142.77745
G1 X253.045 Y164.702 E142.79929
G1 X252.443 Y164.966 E142.82115
G1 X251.814 Y165.156 E142.84301
G1 X251.167 Y165.267 E142.86484
G1 X250.574 Y165.3 E142.88459
G1 X46.427 Y165.3 E149.67455
G1 X45.771 Y165.26 E149.69641
G1 X45.125 Y165.141 E149.71826
G1 X44.498 Y164.944 E149.74012
G1 X43.9 Y164.672 E149.76197
G1 X43.339 Y164.33 E149.78382
G1 X42.824 Y163.922 E149.80567
G1 X42.362 Y163.455 E149.82752
G1 X41.961 Y162.935 E149.84936
G1 X41.625 Y162.371 E149.8712
G1 X41.361 Y161.769 E149.89306
G1 X41.171 Y161.14 E149.91491
G1 X41.06 Y160.493 E149.93675
G1 X41.027 Y159.9 E149.9565
G1 X41.026 Y54.9 E153.44882
G1 X41.066 Y54.244 E153.47068
G1 X41.185 Y53.598 E153.49252
G1 X41.382 Y52.971 E153.51438
G1 X41.654 Y52.373 E153.53623
G1 X41.996 Y51.812 E153.55809
G1 X42.403 Y51.297 E153.57992
G1 X42.871 Y50.835 E153.60179
G0 F3600 X43.262 Y51.029
G1 F1800 X43.776 Y50.66 E153.62283
G1 X44.332 Y50.36 E153.64385
G1 X44.921 Y50.132 E153.66485
G1 X45.535 Y49.98 E153.68589
G1 X46.426 Y49.9 E153.71565
G1 X250.573 Y49.9 E160.5056
G1 X251.204 Y49.94 E160.52663
G1 X251.825 Y50.059 E160.54766
G1 X252.425 Y50.256 E160.56867
G1 X252.997 Y50.527 E160.58972
G1 X253.529 Y50.867 E160.61072
G1 X254.014 Y51.273 E160.63176
G1 X254.444 Y51.736 E160.65277
G1 X254.813 Y52.25 E160.67382
G1 X255.113 Y52.806 E160.69483
G1 X255.341 Y53.395 E160.71584
G1 X255.493 Y54.009 E160.73687
G1 X255.573 Y54.9 E160.76663
G1 X255.574 Y159.9 E164.25894
G1 X255.534 Y160.531 E164.27997
G1 X255.415 Y161.152 E164.301
G1 X255.218 Y161.752 E164.32201
G1 X254.947 Y162.324 E164.34306
G1 X254.607 Y162.856 E164.36406
G1 X254.201 Y163.341 E164.3851
G1 X253.738 Y163.771 E164.40611
G1 X253.224 Y164.14 E164.42716
G1 X252.668 Y164.44 E164.44817
G1 X252.079 Y164.668 E164.46918
G1 X251.465 Y164.82 E164.49021
G1 X250.574 Y164.9 E164.51997
G1 X46.427 Y164.9 E171.30993
G1 X45.796 Y164.86 E171.33095
G1 X45.175 Y164.741 E171.35198
G1 X44.575 Y164.544 E171.37299
G1 X44.003 Y164.273 E171.39404
G1 X43.471 Y163.933 E171.41504
G1 X42.986 Y163.527 E171.43608
G1 X42.556 Y163.064 E171.45709
G1 X42.187 Y162.55 E171.47814
G1 X41.887 Y161.994 E171.49915
G1 X41.659 Y161.405 E171.52016
G1 X41.507 Y160.791 E171.5412
G1 X41.427 Y159.9 E171.57095
G1 X41.426 Y54.9 E175.06326
G1 X41.466 Y54.269 E175.08429
G1 X41.585 Y53.648 E175.10532
G1 X41.782 Y53.048 E175.12633
G1 X42.053 Y52.476 E175.14738
G1 X42.393 Y51.944 E175.16838
G1 X42.799 Y51.459 E175.18942
G1 X43.262 Y51.029 E175.21043
G0 F3600 X43.651 Y51.231
G1 F1800 X44.158 Y50.898 E175.23061
G1 X44.704 Y50.634 E175.25078
G1 X45.28 Y50.445 E175.27094
G1 X45.876 Y50.333 E175.29111
G1 X46.426 Y50.3 E175.30944
G1 X250.573 Y50.3 E182.0994
G1 X251.178 Y50.34 E182.11956
G1 X251.772 Y50.459 E182.13971
G1 X252.346 Y50.655 E182.15988
G1 X252.889 Y50.926 E182.18007
G1 X253.392 Y51.265 E182.20024
G1 X253.845 Y51.667 E182.22039
G1 X254.242 Y52.125 E182.24055
G1 X254.575 Y52.632 E182.26072
G1 X254.839 Y53.178 E182.28089
G1 X255.028 Y53.754 E182.30106
G1 X255.14 Y54.35 E182.32123
G1 X255.173 Y54.9 E182.33955
G1 X255.174 Y159.9 E185.83187
G1 X255.134 Y160.505 E185.85203
G1 X255.015 Y161.099 E185.87218
