;FLAVOR:Marlin
;TIME:23604
;Filament used: 35.7093m
;Layer height: 0.3
;MINX:38.626
;MINY:19.7
;MINZ:0.2
;MAXX:258.374
;MAXY:190.3
;MAXZ:27.2
;Generated with Cura_SteamEngine 4.6.1
M104 S210
M105
M109 S210
M82 ;absolute extrusion mode
; -- START GCODE --
G21                     ;set units to millimetres
G90                     ;set to absolute positioning
M106 S0                 ;set fan speed to zero (turned off)
G28 X0 Y0               ;move to the X/Y origin (Home)
G28 Z0                  ;move to the Z origin (Home)
G1 Z15.0 F1200          ;move Z to position 15.0 mm
G92 E0                  ;zero the extruded length
G1 E20 F200             ;extrude 20mm of feed stock
G92 E0                  ;zero the extruded length again
G1 F7200                ;set feedrate to 120 mm/s
; -- end of START GCODE --
G92 E0
G92 E0
G1 F1500 E-6.5
;LAYER_COUNT:91
;LAYER:0
M107
G0 F3600 X39.605 Y23.717 Z0.2
;TYPE:SKIRT
G1 F1500 E0
G1 F1800 X40.022 Y23.046 E0.02628
G1 X40.506 Y22.422 E0.05254
G1 X41.049 Y21.849 E0.0788
G1 X41.648 Y21.334 E0.10507
G1 X42.296 Y20.883 E0.13133
G1 X42.986 Y20.499 E0.15759
G1 X43.712 Y20.187 E0.18388
G1 X44.465 Y19.95 E0.21013
G1 X45.239 Y19.791 E0.23641
G1 X46.024 Y19.71 E0.26266
G1 X250.573 Y19.7 E7.06599
G1 X251.362 Y19.74 E7.09227
G1 X252.142 Y19.859 E7.11851
G1 X252.907 Y20.057 E7.14479
G1 X253.647 Y20.331 E7.17104
G1 X254.356 Y20.679 E7.1973
G1 X255.027 Y21.097 E7.2236
G1 X255.651 Y21.58 E7.24984
G1 X256.224 Y22.123 E7.2761
G1 X256.739 Y22.722 E7.30237
G1 X257.19 Y23.37 E7.32863
G1 X257.574 Y24.061 E7.35493
G1 X257.886 Y24.786 E7.38118
G1 X258.123 Y25.539 E7.40743
G1 X258.282 Y26.313 E7.43371
G1 X258.363 Y27.098 E7.45996
G1 X258.373 Y33.821 E7.68357
G1 X258.374 Y182.5 E12.62865
G1 X258.334 Y183.289 E12.65493
G1 X258.215 Y184.069 E12.68117
G1 X258.017 Y184.834 E12.70746
G1 X257.743 Y185.574 E12.7337
G1 X257.395 Y186.283 E12.75997
G1 X256.977 Y186.954 E12.78626
G1 X256.494 Y187.578 E12.81251
G1 X255.951 Y188.151 E12.83877
G1 X255.352 Y188.666 E12.86504
G1 X254.704 Y189.117 E12.8913
G1 X254.013 Y189.501 E12.91759
G1 X253.288 Y189.813 E12.94384
G1 X252.535 Y190.05 E12.9701
G1 X251.761 Y190.209 E12.99638
G1 X250.976 Y190.29 E13.02263
G1 X46.427 Y190.3 E19.82595
G1 X45.638 Y190.26 E19.85223
G1 X44.858 Y190.141 E19.87847
G1 X44.093 Y189.943 E19.90476
G1 X43.353 Y189.669 E19.931
G1 X42.644 Y189.321 E19.95727
G1 X41.973 Y188.903 E19.98356
G1 X41.349 Y188.42 E20.00981
G1 X40.776 Y187.877 E20.03607
G1 X40.261 Y187.278 E20.06234
G1 X39.81 Y186.63 E20.0886
G1 X39.426 Y185.939 E20.11489
G1 X39.114 Y185.214 E20.14114
G1 X38.877 Y184.461 E20.1674
G1 X38.718 Y183.687 E20.19368
G1 X38.637 Y182.902 E20.21993
G1 X38.626 Y27.5 E25.38862
G1 X38.666 Y26.711 E25.4149
G1 X38.785 Y25.931 E25.44114
G1 X38.983 Y25.166 E25.46742
G1 X39.257 Y24.426 E25.49367
G1 X39.605 Y23.717 E25.51994
G0 F3600 X40.004 Y23.824
G1 F1800 X40.42 Y23.177 E25.54552
G1 X40.901 Y22.577 E25.5711
G1 X41.442 Y22.03 E25.59668
G1 X42.037 Y21.542 E25.62228
G1 X42.679 Y21.119 E25.64785
G1 X43.362 Y20.764 E25.67345
G1 X44.077 Y20.483 E25.699
G1 X44.819 Y20.277 E25.72462
G1 X45.577 Y20.149 E25.75018
G1 X46.426 Y20.1 E25.77847
G1 X250.573 Y20.1 E32.56843
G1 X251.341 Y20.14 E32.594
G1 X252.101 Y20.259 E32.61959
G1 X252.844 Y20.457 E32.64517
G1 X253.563 Y20.731 E32.67076
G1 X254.249 Y21.078 E32.69633
G1 X254.896 Y21.494 E32.72191
G1 X255.496 Y21.975 E32.74749
G1 X256.043 Y22.516 E32.77308
G1 X256.531 Y23.111 E32.79867
G1 X256.954 Y23.753 E32.82424
G1 X257.309 Y24.436 E32.84984
G1 X257.59 Y25.151 E32.87539
G1 X257.796 Y25.893 E32.90101
G1 X257.924 Y26.651 E32.92658
G1 X257.973 Y27.5 E32.95486
G1 X257.974 Y182.5 E38.11018
G1 X257.934 Y183.268 E38.13576
G1 X257.815 Y184.028 E38.16134
G1 X257.617 Y184.771 E38.18692
G1 X257.343 Y185.49 E38.21251
G1 X256.996 Y186.176 E38.23808
G1 X256.58 Y186.823 E38.26366
G1 X256.099 Y187.423 E38.28924
G1 X255.558 Y187.97 E38.31483
G1 X254.963 Y188.458 E38.34042
G1 X254.321 Y188.881 E38.366
G1 X253.638 Y189.236 E38.3916
G1 X252.923 Y189.517 E38.41715
G1 X252.181 Y189.723 E38.44276
G1 X251.423 Y189.851 E38.46833
G1 X250.574 Y189.9 E38.49661
G1 X46.427 Y189.9 E45.28657
G1 X45.659 Y189.86 E45.31215
G1 X44.899 Y189.741 E45.33774
G1 X44.156 Y189.543 E45.36331
G1 X43.437 Y189.269 E45.3889
G1 X42.751 Y188.922 E45.41447
G1 X42.104 Y188.506 E45.44005
G1 X41.504 Y188.025 E45.46563
G1 X40.957 Y187.484 E45.49122
G1 X40.469 Y186.889 E45.51681
G1 X40.046 Y186.247 E45.54239
G1 X39.691 Y185.564 E45.56799
G1 X39.41 Y184.849 E45.59354
G1 X39.204 Y184.107 E45.61915
G1 X39.076 Y183.349 E45.64472
G1 X39.027 Y182.5 E45.67301
G1 X39.026 Y27.5 E50.82833
G1 X39.066 Y26.732 E50.8539
G1 X39.185 Y25.972 E50.87949
G1 X39.383 Y25.229 E50.90506
G1 X39.657 Y24.51 E50.93066
G1 X40.004 Y23.824 E50.95623
G0 F3600 X40.403 Y23.934
G1 F1800 X40.818 Y23.311 E50.98112
G1 X41.297 Y22.737 E51.00599
G1 X41.834 Y22.216 E51.03087
G1 X42.424 Y21.757 E51.05574
G1 X43.06 Y21.362 E51.08064
G1 X43.734 Y21.038 E51.10551
G1 X44.439 Y20.788 E51.13039
G1 X45.167 Y20.614 E51.15529
G1 X45.909 Y20.519 E51.18017
G1 X46.426 Y20.5 E51.19737
G1 X250.573 Y20.5 E57.98733
G1 X251.32 Y20.54 E58.01221
G1 X252.058 Y20.659 E58.03707
G1 X252.78 Y20.857 E58.06197
G1 X253.476 Y21.13 E58.08684
G1 X254.139 Y21.477 E58.11173
G1 X254.762 Y21.892 E58.13663
G1 X255.336 Y22.371 E58.16149
G1 X255.857 Y22.908 E58.18638
G1 X256.316 Y23.498 E58.21124
G1 X256.711 Y24.134 E58.23614
G1 X257.035 Y24.808 E58.26101
G1 X257.285 Y25.513 E58.28589
G1 X257.459 Y26.241 E58.31079
G1 X257.554 Y26.983 E58.33567
G1 X257.573 Y27.5 E58.35288
G1 X257.574 Y182.5 E63.5082
G1 X257.534 Y183.247 E63.53308
G1 X257.415 Y183.985 E63.55794
G1 X257.217 Y184.707 E63.58284
G1 X256.944 Y185.403 E63.60771
G1 X256.597 Y186.066 E63.6326
G1 X256.182 Y186.689 E63.65749
G1 X255.703 Y187.263 E63.68236
G1 X255.166 Y187.784 E63.70725
G1 X254.576 Y188.243 E63.73211
G1 X253.94 Y188.638 E63.75701
G1 X253.266 Y188.962 E63.78188
G1 X252.561 Y189.212 E63.80676
G1 X251.833 Y189.386 E63.83166
G1 X251.091 Y189.481 E63.85654
G1 X250.574 Y189.5 E63.87374
G1 X46.427 Y189.5 E70.6637
G1 X45.68 Y189.46 E70.68858
G1 X44.942 Y189.341 E70.71344
G1 X44.22 Y189.143 E70.73835
G1 X43.524 Y188.87 E70.76321
G1 X42.861 Y188.523 E70.7881
G1 X42.238 Y188.108 E70.813
G1 X41.664 Y187.629 E70.83786
G1 X41.143 Y187.092 E70.86275
G1 X40.684 Y186.502 E70.88761
G1 X40.289 Y185.866 E70.91251
G1 X39.965 Y185.192 E70.93739
G1 X39.715 Y184.487 E70.96226
G1 X39.541 Y183.759 E70.98716
G1 X39.446 Y183.017 E71.01204
G1 X39.427 Y182.5 E71.02925
G1 X39.426 Y27.5 E76.18457
G1 X39.466 Y26.753 E76.20945
G1 X39.585 Y26.015 E76.23431
G1 X39.783 Y25.293 E76.25921
G1 X40.056 Y24.597 E76.28408
G1 X40.403 Y23.934 E76.30897
G0 F3600 X40.801 Y24.047
G1 F1800 X41.215 Y23.45 E76.33313
G1 X41.691 Y22.902 E76.35727
G1 X42.225 Y22.409 E76.38145
G1 X42.81 Y21.979 E76.40559
G1 X43.439 Y21.615 E76.42977
G1 X44.104 Y21.322 E76.45394
G1 X44.796 Y21.104 E76.47807
G1 X45.509 Y20.964 E76.50223
G1 X46.426 Y20.9 E76.53281
G1 X250.573 Y20.9 E83.32276
G1 X251.298 Y20.94 E83.34691
G1 X252.015 Y21.059 E83.37109
G1 X252.714 Y21.257 E83.39525
G1 X253.387 Y21.53 E83.41941
G1 X254.026 Y21.875 E83.44356
G1 X254.623 Y22.289 E83.46772
G1 X255.171 Y22.765 E83.49187
G1 X255.664 Y23.299 E83.51604
G1 X256.094 Y23.884 E83.54019
G1 X256.458 Y24.513 E83.56436
G1 X256.751 Y25.178 E83.58853
G1 X256.969 Y25.871 E83.61269
G1 X257.109 Y26.583 E83.63683
G1 X257.173 Y27.5 E83.6674
G1 X257.174 Y182.5 E88.82272
G1 X257.134 Y183.225 E88.84687
G1 X257.015 Y183.942 E88.87104
G1 X256.817 Y184.641 E88.89521
G1 X256.544 Y185.314 E88.91936
G1 X256.199 Y185.953 E88.94352
G1 X255.785 Y186.55 E88.96768
G1 X255.309 Y187.098 E88.99182
G1 X254.775 Y187.591 E89.016
G1 X254.19 Y188.021 E89.04014
G1 X253.561 Y188.385 E89.06431
G1 X252.896 Y188.678 E89.08848
G1 X252.203 Y188.896 E89.11265
G1 X251.491 Y189.036 E89.13678
G1 X250.574 Y189.1 E89.16736
G1 X46.427 Y189.1 E95.95731
G1 X45.702 Y189.06 E95.98146
G1 X44.985 Y188.941 E96.00564
G1 X44.286 Y188.743 E96.0298
G1 X43.613 Y188.47 E96.05396
G1 X42.974 Y188.125 E96.07811
G1 X42.377 Y187.711 E96.10227
G1 X41.829 Y187.235 E96.12641
G1 X41.336 Y186.701 E96.15059
G1 X40.906 Y186.116 E96.17473
G1 X40.542 Y185.487 E96.19891
G1 X40.249 Y184.822 E96.22308
G1 X40.031 Y184.129 E96.24724
G1 X39.891 Y183.417 E96.27137
G1 X39.827 Y182.5 E96.30195
G1 X39.826 Y27.5 E101.45727
G1 X39.866 Y26.775 E101.48142
G1 X39.985 Y26.058 E101.50559
G1 X40.183 Y25.359 E101.52976
G1 X40.456 Y24.686 E101.55391
G1 X40.801 Y24.047 E101.57806
G0 F3600 X40.855 Y24.779
G1 F1800 X41.2 Y24.165 E101.60149
G1 X41.611 Y23.594 E101.62489
G1 X42.085 Y23.073 E101.64832
G1 X42.615 Y22.609 E101.67174
G1 X43.194 Y22.209 E101.69515
G1 X43.815 Y21.877 E101.71857
G1 X44.469 Y21.617 E101.74198
G1 X45.149 Y21.433 E101.76541
G1 X45.845 Y21.327 E101.78883
G1 X46.426 Y21.3 E101.80817
G1 X250.573 Y21.3 E108.59813
G1 X251.276 Y21.34 E108.62155
G1 X251.97 Y21.459 E108.64497
G1 X252.645 Y21.657 E108.66836
G1 X253.294 Y21.929 E108.69177
G1 X253.908 Y22.274 E108.71519
G1 X254.479 Y22.685 E108.73859
G1 X255 Y23.159 E108.76202
G1 X255.464 Y23.689 E108.78545
G1 X255.864 Y24.268 E108.80885
G1 X256.196 Y24.889 E108.83228
G1 X256.456 Y25.543 E108.85568
G1 X256.64 Y26.223 E108.87911
G1 X256.746 Y26.919 E108.90253
G1 X256.773 Y27.5 E108.92187
G1 X256.774 Y182.5 E114.0772
G1 X256.734 Y183.203 E114.10062
G1 X256.615 Y183.897 E114.12403
G1 X256.417 Y184.572 E114.14743
G1 X256.145 Y185.221 E114.17084
G1 X255.8 Y185.835 E114.19426
G1 X255.389 Y186.406 E114.21766
G1 X254.915 Y186.927 E114.24109
G1 X254.385 Y187.391 E114.26452
G1 X253.806 Y187.791 E114.28792
G1 X253.185 Y188.123 E114.31134
G1 X252.531 Y188.383 E114.33475
G1 X251.851 Y188.567 E114.35818
G1 X251.155 Y188.673 E114.3816
G1 X250.574 Y188.7 E114.40094
G1 X46.427 Y188.7 E121.1909
G1 X45.724 Y188.66 E121.21432
G1 X45.03 Y188.541 E121.23774
G1 X44.355 Y188.343 E121.26114
G1 X43.706 Y188.071 E121.28454
G1 X43.092 Y187.726 E121.30797
G1 X42.521 Y187.315 E121.33136
G1 X42 Y186.841 E121.35479
G1 X41.536 Y186.311 E121.37822
G1 X41.136 Y185.732 E121.40163
G1 X40.804 Y185.111 E121.42505
G1 X40.544 Y184.457 E121.44846
G1 X40.36 Y183.777 E121.47189
G1 X40.254 Y183.081 E121.4953
G1 X40.227 Y182.5 E121.51465
G1 X40.226 Y27.5 E126.66997
G1 X40.266 Y26.797 E126.69339
G1 X40.385 Y26.103 E126.71681
G1 X40.583 Y25.428 E126.7402
G1 X40.855 Y24.779 E126.76361
G0 F3600 X41.254 Y24.874
G1 F1800 X41.598 Y24.286 E126.78627
G1 X42.008 Y23.742 E126.80892
G1 X42.479 Y23.251 E126.83155
G1 X43.004 Y22.817 E126.85421
G1 X43.576 Y22.448 E126.87685
G1 X44.188 Y22.149 E126.8995
G1 X44.83 Y21.924 E126.92213
G1 X45.495 Y21.775 E126.9448
G1 X46.426 Y21.7 E126.97586
G1 X250.573 Y21.7 E133.76582
G1 X251.253 Y21.74 E133.78847
G1 X251.923 Y21.859 E133.81111
G1 X252.575 Y22.056 E133.83376
G1 X253.199 Y22.328 E133.8564
G1 X253.787 Y22.672 E133.87906
G1 X254.331 Y23.082 E133.90172
G1 X254.822 Y23.553 E133.92435
G1 X255.256 Y24.078 E133.947
G1 X255.625 Y24.65 E133.96964
G1 X255.924 Y25.262 E133.9923
G1 X256.149 Y25.904 E134.01492
G1 X256.298 Y26.569 E134.03759
G1 X256.373 Y27.5 E134.06865
G1 X256.374 Y182.5 E139.22398
G1 X256.334 Y183.18 E139.24663
G1 X256.215 Y183.85 E139.26926
G1 X256.018 Y184.502 E139.29192
G1 X255.746 Y185.126 E139.31456
G1 X255.402 Y185.714 E139.33722
G1 X254.992 Y186.258 E139.35987
G1 X254.521 Y186.749 E139.3825
G1 X253.996 Y187.183 E139.40516
G1 X253.424 Y187.552 E139.4278
G1 X252.812 Y187.851 E139.45045
G1 X252.17 Y188.076 E139.47308
G1 X251.505 Y188.225 E139.49575
G1 X250.574 Y188.3 E139.52681
G1 X46.427 Y188.3 E146.31677
G1 X45.747 Y188.26 E146.33942
G1 X45.077 Y188.141 E146.36206
G1 X44.425 Y187.944 E146.38471
G1 X43.801 Y187.672 E146.40735
G1 X43.213 Y187.328 E146.43001
G1 X42.669 Y186.918 E146.45267
G1 X42.178 Y186.447 E146.4753
G1 X41.744 Y185.922 E146.49795
G1 X41.375 Y185.35 E146.52059
G1 X41.076 Y184.738 E146.54325
G1 X40.851 Y184.096 E146.56587
G1 X40.702 Y183.431 E146.58854
G1 X40.627 Y182.5 E146.6196
G1 X40.626 Y27.5 E151.77493
G1 X40.666 Y26.82 E151.79758
G1 X40.785 Y26.15 E151.82021
G1 X40.982 Y25.498 E151.84287
G1 X41.254 Y24.874 E151.86551
G0 F3600 X41.654 Y24.973
G1 F1800 X41.996 Y24.412 E151.88736
G1 X42.404 Y23.897 E151.90921
G1 X42.871 Y23.435 E151.93106
G1 X43.391 Y23.034 E151.9529
G1 X43.955 Y22.698 E151.97474
G1 X44.557 Y22.434 E151.9966
G1 X45.186 Y22.244 E152.01846
G1 X45.833 Y22.133 E152.04029
G1 X46.426 Y22.1 E152.06004
G1 X250.573 Y22.1 E158.85
G1 X251.229 Y22.14 E158.87186
G1 X251.875 Y22.259 E158.89371
G1 X252.502 Y22.456 E158.91557
G1 X253.1 Y22.728 E158.93742
G1 X253.661 Y23.07 E158.95927
G1 X254.176 Y23.478 E158.98112
G1 X254.638 Y23.945 E159.00297
G1 X255.039 Y24.465 E159.02481
G1 X255.375 Y25.029 E159.04665
G1 X255.639 Y25.631 E159.06851
G1 X255.829 Y26.26 E159.09037
G1 X255.94 Y26.907 E159.1122
G1 X255.973 Y27.5 E159.13195
G1 X255.974 Y182.5 E164.28727
G1 X255.934 Y183.156 E164.30913
G1 X255.815 Y183.802 E164.33098
G1 X255.618 Y184.429 E164.35284
G1 X255.346 Y185.027 E164.37469
G1 X255.004 Y185.588 E164.39654
G1 X254.596 Y186.103 E164.4184
G1 X254.129 Y186.565 E164.44025
G1 X253.609 Y186.966 E164.46209
G1 X253.045 Y187.302 E164.48392
G1 X252.443 Y187.566 E164.50578
G1 X251.814 Y187.756 E164.52764
G1 X251.167 Y187.867 E164.54947
G1 X250.574 Y187.9 E164.56923
G1 X46.427 Y187.9 E171.35918
G1 X45.771 Y187.86 E171.38104
G1 X45.125 Y187.741 E171.40289
G1 X44.498 Y187.544 E171.42475
G1 X43.9 Y187.272 E171.4466
G1 X43.339 Y186.93 E171.46845
G1 X42.824 Y186.522 E171.4903
G1 X42.362 Y186.055 E171.51215
G1 X41.961 Y185.535 E171.53399
G1 X41.625 Y184.971 E171.55583
G1 X41.361 Y184.369 E171.57769
G1 X41.171 Y183.74 E171.59955
G1 X41.06 Y183.093 E171.62138
G1 X41.027 Y182.5 E171.64113
G1 X41.026 Y27.5 E176.79646
G1 X41.066 Y26.844 E176.81831
G1 X41.185 Y26.198 E176.84016
G1 X41.382 Y25.571 E176.86202
G1 X41.654 Y24.973 E176.88387
G0 F3600 X42.053 Y25.076
G1 F1800 X42.393 Y24.544 E176.90487
G1 X42.799 Y24.059 E176.92591
G1 X43.262 Y23.629 E176.94692
G1 X43.776 Y23.26 E176.96797
G1 X44.332 Y22.96 E176.98898
G1 X44.921 Y22.732 E177.00999
G1 X45.535 Y22.58 E177.03103
G1 X46.426 Y22.5 E177.06078
G1 X250.573 Y22.5 E183.85074
G1 X251.204 Y22.54 E183.87177
G1 X251.825 Y22.659 E183.8928
G1 X252.425 Y22.856 E183.9138
G1 X252.997 Y23.127 E183.93485
G1 X253.529 Y23.467 E183.95585
G1 X254.014 Y23.873 E183.97689
G1 X254.444 Y24.336 E183.99791
G1 X254.813 Y24.85 E184.01895
G1 X255.113 Y25.406 E184.03996
G1 X255.341 Y25.995 E184.06097
G1 X255.493 Y26.609 E184.08201
G1 X255.573 Y27.5 E184.11176
G1 X255.574 Y182.5 E189.26708
G1 X255.534 Y183.131 E189.28811
G1 X255.415 Y183.752 E189.30914
G1 X255.218 Y184.352 E189.33015
G1 X254.947 Y184.924 E189.3512
G1 X254.607 Y185.456 E189.3722
G1 X254.201 Y185.941 E189.39324
G1 X253.738 Y186.371 E189.41425
G1 X253.224 Y186.74 E189.4353
G1 X252.668 Y187.04 E189.45631
G1 X252.079 Y187.268 E189.47732
G1 X251.465 Y187.42 E189.49836
G1 X250.574 Y187.5 E189.52811
G1 X46.427 Y187.5 E196.31807
G1 X45.796 Y187.46 E196.3391
G1 X45.175 Y187.341 E196.36013
G1 X44.575 Y187.144 E196.38113
G1 X44.003 Y186.873 E196.40218
G1 X43.471 Y186.533 E196.42318
G1 X42.986 Y186.127 E196.44422
G1 X42.556 Y185.664 E196.46524
G1 X42.187 Y185.15 E196.48628
G1 X41.887 Y184.594 E196.50729
G1 X41.659 Y184.005 E196.5283
G1 X41.507 Y183.391 E196.54934
G1 X41.427 Y182.5 E196.57909
G1 X41.426 Y27.5 E201.73441
G1 X41.466 Y26.869 E201.75544
G1 X41.585 Y26.248 E201.77647
G1 X41.782 Y25.648 E201.79748
G1 X42.053 Y25.076 E201.81853
G0 F3600 X42.452 Y25.184
G1 F1800 X42.791 Y24.682 E201.83868
G1 X43.193 Y24.228 E201.85884
G1 X43.651 Y23.831 E201.879
G1 X44.158 Y23.498 E201.89918
G1 X44.704 Y23.234 E201.91935
G1 X45.28 Y23.045 E201.93951
G1 X45.876 Y22.933 E201.95968
G1 X46.426 Y22.9 E201.97801
G1 X250.573 Y22.9 E208.76797
G1 X251.178 Y22.94 E208.78813
G1 X251.772 Y23.059 E208.80828
G1 X252.346 Y23.255 E208.82846
G1 X252.889 Y23.526 E208.84864
G1 X253.392 Y23.865 E208.86881
G1 X253.845 Y24.267 E208.88896
G1 X254.242 Y24.725 E208.90912
G1 X254.575 Y25.232 E208.92929
G1 X254.839 Y25.778 E208.94946
G1 X255.028 Y26.354 E208.96963
