;FLAVOR:Marlin
;TIME:2700
;Filament used: 3.71653m
;Layer height: 0.3
;MINX:108.95
;MINY:70.95
;MINZ:0.2
;MAXX:192.05
;MAXY:147.05
;MAXZ:29.9
;Generated with Cura_SteamEngine 4.6.1
M104 S210
M105
M109 S210
M82 ;absolute extrusion mode
; -- START GCODE --
G21                     ;set units to millimetres
G90                     ;set to absolute positioning
M106 S0                 ;set fan speed to zero (turned off)
G28 X0 Y0               ;move to the X/Y origin (Home)
G28 Z0                  ;move to the Z origin (Home)
G1 Z15.0 F1200          ;move Z to position 15.0 mm
G92 E0                  ;zero the extruded length
G1 E20 F200             ;extrude 20mm of feed stock
G92 E0                  ;zero the extruded length again
G1 F7200                ;set feedrate to 120 mm/s
; -- end of START GCODE --
G92 E0
G92 E0
G1 F1500 E-6.5
;LAYER_COUNT:100
;LAYER:0
M107
G0 F3600 X111.235 Y107.352 Z0.2
;TYPE:SKIRT
G1 F1500 E0
G1 F1800 X111.938 Y106.705 E0.03178
G1 X112.574 Y106.238 E0.05802
G1 X113.254 Y105.837 E0.08428
G1 X113.972 Y105.507 E0.11056
G1 X114.719 Y105.252 E0.13681
G1 X115.488 Y105.073 E0.16307
G1 X116.272 Y104.973 E0.18936
G1 X116.867 Y104.95 E0.20917
G1 X128.89 Y104.95 E0.60905
G1 X128.413 Y104.653 E0.62774
G1 X127.789 Y104.17 E0.65399
G1 X127.352 Y103.765 E0.6738
G1 X126.705 Y103.062 E0.70558
G1 X126.238 Y102.426 E0.73182
G1 X125.837 Y101.746 E0.75808
G1 X125.507 Y101.028 E0.78436
G1 X125.252 Y100.281 E0.81062
G1 X125.073 Y99.512 E0.83688
G1 X124.973 Y98.728 E0.86316
G1 X124.95 Y98.133 E0.88297
G1 X124.95 Y96.867 E0.92508
G1 X124.99 Y96.078 E0.95135
G1 X125.109 Y95.298 E0.97759
G1 X125.307 Y94.533 E1.00388
G1 X125.581 Y93.793 E1.03012
G1 X125.929 Y93.084 E1.05639
G1 X126.347 Y92.413 E1.08269
G1 X126.83 Y91.789 E1.10893
G1 X127.235 Y91.352 E1.12875
G1 X127.938 Y90.705 E1.16052
G1 X128.574 Y90.238 E1.18677
G1 X129.254 Y89.837 E1.21302
G1 X129.972 Y89.507 E1.23931
G1 X130.719 Y89.252 E1.26556
G1 X131.488 Y89.073 E1.29182
G1 X132.272 Y88.973 E1.31811
G1 X132.867 Y88.95 E1.33791
G1 X154.133 Y88.95 E2.04522
G1 X154.922 Y88.99 E2.0715
G1 X155.702 Y89.109 E2.09774
G1 X156.467 Y89.307 E2.12402
G1 X157.207 Y89.581 E2.15027
G1 X157.916 Y89.929 E2.17654
G1 X158.587 Y90.347 E2.20283
G1 X158.956 Y90.633 E2.21836
G1 X158.953 Y88.05 E2.30427
G1 X146.867 Y88.05 E2.70625
G1 X146.078 Y88.01 E2.73253
G1 X145.298 Y87.891 E2.75877
G1 X144.533 Y87.693 E2.78505
G1 X143.793 Y87.419 E2.8113
G1 X143.084 Y87.071 E2.83757
G1 X142.413 Y86.653 E2.86386
G1 X141.789 Y86.17 E2.89011
G1 X141.352 Y85.765 E2.90992
G1 X140.705 Y85.062 E2.9417
G1 X140.238 Y84.426 E2.96795
G1 X139.837 Y83.746 E2.9942
G1 X139.507 Y83.028 E3.02048
G1 X139.252 Y82.281 E3.04674
G1 X139.073 Y81.512 E3.073
G1 X138.973 Y80.728 E3.09929
G1 X138.95 Y80.133 E3.11909
G1 X138.95 Y78.867 E3.1612
G1 X138.99 Y78.078 E3.18747
G1 X139.109 Y77.298 E3.21372
G1 X139.307 Y76.533 E3.24
G1 X139.581 Y75.793 E3.26624
G1 X139.929 Y75.084 E3.29251
G1 X140.347 Y74.413 E3.31881
G1 X140.83 Y73.789 E3.34505
G1 X141.235 Y73.352 E3.36487
G1 X141.938 Y72.705 E3.39665
G1 X142.574 Y72.238 E3.42289
G1 X143.254 Y71.837 E3.44915
G1 X143.972 Y71.507 E3.47543
G1 X144.719 Y71.252 E3.50168
G1 X145.488 Y71.073 E3.52794
G1 X146.272 Y70.973 E3.55423
G1 X146.867 Y70.95 E3.57403
G1 X168.133 Y70.95 E4.28134
G1 X168.922 Y70.99 E4.30762
G1 X169.702 Y71.109 E4.33386
G1 X170.467 Y71.307 E4.36015
G1 X171.207 Y71.581 E4.38639
G1 X171.916 Y71.929 E4.41266
G1 X172.587 Y72.347 E4.43895
G1 X173.211 Y72.83 E4.4652
G1 X173.648 Y73.235 E4.48502
G1 X174.295 Y73.938 E4.51679
G1 X174.762 Y74.574 E4.54304
G1 X175.163 Y75.254 E4.56929
G1 X175.493 Y75.972 E4.59558
G1 X175.748 Y76.719 E4.62183
G1 X175.927 Y77.488 E4.64809
G1 X176.027 Y78.272 E4.67438
G1 X176.05 Y78.867 E4.69418
G1 X176.05 Y85.948 E4.9297
G1 X177.72 Y85.95 E4.98524
G1 X178.509 Y85.991 E5.01152
G1 X179.289 Y86.112 E5.03777
G1 X180.053 Y86.311 E5.06403
G1 X180.709 Y86.55 E5.08725
G1 X181.494 Y86.92 E5.11612
G1 X182.168 Y87.331 E5.14237
G1 X182.798 Y87.807 E5.16864
G1 X183.296 Y88.265 E5.19114
G1 X183.735 Y88.704 E5.21179
G1 X184.265 Y89.29 E5.23807
G1 X184.732 Y89.926 E5.26431
G1 X185.133 Y90.606 E5.29057
G1 X185.42 Y91.219 E5.31308
G1 X185.716 Y92.034 E5.34192
G1 X185.906 Y92.801 E5.3682
G1 X186.018 Y93.583 E5.39448
G1 X186.05 Y94.291 E5.41805
G1 X186.05 Y94.709 E5.43195
G1 X186.01 Y95.498 E5.45823
G1 X185.891 Y96.278 E5.48447
G1 X185.693 Y97.043 E5.51075
G1 X185.45 Y97.709 E5.53433
G1 X185.08 Y98.494 E5.5632
G1 X184.669 Y99.168 E5.58945
G1 X184.193 Y99.798 E5.61571
G1 X183.735 Y100.296 E5.63822
G1 X183.296 Y100.735 E5.65887
G1 X182.71 Y101.265 E5.68515
G1 X182.074 Y101.732 E5.71139
G1 X181.394 Y102.133 E5.73765
G1 X180.781 Y102.42 E5.76016
G1 X179.966 Y102.716 E5.789
G1 X179.199 Y102.906 E5.81528
G1 X178.417 Y103.018 E5.84156
G1 X177.709 Y103.05 E5.86513
G1 X167.26 Y103.05 E6.21266
G1 X166.471 Y103.01 E6.23894
G1 X165.436 Y102.834 E6.27386
G1 X164.442 Y102.553 E6.30821
G1 X163.711 Y102.255 E6.33447
G1 X163.014 Y101.884 E6.36073
G1 X162.215 Y101.335 E6.39297
G1 X162.05 Y101.205 E6.39996
G1 X162.05 Y103.948 E6.49119
G1 X163.72 Y103.95 E6.54674
G1 X164.509 Y103.991 E6.57302
G1 X165.289 Y104.112 E6.59927
G1 X166.053 Y104.311 E6.62553
G1 X166.709 Y104.55 E6.64875
G1 X167.494 Y104.92 E6.67761
G1 X168.168 Y105.331 E6.70387
G1 X168.798 Y105.807 E6.73013
G1 X169.296 Y106.265 E6.75264
G1 X169.735 Y106.704 E6.77328
G1 X170.265 Y107.29 E6.79956
G1 X170.732 Y107.926 E6.82581
G1 X171.133 Y108.606 E6.85206
G1 X171.42 Y109.219 E6.87458
G1 X171.716 Y110.034 E6.90342
G1 X171.906 Y110.801 E6.9297
G1 X172.018 Y111.583 E6.95597
G1 X172.05 Y112.291 E6.97955
G1 X172.05 Y112.709 E6.99345
G1 X172.01 Y113.498 E7.01972
G1 X171.891 Y114.278 E7.04597
G1 X171.717 Y114.95 E7.06905
G1 X174.133 Y114.95 E7.14941
G1 X174.922 Y114.99 E7.17569
G1 X175.702 Y115.109 E7.20193
G1 X176.467 Y115.307 E7.22821
G1 X177.207 Y115.581 E7.25446
G1 X177.916 Y115.929 E7.28073
G1 X178.587 Y116.347 E7.30702
G1 X179.211 Y116.83 E7.33327
G1 X179.648 Y117.235 E7.35308
G1 X180.295 Y117.938 E7.38486
G1 X180.762 Y118.574 E7.4111
G1 X181.163 Y119.254 E7.43736
G1 X181.493 Y119.972 E7.46364
G1 X181.748 Y120.719 E7.4899
G1 X181.927 Y121.488 E7.51616
G1 X182.027 Y122.272 E7.54244
G1 X182.05 Y122.867 E7.56225
G1 X182.05 Y129.948 E7.79776
G1 X183.72 Y129.95 E7.85331
G1 X184.509 Y129.991 E7.87959
G1 X185.289 Y130.112 E7.90584
G1 X186.053 Y130.311 E7.9321
G1 X186.709 Y130.55 E7.95532
G1 X187.494 Y130.92 E7.98418
G1 X188.168 Y131.331 E8.01044
G1 X188.798 Y131.807 E8.0367
G1 X189.296 Y132.265 E8.05921
G1 X189.735 Y132.704 E8.07985
G1 X190.265 Y133.29 E8.10613
G1 X190.732 Y133.926 E8.13238
G1 X191.133 Y134.606 E8.15863
G1 X191.42 Y135.219 E8.18115
G1 X191.716 Y136.034 E8.20999
G1 X191.906 Y136.801 E8.23627
G1 X192.018 Y137.583 E8.26254
G1 X192.05 Y138.291 E8.28611
G1 X192.05 Y138.709 E8.30002
G1 X192.01 Y139.498 E8.32629
G1 X191.891 Y140.278 E8.35254
G1 X191.693 Y141.043 E8.37882
G1 X191.45 Y141.709 E8.4024
G1 X191.08 Y142.494 E8.43126
G1 X190.669 Y143.168 E8.45752
G1 X190.193 Y143.798 E8.48378
G1 X189.735 Y144.296 E8.50628
G1 X189.296 Y144.735 E8.52693
G1 X188.71 Y145.265 E8.55321
G1 X188.074 Y145.732 E8.57946
G1 X187.394 Y146.133 E8.60571
G1 X186.781 Y146.42 E8.62823
G1 X185.966 Y146.716 E8.65707
G1 X185.199 Y146.906 E8.68335
G1 X184.417 Y147.018 E8.70962
G1 X183.709 Y147.05 E8.73319
G1 X173.26 Y147.05 E9.08073
G1 X172.471 Y147.01 E9.10701
G1 X171.436 Y146.834 E9.14192
G1 X170.442 Y146.553 E9.17628
G1 X169.711 Y146.255 E9.20254
G1 X169.014 Y145.884 E9.2288
G1 X168.215 Y145.335 E9.26104
G1 X167.466 Y144.698 E9.29374
G1 X166.925 Y144.123 E9.32
G1 X166.445 Y143.496 E9.34627
G1 X166.031 Y142.823 E9.37255
G1 X165.736 Y142.235 E9.39443
G1 X165.429 Y141.508 E9.42067
G1 X165.198 Y140.753 E9.44693
G1 X165.044 Y139.978 E9.47322
G1 X164.961 Y138.855 E9.51067
G1 X164.953 Y132.05 E9.737
G1 X155.292 Y132.05 E10.05833
G1 X155.08 Y132.494 E10.07469
G1 X154.669 Y133.168 E10.10095
G1 X154.193 Y133.798 E10.12721
G1 X153.735 Y134.296 E10.14972
G1 X153.296 Y134.735 E10.17037
G1 X152.71 Y135.265 E10.19665
G1 X152.074 Y135.732 E10.22289
G1 X151.394 Y136.133 E10.24915
G1 X150.781 Y136.42 E10.27166
G1 X149.966 Y136.716 E10.3005
G1 X149.199 Y136.906 E10.32678
G1 X148.417 Y137.018 E10.35305
G1 X147.709 Y137.05 E10.37663
G1 X137.26 Y137.05 E10.72416
G1 X136.471 Y137.01 E10.75044
G1 X135.436 Y136.834 E10.78536
G1 X134.442 Y136.553 E10.81971
G1 X133.711 Y136.255 E10.84597
G1 X133.014 Y135.884 E10.87223
G1 X132.215 Y135.335 E10.90447
G1 X131.466 Y134.698 E10.93718
G1 X130.925 Y134.123 E10.96343
G1 X130.445 Y133.496 E10.9897
G1 X130.031 Y132.823 E11.01598
G1 X129.736 Y132.235 E11.03786
G1 X129.429 Y131.508 E11.06411
G1 X129.198 Y130.753 E11.09037
G1 X129.044 Y129.978 E11.11665
G1 X128.961 Y128.855 E11.1541
G1 X128.953 Y122.05 E11.38044
G1 X116.867 Y122.05 E11.78242
G1 X116.078 Y122.01 E11.80869
G1 X115.298 Y121.891 E11.83494
G1 X114.533 Y121.693 E11.86122
G1 X113.793 Y121.419 E11.88746
G1 X113.084 Y121.071 E11.91373
G1 X112.413 Y120.653 E11.94003
G1 X111.789 Y120.17 E11.96627
G1 X111.352 Y119.765 E11.98609
G1 X110.705 Y119.062 E12.01787
G1 X110.238 Y118.426 E12.04411
G1 X109.837 Y117.746 E12.07037
G1 X109.507 Y117.028 E12.09665
G1 X109.252 Y116.281 E12.1229
G1 X109.073 Y115.512 E12.14916
G1 X108.973 Y114.728 E12.17545
G1 X108.95 Y114.133 E12.19525
G1 X108.95 Y112.867 E12.23736
G1 X108.99 Y112.078 E12.26364
G1 X109.109 Y111.298 E12.28988
G1 X109.307 Y110.533 E12.31616
G1 X109.581 Y109.793 E12.34241
G1 X109.929 Y109.084 E12.36868
G1 X110.347 Y108.413 E12.39497
G1 X110.83 Y107.789 E12.42122
G1 X111.235 Y107.352 E12.44103
G0 F3600 X111.634 Y107.517
G1 F1800 X112.206 Y107.003 E12.46661
G1 X112.828 Y106.55 E12.4922
G1 X113.493 Y106.164 E12.51778
G1 X114.195 Y105.849 E12.54337
G1 X114.926 Y105.609 E12.56896
G1 X115.677 Y105.446 E12.59452
G1 X116.442 Y105.362 E12.62012
G1 X130.81 Y105.35 E13.098
G1 X130.596 Y105.293 E13.10536
G1 X129.877 Y105.019 E13.13096
G1 X129.191 Y104.672 E13.15653
G1 X128.544 Y104.256 E13.18211
G1 X127.944 Y103.775 E13.20769
G1 X127.517 Y103.366 E13.22735
G1 X127.003 Y102.794 E13.25293
G1 X126.55 Y102.172 E13.27852
G1 X126.164 Y101.507 E13.3041
G1 X125.849 Y100.805 E13.32969
G1 X125.609 Y100.074 E13.35528
G1 X125.446 Y99.323 E13.38084
G1 X125.362 Y98.558 E13.40643
G1 X125.35 Y96.867 E13.46268
G1 X125.39 Y96.099 E13.48826
G1 X125.509 Y95.339 E13.51384
G1 X125.707 Y94.596 E13.53942
G1 X125.981 Y93.877 E13.56501
G1 X126.328 Y93.191 E13.59058
G1 X126.744 Y92.544 E13.61616
G1 X127.225 Y91.944 E13.64174
G1 X127.634 Y91.517 E13.66141
G1 X128.206 Y91.003 E13.68698
G1 X128.828 Y90.55 E13.71258
G1 X129.493 Y90.164 E13.73815
G1 X130.195 Y89.849 E13.76374
G1 X130.926 Y89.609 E13.78933
G1 X131.677 Y89.446 E13.81489
G1 X132.442 Y89.362 E13.84049
G1 X154.133 Y89.35 E14.56193
G1 X154.901 Y89.39 E14.58751
G1 X155.661 Y89.509 E14.6131
G1 X156.404 Y89.707 E14.63867
G1 X157.123 Y89.981 E14.66426
G1 X157.809 Y90.328 E14.68983
G1 X158.456 Y90.744 E14.71542
G1 X159.056 Y91.225 E14.74099
G1 X159.357 Y91.509 E14.75476
G1 X159.353 Y87.65 E14.88311
G1 X146.867 Y87.65 E15.2984
G1 X146.099 Y87.61 E15.32397
G1 X145.339 Y87.491 E15.34956
G1 X144.596 Y87.293 E15.37513
G1 X143.877 Y87.019 E15.40073
G1 X143.191 Y86.672 E15.4263
G1 X142.544 Y86.256 E15.45188
G1 X141.944 Y85.775 E15.47746
G1 X141.517 Y85.366 E15.49712
G1 X141.003 Y84.794 E15.5227
G1 X140.55 Y84.172 E15.54829
G1 X140.164 Y83.507 E15.57387
G1 X139.849 Y82.805 E15.59946
G1 X139.609 Y82.074 E15.62505
G1 X139.446 Y81.323 E15.65061
G1 X139.362 Y80.558 E15.6762
G1 X139.35 Y78.867 E15.73245
G1 X139.39 Y78.099 E15.75803
G1 X139.509 Y77.339 E15.78361
G1 X139.707 Y76.596 E15.80919
G1 X139.981 Y75.877 E15.83478
G1 X140.328 Y75.191 E15.86035
G1 X140.744 Y74.544 E15.88593
G1 X141.225 Y73.944 E15.91151
G1 X141.634 Y73.517 E15.93118
G1 X142.206 Y73.003 E15.95675
G1 X142.828 Y72.55 E15.98235
G1 X143.493 Y72.164 E16.00792
G1 X144.195 Y71.849 E16.03351
G1 X144.926 Y71.609 E16.0591
G1 X145.677 Y71.446 E16.08466
G1 X146.442 Y71.362 E16.11026
G1 X168.133 Y71.35 E16.8317
G1 X168.901 Y71.39 E16.85728
G1 X169.661 Y71.509 E16.88287
G1 X170.404 Y71.707 E16.90844
G1 X171.123 Y71.981 E16.93403
G1 X171.809 Y72.328 E16.9596
G1 X172.456 Y72.744 E16.98519
G1 X173.056 Y73.225 E17.01076
G1 X173.483 Y73.634 E17.03043
G1 X173.997 Y74.206 E17.05601
G1 X174.45 Y74.828 E17.0816
G1 X174.836 Y75.493 E17.10717
G1 X175.151 Y76.195 E17.13277
G1 X175.391 Y76.926 E17.15836
G1 X175.554 Y77.677 E17.18392
G1 X175.638 Y78.442 E17.20951
G1 X175.65 Y86.347 E17.47243
G1 X177.72 Y86.35 E17.54128
G1 X178.488 Y86.391 E17.56686
G1 X179.247 Y86.512 E17.59243
G1 X179.99 Y86.71 E17.618
G1 X180.555 Y86.919 E17.63804
G1 X181.321 Y87.282 E17.66623
G1 X181.976 Y87.684 E17.69179
G1 X182.586 Y88.152 E17.71736
G1 X183.014 Y88.547 E17.73674
G1 X183.453 Y88.986 E17.75738
G1 X183.967 Y89.558 E17.78296
G1 X184.42 Y90.18 E17.80855
G1 X184.806 Y90.845 E17.83413
G1 X185.051 Y91.373 E17.85349
G1 X185.339 Y92.169 E17.88164
G1 X185.521 Y92.917 E17.90725
G1 X185.625 Y93.679 E17.93283
G1 X185.65 Y94.291 E17.9532
G1 X185.65 Y94.709 E17.9671
G1 X185.61 Y95.477 E17.99268
G1 X185.491 Y96.237 E18.01827
G1 X185.293 Y96.98 E18.04384
G1 X185.081 Y97.555 E18.06422
G1 X184.718 Y98.321 E18.09242
G1 X184.316 Y98.976 E18.11798
G1 X183.848 Y99.586 E18.14355
G1 X183.453 Y100.014 E18.16292
G1 X183.014 Y100.453 E18.18357
G1 X182.442 Y100.967 E18.20915
G1 X181.82 Y101.42 E18.23474
G1 X181.155 Y101.806 E18.26031
G1 X180.627 Y102.051 E18.27967
G1 X179.831 Y102.339 E18.30783
G1 X179.083 Y102.521 E18.33343
G1 X178.321 Y102.625 E18.35901
G1 X177.709 Y102.65 E18.37939
G1 X167.26 Y102.65 E18.72692
G1 X166.492 Y102.61 E18.7525
G1 X165.53 Y102.445 E18.78496
G1 X164.555 Y102.169 E18.81867
G1 X163.844 Y101.876 E18.84424
G1 X163.168 Y101.509 E18.86983
G1 X162.461 Y101.02 E18.89842
G1 X161.729 Y100.396 E18.93041
G1 X161.65 Y100.311 E18.93427
G1 X161.65 Y104.347 E19.06851
G1 X163.72 Y104.35 E19.13736
G1 X164.488 Y104.391 E19.16294
G1 X165.247 Y104.512 E19.1885
G1 X165.99 Y104.71 E19.21407
G1 X166.555 Y104.919 E19.23411
G1 X167.321 Y105.282 E19.2623
G1 X167.976 Y105.684 E19.28786
G1 X168.586 Y106.152 E19.31344
G1 X169.014 Y106.547 E19.33281
G1 X169.453 Y106.986 E19.35346
G1 X169.967 Y107.558 E19.37903
G1 X170.42 Y108.18 E19.40463
G1 X170.806 Y108.845 E19.4302
G1 X171.051 Y109.373 E19.44956
G1 X171.339 Y110.169 E19.47772
G1 X171.521 Y110.917 E19.50332
G1 X171.625 Y111.679 E19.5289
G1 X171.65 Y112.291 E19.54927
G1 X171.65 Y112.709 E19.56317
G1 X171.61 Y113.477 E19.58875
G1 X171.491 Y114.237 E19.61434
G1 X171.293 Y114.98 E19.63991
G1 X171.157 Y115.35 E19.65302
G1 X174.133 Y115.35 E19.75201
G1 X174.901 Y115.39 E19.77758
G1 X175.661 Y115.509 E19.80317
G1 X176.404 Y115.707 E19.82875
G1 X177.123 Y115.981 E19.85434
G1 X177.809 Y116.328 E19.87991
G1 X178.456 Y116.744 E19.90549
G1 X179.056 Y117.225 E19.93107
G1 X179.483 Y117.634 E19.95073
G1 X179.997 Y118.206 E19.97631
G1 X180.45 Y118.828 E20.0019
G1 X180.836 Y119.493 E20.02748
G1 X181.151 Y120.195 E20.05307
G1 X181.391 Y120.926 E20.07866
G1 X181.554 Y121.677 E20.10422
G1 X181.638 Y122.442 E20.12982
G1 X181.65 Y130.347 E20.39274
G1 X183.72 Y130.35 E20.46159
G1 X184.488 Y130.391 E20.48717
G1 X185.247 Y130.512 E20.51273
G1 X185.99 Y130.71 E20.5383
G1 X186.555 Y130.919 E20.55834
G1 X187.321 Y131.282 E20.58653
G1 X187.976 Y131.684 E20.61209
G1 X188.586 Y132.152 E20.63767
G1 X189.014 Y132.547 E20.65704
G1 X189.453 Y132.986 E20.67769
G1 X189.967 Y133.558 E20.70326
G1 X190.42 Y134.18 E20.72886
G1 X190.806 Y134.845 E20.75443
G1 X191.051 Y135.373 E20.77379
G1 X191.339 Y136.169 E20.80195
G1 X191.521 Y136.917 E20.82755
G1 X191.625 Y137.679 E20.85313
G1 X191.65 Y138.291 E20.8735
G1 X191.65 Y138.709 E20.8874
G1 X191.61 Y139.477 E20.91298
G1 X191.491 Y140.237 E20.93857
G1 X191.293 Y140.98 E20.96414
G1 X191.081 Y141.555 E20.98453
G1 X190.718 Y142.321 E21.01272
G1 X190.316 Y142.976 E21.03828
G1 X189.848 Y143.586 E21.06385
G1 X189.453 Y144.014 E21.08322
G1 X189.014 Y144.453 E21.10387
G1 X188.442 Y144.967 E21.12945
G1 X187.82 Y145.42 E21.15504
G1 X187.155 Y145.806 E21.18062
