;FLAVOR:Marlin
;TIME:3377
;Filament used: 4.59286m
;Layer height: 0.3
;MINX:107.093
;MINY:62.608
;MINZ:0.2
;MAXX:185.907
;MAXY:148.281
;MAXZ:40.1
;Generated with Cura_SteamEngine 4.6.1
M104 S210
M105
M109 S210
M82 ;absolute extrusion mode
; -- START GCODE --
G21                     ;set units to millimetres
G90                     ;set to absolute positioning
M106 S0                 ;set fan speed to zero (turned off)
G28 X0 Y0               ;move to the X/Y origin (Home)
G28 Z0                  ;move to the Z origin (Home)
G1 Z15.0 F1200          ;move Z to position 15.0 mm
G92 E0                  ;zero the extruded length
G1 E20 F200             ;extrude 20mm of feed stock
G92 E0                  ;zero the extruded length again
G1 F7200                ;set feedrate to 120 mm/s
; -- end of START GCODE --
G92 E0
G92 E0
G1 F1500 E-6.5
;LAYER_COUNT:134
;LAYER:0
M107
G0 F3600 X130.2 Y70.993 Z0.2
;TYPE:SKIRT
G1 F1500 E0
G1 F1800 X130.554 Y70.374 E0.02372
G1 X130.872 Y69.888 E0.04303
G1 X131.356 Y69.205 E0.07088
G1 X131.701 Y68.749 E0.08989
G1 X132.097 Y68.28 E0.11031
G1 X132.661 Y67.663 E0.13811
G1 X133.057 Y67.257 E0.15698
G1 X133.497 Y66.849 E0.17693
G1 X134.133 Y66.304 E0.20479
G1 X134.568 Y65.953 E0.22338
G1 X135.057 Y65.6 E0.24344
G1 X135.754 Y65.136 E0.27129
G1 X136.265 Y64.82 E0.29128
G1 X136.774 Y64.541 E0.31058
G1 X137.524 Y64.166 E0.33847
G1 X138.072 Y63.915 E0.35852
G1 X138.596 Y63.707 E0.37727
G1 X139.386 Y63.426 E0.40516
G1 X139.958 Y63.244 E0.42512
G1 X140.523 Y63.097 E0.44454
G1 X141.342 Y62.916 E0.47244
G1 X141.89 Y62.812 E0.49099
G1 X142.503 Y62.729 E0.51156
G1 X143.334 Y62.65 E0.53933
G1 X143.861 Y62.615 E0.55689
G1 X144.579 Y62.608 E0.58078
G1 X145.632 Y62.647 E0.61582
G1 X146.536 Y62.734 E0.64603
G1 X147.363 Y62.862 E0.67386
G1 X147.806 Y62.94 E0.68882
G1 X148.514 Y63.106 E0.71301
G1 X149.318 Y63.334 E0.74081
G1 X149.701 Y63.45 E0.75412
G1 X150.471 Y63.733 E0.7814
G1 X151.441 Y64.149 E0.8165
G1 X152.295 Y64.579 E0.84831
G1 X153.206 Y65.11 E0.88338
G1 X154.006 Y65.645 E0.91539
G1 X154.847 Y66.286 E0.95056
G1 X155.567 Y66.908 E0.9822
G1 X156.321 Y67.644 E1.01725
G1 X156.964 Y68.354 E1.04911
G1 X157.623 Y69.178 E1.0842
G1 X158.172 Y69.958 E1.11593
G1 X158.726 Y70.857 E1.15105
G1 X159.176 Y71.697 E1.18274
G1 X159.614 Y72.652 E1.21769
G1 X159.963 Y73.56 E1.25004
G1 X160.28 Y74.566 E1.28512
G1 X160.507 Y75.471 E1.31616
G1 X160.702 Y76.51 E1.35132
G1 X160.822 Y77.474 E1.38363
G1 X160.886 Y78.524 E1.41862
G1 X160.886 Y79.465 E1.44991
G1 X160.823 Y80.518 E1.485
G1 X160.703 Y81.491 E1.51761
G1 X160.508 Y82.53 E1.55277
G1 X160.282 Y83.433 E1.58373
G1 X159.966 Y84.437 E1.61874
G1 X159.617 Y85.344 E1.65106
G1 X159.178 Y86.302 E1.68611
G1 X158.729 Y87.143 E1.71782
G1 X158.345 Y87.766 E1.74216
G1 X158.705 Y87.729 E1.75419
G1 X178.107 Y87.719 E2.39951
G1 X178.896 Y87.759 E2.42578
G1 X179.676 Y87.878 E2.45203
G1 X180.441 Y88.076 E2.47831
G1 X181.181 Y88.35 E2.50455
G1 X181.89 Y88.698 E2.53082
G1 X182.561 Y89.116 E2.55712
G1 X183.185 Y89.599 E2.58336
G1 X183.758 Y90.142 E2.60962
G1 X184.273 Y90.741 E2.63589
G1 X184.724 Y91.389 E2.66215
G1 X185.108 Y92.08 E2.68844
G1 X185.42 Y92.805 E2.7147
G1 X185.657 Y93.558 E2.74095
G1 X185.816 Y94.332 E2.76723
G1 X185.897 Y95.117 E2.79348
G1 X185.907 Y98.507 E2.90623
G1 X185.867 Y99.296 E2.93251
G1 X185.748 Y100.076 E2.95875
G1 X185.55 Y100.841 E2.98503
G1 X185.276 Y101.581 E3.01128
G1 X184.928 Y102.29 E3.03755
G1 X184.51 Y102.961 E3.06384
G1 X184.027 Y103.585 E3.09009
G1 X183.484 Y104.158 E3.11634
G1 X182.885 Y104.673 E3.14262
G1 X182.237 Y105.124 E3.16888
G1 X181.546 Y105.508 E3.19517
G1 X180.821 Y105.82 E3.22142
G1 X180.068 Y106.057 E3.24768
G1 X179.294 Y106.216 E3.27396
G1 X178.509 Y106.297 E3.30021
G1 X169.686 Y106.313 E3.59366
G1 X169.629 Y106.743 E3.60809
G1 X169.522 Y107.232 E3.62474
G1 X169.078 Y108.991 E3.68508
G1 X168.846 Y109.746 E3.71135
G1 X168.659 Y110.212 E3.72805
G1 X167.93 Y111.876 E3.78847
G1 X167.577 Y112.582 E3.81472
G1 X167.317 Y113.01 E3.83138
G1 X166.324 Y114.531 E3.8918
G1 X165.86 Y115.17 E3.91806
G1 X164.299 Y116.891 E3.99534
G1 X163.736 Y117.445 E4.02161
G1 X163.344 Y117.77 E4.03855
G1 X161.918 Y118.879 E4.09863
G1 X161.271 Y119.332 E4.1249
G1 X160.577 Y119.726 E4.15144
G1 X160.702 Y120.332 E4.17202
G1 X160.783 Y121.117 E4.19827
G1 X160.794 Y124.516 E4.31132
G1 X160.754 Y125.305 E4.3376
G1 X160.693 Y125.705 E4.35106
G1 X160.693 Y129.518 E4.47788
G1 X160.666 Y130.161 E4.49928
G1 X160.516 Y131.973 E4.55976
G1 X160.412 Y132.756 E4.58603
G1 X159.86 Y135.002 E4.66295
G1 X159.628 Y135.757 E4.68922
G1 X158.713 Y137.883 E4.76621
G1 X158.36 Y138.589 E4.79246
G1 X158.097 Y139.022 E4.80931
G1 X157.103 Y140.542 E4.86971
G1 X156.638 Y141.18 E4.89597
G1 X156.315 Y141.555 E4.91243
G1 X155.082 Y142.895 E4.973
G1 X154.518 Y143.448 E4.99927
G1 X154.133 Y143.768 E5.01592
G1 X152.702 Y144.882 E5.07624
G1 X152.056 Y145.335 E5.10248
G1 X151.619 Y145.589 E5.11929
G1 X150.018 Y146.454 E5.17982
G1 X149.305 Y146.794 E5.20609
G1 X148.845 Y146.969 E5.22246
G1 X147.131 Y147.558 E5.28274
G1 X146.372 Y147.776 E5.309
G1 X144.087 Y148.174 E5.38615
G1 X143.302 Y148.265 E5.41243
G1 X142.801 Y148.281 E5.4291
G1 X140.986 Y148.281 E5.48947
G1 X140.197 Y148.241 E5.51575
G1 X139.704 Y148.175 E5.53229
G1 X137.916 Y147.877 E5.59258
G1 X137.144 Y147.708 E5.61886
G1 X136.665 Y147.56 E5.63554
G1 X134.944 Y146.969 E5.69606
G1 X134.211 Y146.675 E5.72233
G1 X132.168 Y145.589 E5.79928
G1 X131.493 Y145.179 E5.82555
G1 X131.087 Y144.883 E5.84226
G1 X129.655 Y143.769 E5.90261
G1 X129.057 Y143.254 E5.92885
G1 X128.703 Y142.893 E5.94567
G1 X127.476 Y141.559 E6.00595
G1 X126.972 Y140.952 E6.03219
G1 X125.692 Y139.025 E6.10914
G1 X125.294 Y138.343 E6.1354
G1 X125.075 Y137.887 E6.15223
G1 X124.345 Y136.223 E6.21266
G1 X124.065 Y135.484 E6.23895
G1 X123.926 Y135.002 E6.25563
G1 X123.481 Y133.243 E6.31598
G1 X123.327 Y132.469 E6.34223
G1 X123.31 Y132.319 E6.34725
G1 X114.965 Y132.319 E6.6248
G1 X113.787 Y132.23 E6.6641
G1 X112.941 Y132.06 E6.6928
G1 X112.188 Y131.824 E6.71904
G1 X111.462 Y131.513 E6.74531
G1 X110.771 Y131.13 E6.77159
G1 X110.123 Y130.679 E6.79785
G1 X109.523 Y130.165 E6.82413
G1 X108.979 Y129.593 E6.85038
G1 X108.495 Y128.969 E6.87665
G1 X108.077 Y128.3 E6.90288
G1 X107.728 Y127.591 E6.92917
G1 X107.453 Y126.851 E6.95542
G1 X107.254 Y126.086 E6.98171
G1 X107.134 Y125.306 E7.00796
G1 X107.093 Y124.508 E7.03454
G1 X107.093 Y121.519 E7.13395
G1 X107.133 Y120.73 E7.16023
G1 X107.252 Y119.95 E7.18647
G1 X107.45 Y119.185 E7.21276
G1 X107.724 Y118.445 E7.239
G1 X108.072 Y117.736 E7.26527
G1 X108.49 Y117.065 E7.29156
G1 X108.973 Y116.441 E7.31781
G1 X109.516 Y115.868 E7.34407
G1 X110.115 Y115.353 E7.37034
G1 X110.763 Y114.902 E7.3966
G1 X111.454 Y114.518 E7.42289
G1 X112.179 Y114.206 E7.44914
G1 X112.932 Y113.969 E7.4754
G1 X113.706 Y113.81 E7.50168
G1 X114.491 Y113.729 E7.52793
G1 X133.893 Y113.719 E8.17324
G1 X134.682 Y113.759 E8.19952
G1 X135.462 Y113.878 E8.22576
G1 X134.908 Y113.028 E8.25951
G1 X134.51 Y112.346 E8.28577
G1 X134.294 Y111.894 E8.30243
G1 X133.564 Y110.231 E8.36284
G1 X133.283 Y109.493 E8.3891
G1 X132.699 Y107.254 E8.46606
G1 X132.544 Y106.48 E8.49232
G1 X132.336 Y104.175 E8.56929
G1 X132.309 Y103.53 E8.59077
G1 X132.307 Y99.747 E8.71659
G1 X132.224 Y99.036 E8.7404
G1 X132.207 Y98.522 E8.7575
G1 X132.206 Y95.537 E8.85678
G1 X132.246 Y94.748 E8.88306
G1 X132.365 Y93.967 E8.90934
G1 X132.563 Y93.203 E8.93559
G1 X132.836 Y92.462 E8.96185
G1 X133.184 Y91.753 E8.98812
G1 X133.537 Y91.185 E9.01036
G1 X132.858 Y90.54 E9.04151
G1 X132.139 Y89.766 E9.07665
G1 X131.537 Y89.032 E9.10822
G1 X130.92 Y88.18 E9.14321
G1 X130.402 Y87.362 E9.17541
G1 X129.893 Y86.436 E9.21056
G1 X129.487 Y85.578 E9.24213
G1 X129.095 Y84.599 E9.2772
G1 X128.795 Y83.693 E9.30895
G1 X128.526 Y82.675 E9.34397
G1 X128.338 Y81.732 E9.37595
G1 X128.196 Y80.687 E9.41103
G1 X128.126 Y79.733 E9.44284
G1 X128.113 Y78.68 E9.47787
G1 X128.159 Y77.728 E9.50957
G1 X128.275 Y76.677 E9.54474
G1 X128.439 Y75.73 E9.5767
G1 X128.682 Y74.707 E9.61167
G1 X128.958 Y73.796 E9.64333
G1 X129.325 Y72.807 E9.67842
G1 X129.714 Y71.93 E9.71033
G1 X130.2 Y70.993 E9.74544
G0 F3600 X130.555 Y71.177
G1 F1800 X130.897 Y70.581 E9.76829
G1 X131.198 Y70.119 E9.78663
G1 X131.682 Y69.436 E9.81447
G1 X132.016 Y68.995 E9.83287
G1 X132.392 Y68.55 E9.85225
G1 X132.956 Y67.933 E9.88005
G1 X133.339 Y67.539 E9.89833
G1 X133.757 Y67.153 E9.91725
G1 X134.393 Y66.608 E9.94511
G1 X134.815 Y66.268 E9.96313
G1 X135.278 Y65.933 E9.98214
G1 X135.975 Y65.469 E10.00999
G1 X136.47 Y65.164 E10.02933
G1 X136.953 Y64.899 E10.04765
G1 X137.703 Y64.524 E10.07554
G1 X138.233 Y64.281 E10.09494
G1 X138.73 Y64.084 E10.11272
G1 X139.52 Y63.803 E10.14061
G1 X140.073 Y63.627 E10.15991
G1 X140.609 Y63.487 E10.17833
G1 X141.428 Y63.306 E10.20623
G1 X141.959 Y63.206 E10.2242
G1 X142.541 Y63.127 E10.24374
G1 X143.372 Y63.048 E10.2715
G1 X143.883 Y63.014 E10.28853
G1 X144.564 Y63.008 E10.31118
G1 X145.617 Y63.047 E10.34623
G1 X146.475 Y63.129 E10.3749
G1 X147.302 Y63.257 E10.40273
G1 X147.733 Y63.334 E10.41729
G1 X148.405 Y63.491 E10.44025
G1 X149.209 Y63.719 E10.46804
G1 X149.583 Y63.832 E10.48104
G1 X150.314 Y64.101 E10.50694
G1 X151.284 Y64.517 E10.54205
G1 X152.093 Y64.925 E10.57218
G1 X153.004 Y65.456 E10.60726
G1 X153.764 Y65.964 E10.63766
G1 X154.605 Y66.605 E10.67283
G1 X155.288 Y67.195 E10.70285
G1 X156.042 Y67.931 E10.7379
G1 X156.652 Y68.604 E10.76811
G1 X157.311 Y69.428 E10.8032
G1 X157.832 Y70.168 E10.8333
G1 X158.386 Y71.067 E10.86842
G1 X158.812 Y71.864 E10.89848
G1 X159.25 Y72.819 E10.93342
G1 X159.582 Y73.68 E10.96412
G1 X159.899 Y74.686 E10.9992
G1 X160.114 Y75.545 E11.02865
G1 X160.309 Y76.584 E11.06381
G1 X160.422 Y77.499 E11.09447
G1 X160.486 Y78.549 E11.12946
G1 X160.487 Y79.441 E11.15913
G1 X160.424 Y80.494 E11.19422
G1 X160.31 Y81.417 E11.22515
G1 X160.115 Y82.456 E11.26031
G1 X159.901 Y83.313 E11.28969
G1 X159.585 Y84.317 E11.3247
G1 X159.253 Y85.178 E11.35539
G1 X158.814 Y86.136 E11.39044
G1 X158.388 Y86.933 E11.4205
G1 X157.835 Y87.831 E11.45557
G1 X157.508 Y88.295 E11.47445
G1 X158.258 Y88.168 E11.49975
G1 X159.107 Y88.119 E11.52804
G1 X178.107 Y88.119 E12.15998
G1 X178.875 Y88.159 E12.18556
G1 X179.635 Y88.278 E12.21114
G1 X180.378 Y88.476 E12.23672
G1 X181.097 Y88.75 E12.26231
G1 X181.783 Y89.097 E12.28788
G1 X182.43 Y89.513 E12.31346
G1 X183.03 Y89.994 E12.33904
G1 X183.577 Y90.535 E12.36463
G1 X184.065 Y91.13 E12.39022
G1 X184.488 Y91.772 E12.41579
G1 X184.843 Y92.455 E12.4414
G1 X185.124 Y93.17 E12.46695
G1 X185.33 Y93.912 E12.49256
G1 X185.458 Y94.67 E12.51813
G1 X185.507 Y95.519 E12.54641
G1 X185.507 Y98.507 E12.64579
G1 X185.467 Y99.275 E12.67137
G1 X185.348 Y100.035 E12.69696
G1 X185.15 Y100.778 E12.72253
G1 X184.876 Y101.497 E12.74812
G1 X184.529 Y102.183 E12.77369
G1 X184.113 Y102.83 E12.79928
G1 X183.632 Y103.43 E12.82485
G1 X183.091 Y103.977 E12.85044
G1 X182.496 Y104.465 E12.87604
G1 X181.854 Y104.888 E12.90161
G1 X181.171 Y105.243 E12.92721
G1 X180.456 Y105.524 E12.95276
G1 X179.714 Y105.73 E12.97838
G1 X178.956 Y105.858 E13.00394
G1 X178.113 Y105.907 E13.03203
G1 X169.335 Y105.914 E13.32399
G1 X169.232 Y106.69 E13.35002
G1 X168.69 Y108.893 E13.42548
G1 X168.463 Y109.628 E13.45107
G1 X167.564 Y111.715 E13.52665
G1 X167.219 Y112.403 E13.55224
G1 X165.989 Y114.312 E13.62778
G1 X165.536 Y114.934 E13.65337
G1 X164.005 Y116.62 E13.72912
G1 X163.455 Y117.159 E13.75473
G1 X161.673 Y118.563 E13.83018
G1 X161.042 Y119.003 E13.85577
G1 X160.108 Y119.524 E13.89134
G1 X160.216 Y119.912 E13.90474
G1 X160.344 Y120.67 E13.9303
G1 X160.393 Y121.517 E13.95852
G1 X160.394 Y124.517 E14.0583
G1 X160.354 Y125.285 E14.08388
G1 X160.293 Y125.675 E14.09701
G1 X160.293 Y129.518 E14.22483
G1 X160.268 Y130.128 E14.24514
G1 X160.118 Y131.94 E14.30561
G1 X160.015 Y132.703 E14.33122
G1 X159.472 Y134.904 E14.40662
G1 X159.245 Y135.639 E14.4322
G1 X158.347 Y137.722 E14.50765
G1 X158.002 Y138.41 E14.53325
G1 X156.768 Y140.323 E14.60896
G1 X156.314 Y140.944 E14.63455
G1 X154.787 Y142.624 E14.71006
G1 X154.238 Y143.162 E14.73562
G1 X152.457 Y144.566 E14.81105
G1 X151.826 Y145.007 E14.83666
G1 X149.828 Y146.103 E14.91245
G1 X149.133 Y146.432 E14.93803
G1 X147.001 Y147.179 E15.01316
G1 X146.261 Y147.391 E15.03877
G1 X144.021 Y147.78 E15.11438
G1 X143.257 Y147.867 E15.13996
G1 X140.986 Y147.881 E15.21549
G1 X140.218 Y147.841 E15.24107
G1 X137.981 Y147.482 E15.31643
G1 X137.23 Y147.317 E15.342
G1 X135.074 Y146.591 E15.41767
G1 X134.36 Y146.304 E15.44326
G1 X132.358 Y145.238 E15.5187
G1 X131.702 Y144.837 E15.54427
G1 X129.9 Y143.454 E15.61982
G1 X129.319 Y142.951 E15.64538
G1 X127.771 Y141.289 E15.72093
G1 X127.28 Y140.696 E15.74653
G1 X126.027 Y138.806 E15.82195
G1 X125.639 Y138.142 E15.84753
G1 X124.711 Y136.062 E15.92329
G1 X124.439 Y135.342 E15.94889
G1 X123.869 Y133.145 E16.02438
G1 X123.719 Y132.39 E16.04998
G1 X123.666 Y131.919 E16.06574
G1 X114.965 Y131.919 E16.35514
G1 X113.847 Y131.834 E16.39243
G1 X113.022 Y131.668 E16.42042
G1 X112.289 Y131.435 E16.446
G1 X111.584 Y131.127 E16.47159
G1 X110.915 Y130.748 E16.49717
G1 X110.289 Y130.301 E16.52275
G1 X109.712 Y129.792 E16.54834
G1 X109.192 Y129.226 E16.57391
G1 X108.733 Y128.608 E16.59951
G1 X108.341 Y127.947 E16.62507
G1 X108.019 Y127.248 E16.65067
G1 X107.772 Y126.52 E16.67624
G1 X107.601 Y125.77 E16.70182
G1 X107.51 Y125.006 E16.72741
G1 X107.493 Y124.508 E16.74398
G1 X107.493 Y121.519 E16.8434
G1 X107.533 Y120.751 E16.86898
G1 X107.652 Y119.991 E16.89456
G1 X107.85 Y119.248 E16.92014
G1 X108.124 Y118.529 E16.94573
G1 X108.471 Y117.843 E16.9713
G1 X108.887 Y117.196 E16.99688
G1 X109.368 Y116.596 E17.02246
G1 X109.909 Y116.049 E17.04805
G1 X110.504 Y115.561 E17.07364
G1 X111.146 Y115.138 E17.09921
G1 X111.829 Y114.783 E17.12482
G1 X112.544 Y114.502 E17.15037
G1 X113.286 Y114.296 E17.17598
G1 X114.044 Y114.168 E17.20155
G1 X114.893 Y114.119 E17.22983
G1 X133.893 Y114.119 E17.86178
G1 X134.661 Y114.159 E17.88735
G1 X135.421 Y114.278 E17.91294
G1 X136.164 Y114.476 E17.93851
G1 X136.403 Y114.567 E17.94702
G1 X135.243 Y112.809 E18.01707
G1 X134.856 Y112.144 E18.04266
G1 X133.93 Y110.07 E18.11821
G1 X133.658 Y109.351 E18.14378
G1 X133.087 Y107.156 E18.21921
G1 X132.937 Y106.401 E18.24481
G1 X132.735 Y104.142 E18.32025
G1 X132.709 Y103.53 E18.34062
G1 X132.707 Y99.688 E18.46841
G1 X132.675 Y99.516 E18.47423
G1 X132.607 Y98.521 E18.5074
G1 X132.606 Y95.536 E18.60668
G1 X132.646 Y94.768 E18.63226
G1 X132.765 Y94.008 E18.65784
G1 X132.962 Y93.265 E18.68341
G1 X133.236 Y92.546 E18.709
G1 X133.583 Y91.86 E18.73457
G1 X133.999 Y91.213 E18.76015
G1 X134.076 Y91.117 E18.76425
G1 X133.817 Y90.9 E18.77549
G1 X133.151 Y90.267 E18.80605
G1 X132.432 Y89.493 E18.84118
G1 X131.861 Y88.797 E18.87113
G1 X131.244 Y87.945 E18.90611
G1 X130.752 Y87.17 E18.93665
G1 X130.243 Y86.244 E18.97179
G1 X129.858 Y85.43 E19.00174
G1 X129.466 Y84.451 E19.03682
G1 X129.182 Y83.591 E19.06694
G1 X128.913 Y82.573 E19.10196
G1 X128.734 Y81.678 E19.13232
G1 X128.592 Y80.633 E19.16739
G1 X128.526 Y79.728 E19.19757
G1 X128.513 Y78.675 E19.2326
G1 X128.557 Y77.772 E19.26267
G1 X128.673 Y76.721 E19.29784
G1 X128.828 Y75.823 E19.32815
G1 X129.071 Y74.8 E19.36312
G1 X129.333 Y73.936 E19.39315
G1 X129.7 Y72.947 E19.42823
G1 X130.069 Y72.114 E19.45854
G1 X130.555 Y71.177 E19.49364
G0 F3600 X130.91 Y71.361
G1 F1800 X131.239 Y70.787 E19.51565
G1 X131.525 Y70.351 E19.53299
G1 X132.009 Y69.668 E19.56083
G1 X132.332 Y69.241 E19.57864
G1 X132.687 Y68.82 E19.59696
G1 X133.251 Y68.203 E19.62476
G1 X133.622 Y67.822 E19.64245
G1 X134.017 Y67.457 E19.66034
G1 X134.653 Y66.912 E19.68819
G1 X135.061 Y66.583 E19.70563
G1 X135.5 Y66.266 E19.72364
G1 X136.197 Y65.802 E19.75148
G1 X136.675 Y65.507 E19.77017
G1 X137.132 Y65.257 E19.78749
G1 X137.882 Y64.882 E19.81538
G1 X138.394 Y64.647 E19.83412
G1 X138.864 Y64.461 E19.85093
G1 X139.654 Y64.18 E19.87882
G1 X140.189 Y64.01 E19.89749
G1 X140.695 Y63.878 E19.91488
G1 X141.514 Y63.697 E19.94278
G1 X142.028 Y63.6 E19.96018
G1 X142.579 Y63.525 E19.97867
G1 X143.41 Y63.446 E20.00644
G1 X143.905 Y63.414 E20.02294
