;FLAVOR:Marlin
;TIME:6511
;Filament used: 10.7725m
;Layer height: 0.3
;MINX:73.2
;MINY:72.455
;MINZ:0.2
;MAXX:175.8
;MAXY:139.543
;MAXZ:42.8
;Generated with Cura_SteamEngine 4.6.1
M104 S210
M105
M109 S210
M82 ;absolute extrusion mode
; -- START GCODE --
G21                     ;set units to millimetres
G90                     ;set to absolute positioning
M106 S0                 ;set fan speed to zero (turned off)
G28 X0 Y0               ;move to the X/Y origin (Home)
G28 Z0                  ;move to the Z origin (Home)
G1 Z15.0 F1200          ;move Z to position 15.0 mm
G92 E0                  ;zero the extruded length
G1 E20 F200             ;extrude 20mm of feed stock
G92 E0                  ;zero the extruded length again
G1 F7200                ;set feedrate to 120 mm/s
; -- end of START GCODE --
G92 E0
G92 E0
G1 F1500 E-6.5
;LAYER_COUNT:143
;LAYER:0
M107
G0 F3600 X80.655 Y80.405 Z0.2
;TYPE:SKIRT
G1 F1500 E0
G1 F1800 X81.494 Y79.678 E0.03692
G1 X83.207 Y78.394 E0.10813
G1 X84.149 Y77.788 E0.14538
G1 X86.031 Y76.761 E0.21669
G1 X87.036 Y76.302 E0.25344
G1 X89.037 Y75.554 E0.32449
G1 X90.108 Y75.239 E0.36162
G1 X92.202 Y74.783 E0.4329
G1 X93.302 Y74.624 E0.46987
G1 X95.44 Y74.47 E0.54116
G1 X96 Y74.45 E0.5598
G1 X120 Y74.45 E1.35804
G1 X120.789 Y74.49 E1.38432
G1 X121.569 Y74.609 E1.41056
G1 X122.334 Y74.807 E1.43684
G1 X123.074 Y75.081 E1.46309
G1 X123.783 Y75.429 E1.48936
G1 X124.454 Y75.847 E1.51565
G1 X125.078 Y76.33 E1.5419
G1 X125.651 Y76.873 E1.56815
G1 X125.855 Y77.11 E1.57855
G1 X126.286 Y76.925 E1.59415
G1 X127.233 Y76.641 E1.62704
G1 X142.156 Y73.17 E2.13663
G1 X142.635 Y73.074 E2.15287
G1 X145.192 Y72.646 E2.2391
G1 X146.204 Y72.544 E2.27293
G1 X148.715 Y72.455 E2.3565
G1 X149.715 Y72.484 E2.38978
G1 X152.216 Y72.717 E2.47332
G1 X153.206 Y72.874 E2.50666
G1 X155.661 Y73.427 E2.59036
G1 X156.62 Y73.708 E2.6236
G1 X158.98 Y74.569 E2.70715
G1 X159.898 Y74.973 E2.74051
G1 X162.129 Y76.13 E2.8241
G1 X162.985 Y76.646 E2.85734
G1 X165.047 Y78.077 E2.94082
G1 X165.832 Y78.7 E2.97415
G1 X167.696 Y80.386 E3.05775
G1 X168.395 Y81.106 E3.09112
G1 X170.027 Y83.017 E3.17471
G1 X170.628 Y83.819 E3.20804
G1 X172.002 Y85.924 E3.29165
G1 X172.493 Y86.793 E3.32485
G1 X173.586 Y89.055 E3.4084
G1 X173.965 Y89.989 E3.44193
G1 X174.758 Y92.375 E3.52556
G1 X175.011 Y93.337 E3.55864
G1 X175.494 Y95.805 E3.64228
G1 X175.623 Y96.803 E3.67575
G1 X175.784 Y99.309 E3.75928
G1 X175.8 Y99.809 E3.77591
G1 X175.8 Y129.75 E4.77176
G1 X175.76 Y130.539 E4.79803
G1 X175.641 Y131.319 E4.82427
G1 X175.443 Y132.084 E4.85056
G1 X175.169 Y132.824 E4.8768
G1 X174.821 Y133.533 E4.90307
G1 X174.403 Y134.204 E4.92936
G1 X173.92 Y134.828 E4.95561
G1 X173.377 Y135.401 E4.98187
G1 X172.778 Y135.916 E5.00814
G1 X172.13 Y136.367 E5.0344
G1 X171.439 Y136.751 E5.06069
G1 X170.714 Y137.063 E5.08694
G1 X169.961 Y137.3 E5.1132
G1 X169.187 Y137.459 E5.13948
G1 X168.402 Y137.54 E5.16573
G1 X144 Y137.55 E5.97734
G1 X143.45 Y137.531 E5.99565
G1 X141.328 Y137.381 E6.0664
G1 X140.225 Y137.223 E6.10346
G1 X138.122 Y136.767 E6.17503
G1 X137.046 Y136.451 E6.21233
G1 X135.046 Y135.704 E6.28334
G1 X134.042 Y135.246 E6.32004
G1 X132.158 Y134.219 E6.39141
G1 X131.215 Y133.613 E6.42869
G1 X129.502 Y132.33 E6.49988
G1 X128.663 Y131.602 E6.53682
G1 X127.152 Y130.091 E6.6079
G1 X126.424 Y129.252 E6.64484
G1 X125.141 Y127.539 E6.71602
G1 X124.536 Y126.598 E6.75323
G1 X124.128 Y125.851 E6.78154
G1 X124.012 Y126.057 E6.78941
G1 X122.639 Y128.164 E6.87305
G1 X122.039 Y128.968 E6.90642
G1 X120.41 Y130.878 E6.98991
G1 X119.713 Y131.596 E7.02319
G1 X117.848 Y133.286 E7.1069
G1 X117.061 Y133.912 E7.14035
G1 X115 Y135.344 E7.22382
G1 X114.144 Y135.86 E7.25706
G1 X111.914 Y137.018 E7.34064
G1 X110.999 Y137.421 E7.37389
G1 X108.64 Y138.284 E7.45744
G1 X107.677 Y138.568 E7.49083
G1 X105.222 Y139.122 E7.57454
G1 X104.235 Y139.279 E7.60778
G1 X101.735 Y139.514 E7.6913
G1 X100.738 Y139.543 E7.72447
G1 X98.227 Y139.457 E7.80804
G1 X97.226 Y139.358 E7.84149
G1 X94.744 Y138.949 E7.92516
G1 X94.245 Y138.85 E7.94208
G1 X79.233 Y135.359 E8.4547
G1 X78.474 Y135.142 E8.48096
G1 X77.741 Y134.848 E8.50722
G1 X77.041 Y134.483 E8.53348
G1 X76.382 Y134.048 E8.55974
G1 X75.77 Y133.549 E8.58601
G1 X75.212 Y132.99 E8.61228
G1 X74.713 Y132.378 E8.63854
G1 X74.278 Y131.719 E8.66481
G1 X73.912 Y131.019 E8.69108
G1 X73.62 Y130.286 E8.71732
G1 X73.402 Y129.526 E8.74362
G1 X73.263 Y128.749 E8.76987
G1 X73.2 Y127.762 E8.80277
G1 X73.2 Y97.404 E9.81248
G1 X73.217 Y96.886 E9.82972
G1 X73.369 Y94.601 E9.90588
G1 X73.53 Y93.464 E9.94408
G1 X73.983 Y91.378 E10.01507
G1 X74.297 Y90.307 E10.0522
G1 X75.046 Y88.299 E10.12348
G1 X75.504 Y87.294 E10.16021
G1 X76.528 Y85.414 E10.23141
G1 X77.134 Y84.47 E10.26872
G1 X78.418 Y82.755 E10.33998
G1 X79.145 Y81.916 E10.3769
G1 X80.655 Y80.405 E10.44795
G0 F3600 X80.938 Y80.688
G1 F1800 X81.734 Y79.998 E10.48299
G1 X83.447 Y78.714 E10.55419
G1 X84.34 Y78.139 E10.58952
G1 X86.222 Y77.112 E10.66083
G1 X87.176 Y76.676 E10.69572
G1 X89.177 Y75.928 E10.76677
G1 X90.193 Y75.629 E10.80199
G1 X92.287 Y75.173 E10.87327
G1 X93.33 Y75.023 E10.90832
G1 X95.468 Y74.869 E10.97961
G1 X96 Y74.85 E10.99732
G1 X120 Y74.85 E11.79556
G1 X120.768 Y74.89 E11.82114
G1 X121.528 Y75.009 E11.84673
G1 X122.271 Y75.207 E11.8723
G1 X122.99 Y75.481 E11.89789
G1 X123.676 Y75.828 E11.92346
G1 X124.323 Y76.244 E11.94905
G1 X124.923 Y76.725 E11.97462
G1 X125.47 Y77.266 E12.00021
G1 X125.745 Y77.601 E12.01463
G1 X125.936 Y77.502 E12.02178
G1 X126.651 Y77.221 E12.04733
G1 X127.324 Y77.03 E12.0706
G1 X142.247 Y73.559 E12.58019
G1 X145.258 Y73.041 E12.68181
G1 X146.218 Y72.944 E12.7139
G1 X148.729 Y72.855 E12.79747
G1 X149.677 Y72.882 E12.82901
G1 X152.178 Y73.115 E12.91256
G1 X153.118 Y73.264 E12.94421
G1 X155.573 Y73.817 E13.02791
G1 X156.483 Y74.084 E13.05945
G1 X158.843 Y74.945 E13.14301
G1 X159.714 Y75.328 E13.17466
G1 X161.945 Y76.485 E13.25824
G1 X162.757 Y76.975 E13.28979
G1 X164.819 Y78.406 E13.37327
G1 X165.564 Y78.997 E13.4049
G1 X167.428 Y80.683 E13.48849
G1 X168.091 Y81.365 E13.52013
G1 X169.723 Y83.276 E13.60371
G1 X170.293 Y84.037 E13.63533
G1 X171.667 Y86.142 E13.71894
G1 X172.133 Y86.967 E13.75046
G1 X173.226 Y89.229 E13.83401
G1 X173.585 Y90.115 E13.86581
G1 X174.378 Y92.501 E13.94944
G1 X174.618 Y93.414 E13.98083
G1 X175.101 Y95.882 E14.06448
G1 X175.224 Y96.829 E14.09624
G1 X175.385 Y99.335 E14.17976
G1 X175.4 Y99.809 E14.19553
G1 X175.4 Y129.75 E15.19138
G1 X175.36 Y130.518 E15.21695
G1 X175.241 Y131.278 E15.24254
G1 X175.043 Y132.021 E15.26811
G1 X174.769 Y132.74 E15.29371
G1 X174.422 Y133.426 E15.31928
G1 X174.006 Y134.073 E15.34486
G1 X173.525 Y134.673 E15.37044
G1 X172.984 Y135.22 E15.39602
G1 X172.389 Y135.708 E15.42162
G1 X171.747 Y136.131 E15.44719
G1 X171.064 Y136.486 E15.47279
G1 X170.349 Y136.767 E15.49834
G1 X169.607 Y136.973 E15.52396
G1 X168.849 Y137.101 E15.54952
G1 X168 Y137.15 E15.57781
G1 X144 Y137.15 E16.37605
G1 X143.478 Y137.132 E16.39342
G1 X141.356 Y136.982 E16.46418
G1 X140.31 Y136.832 E16.49932
G1 X138.207 Y136.376 E16.5709
G1 X137.186 Y136.076 E16.60629
G1 X135.186 Y135.329 E16.6773
G1 X134.233 Y134.894 E16.71214
G1 X132.349 Y133.867 E16.78351
G1 X131.455 Y133.293 E16.81885
G1 X129.742 Y132.01 E16.89003
G1 X128.945 Y131.32 E16.92509
G1 X127.434 Y129.809 E16.99616
G1 X126.744 Y129.012 E17.03123
G1 X125.461 Y127.299 E17.10241
G1 X124.888 Y126.407 E17.13767
G1 X124.135 Y125.026 E17.18999
G1 X123.677 Y125.839 E17.22102
G1 X122.304 Y127.946 E17.30467
G1 X121.734 Y128.708 E17.33632
G1 X120.105 Y130.618 E17.41981
G1 X119.444 Y131.3 E17.4514
G1 X117.579 Y132.99 E17.53511
G1 X116.832 Y133.583 E17.56683
G1 X114.771 Y135.015 E17.65031
G1 X113.959 Y135.505 E17.68185
G1 X111.729 Y136.663 E17.76542
G1 X110.861 Y137.046 E17.79698
G1 X108.502 Y137.909 E17.88052
G1 X107.589 Y138.177 E17.91217
G1 X105.134 Y138.731 E17.99588
G1 X104.198 Y138.881 E18.02741
G1 X101.698 Y139.116 E18.11092
G1 X100.752 Y139.144 E18.1424
G1 X98.241 Y139.058 E18.22597
G1 X97.291 Y138.964 E18.25772
G1 X94.809 Y138.555 E18.34138
G1 X94.336 Y138.461 E18.35742
G1 X79.324 Y134.97 E18.87005
G1 X78.585 Y134.757 E18.89563
G1 X77.872 Y134.468 E18.92122
G1 X77.193 Y134.107 E18.94679
G1 X76.554 Y133.678 E18.97239
G1 X75.964 Y133.184 E18.99799
G1 X75.429 Y132.632 E19.02355
G1 X74.953 Y132.028 E19.04913
G1 X74.543 Y131.377 E19.07472
G1 X74.203 Y130.687 E19.1003
G1 X73.936 Y129.966 E19.12588
G1 X73.745 Y129.221 E19.15146
G1 X73.633 Y128.46 E19.17704
G1 X73.6 Y127.762 E19.20028
G1 X73.6 Y97.404 E20.20999
G1 X73.616 Y96.913 E20.22633
G1 X73.768 Y94.628 E20.3025
G1 X73.921 Y93.549 E20.33875
G1 X74.374 Y91.463 E20.40974
G1 X74.672 Y90.447 E20.44496
G1 X75.421 Y88.439 E20.51624
G1 X75.855 Y87.485 E20.5511
G1 X76.879 Y85.605 E20.6223
G1 X77.454 Y84.71 E20.65769
G1 X78.738 Y82.995 E20.72894
G1 X79.428 Y82.199 E20.76398
G1 X80.938 Y80.688 E20.83503
G0 F3600 X81.221 Y80.971
G1 F1800 X81.974 Y80.318 E20.86818
G1 X83.687 Y79.034 E20.93938
G1 X84.532 Y78.49 E20.97281
G1 X86.414 Y77.463 E21.04412
G1 X87.316 Y77.051 E21.0771
G1 X89.317 Y76.303 E21.14815
G1 X90.279 Y76.02 E21.1815
G1 X92.373 Y75.564 E21.25278
G1 X93.359 Y75.422 E21.28591
G1 X95.497 Y75.268 E21.35721
G1 X96 Y75.25 E21.37395
G1 X120 Y75.25 E22.17219
G1 X120.747 Y75.29 E22.19707
G1 X121.485 Y75.409 E22.22194
G1 X122.207 Y75.607 E22.24684
G1 X122.903 Y75.88 E22.2717
G1 X123.566 Y76.227 E22.29659
G1 X124.189 Y76.642 E22.32149
G1 X124.763 Y77.121 E22.34635
G1 X125.284 Y77.658 E22.37124
G1 X125.63 Y78.103 E22.38999
G1 X126.308 Y77.776 E22.41502
G1 X127.013 Y77.526 E22.4399
G1 X142.337 Y73.949 E22.96328
G1 X145.324 Y73.435 E23.06409
G1 X146.232 Y73.343 E23.09445
G1 X148.743 Y73.254 E23.17801
G1 X149.64 Y73.28 E23.20786
G1 X152.141 Y73.513 E23.29141
G1 X153.03 Y73.654 E23.32134
G1 X155.485 Y74.207 E23.40504
G1 X156.346 Y74.46 E23.43489
G1 X158.706 Y75.321 E23.51845
G1 X159.53 Y75.683 E23.54838
G1 X161.761 Y76.84 E23.63197
G1 X162.529 Y77.303 E23.66179
G1 X164.591 Y78.734 E23.74527
G1 X165.296 Y79.294 E23.77522
G1 X167.16 Y80.98 E23.85882
G1 X167.787 Y81.625 E23.88873
G1 X169.419 Y83.536 E23.97232
G1 X169.958 Y84.256 E24.00223
G1 X171.332 Y86.361 E24.08584
G1 X171.773 Y87.141 E24.11564
G1 X172.866 Y89.403 E24.1992
G1 X173.206 Y90.241 E24.22928
G1 X173.999 Y92.627 E24.3129
G1 X174.226 Y93.491 E24.34262
G1 X174.709 Y95.959 E24.42626
G1 X174.825 Y96.854 E24.45628
G1 X174.986 Y99.36 E24.5398
G1 X175 Y99.809 E24.55474
G1 X175 Y129.75 E25.55058
G1 X174.96 Y130.497 E25.57546
G1 X174.841 Y131.235 E25.60032
G1 X174.643 Y131.957 E25.62523
G1 X174.37 Y132.653 E25.65009
G1 X174.023 Y133.316 E25.67498
G1 X173.608 Y133.939 E25.69988
G1 X173.129 Y134.513 E25.72474
G1 X172.592 Y135.034 E25.74963
G1 X172.002 Y135.493 E25.77449
G1 X171.366 Y135.888 E25.79939
G1 X170.692 Y136.212 E25.82427
G1 X169.987 Y136.462 E25.84914
G1 X169.259 Y136.636 E25.87404
G1 X168.517 Y136.731 E25.89892
G1 X168 Y136.75 E25.91613
G1 X144 Y136.75 E26.71437
G1 X143.506 Y136.733 E26.73081
G1 X141.384 Y136.583 E26.80157
G1 X140.395 Y136.441 E26.8348
G1 X138.292 Y135.985 E26.90637
G1 X137.326 Y135.702 E26.93985
G1 X135.326 Y134.955 E27.01086
G1 X134.425 Y134.543 E27.04381
G1 X132.541 Y133.516 E27.11518
G1 X131.695 Y132.973 E27.14861
G1 X129.982 Y131.69 E27.21979
G1 X129.228 Y131.037 E27.25297
G1 X127.717 Y129.526 E27.32404
G1 X127.064 Y128.772 E27.35722
G1 X125.781 Y127.059 E27.4284
G1 X125.239 Y126.215 E27.46176
G1 X124.213 Y124.334 E27.53303
G1 X124.122 Y124.135 E27.54031
G1 X123.782 Y124.84 E27.56634
G1 X123.342 Y125.621 E27.59615
G1 X121.969 Y127.728 E27.6798
G1 X121.43 Y128.448 E27.70971
G1 X119.801 Y130.358 E27.79321
G1 X119.175 Y131.003 E27.8231
G1 X117.31 Y132.693 E27.90681
G1 X116.604 Y133.255 E27.93682
G1 X114.543 Y134.687 E28.0203
G1 X113.775 Y135.15 E28.05012
G1 X111.545 Y136.308 E28.1337
G1 X110.724 Y136.67 E28.16354
G1 X108.365 Y137.533 E28.24709
G1 X107.501 Y137.787 E28.27704
G1 X105.046 Y138.341 E28.36075
G1 X104.16 Y138.482 E28.39058
G1 X101.66 Y138.717 E28.4741
G1 X100.765 Y138.744 E28.50388
G1 X98.254 Y138.658 E28.58745
G1 X97.356 Y138.569 E28.61746
G1 X94.874 Y138.16 E28.70113
G1 X94.426 Y138.071 E28.71632
G1 X79.414 Y134.58 E29.22894
G1 X78.696 Y134.372 E29.25381
G1 X78.004 Y134.088 E29.27868
G1 X77.346 Y133.732 E29.30357
G1 X76.729 Y133.308 E29.32847
G1 X76.162 Y132.821 E29.35333
G1 X75.65 Y132.276 E29.3782
G1 X75.199 Y131.679 E29.40308
G1 X74.814 Y131.038 E29.42795
G1 X74.499 Y130.359 E29.45285
G1 X74.259 Y129.65 E29.47774
G1 X74.096 Y128.92 E29.50262
G1 X74.012 Y128.177 E29.52749
G1 X74 Y97.404 E30.55101
G1 X74.015 Y96.939 E30.56648
G1 X74.167 Y94.654 E30.64265
G1 X74.311 Y93.633 E30.67694
G1 X74.764 Y91.547 E30.74794
G1 X75.046 Y90.587 E30.78122
G1 X75.795 Y88.579 E30.8525
G1 X76.207 Y87.677 E30.88548
G1 X77.231 Y85.797 E30.95668
G1 X77.774 Y84.95 E30.99015
G1 X79.058 Y83.235 E31.0614
G1 X79.711 Y82.482 E31.09456
G1 X81.221 Y80.971 E31.1656
G0 F3600 X81.504 Y81.254
G1 F1800 X82.213 Y80.638 E31.19684
G1 X83.926 Y79.354 E31.26805
G1 X84.723 Y78.841 E31.29957
G1 X86.605 Y77.814 E31.37088
G1 X87.456 Y77.426 E31.40199
G1 X89.457 Y76.678 E31.47304
G1 X90.364 Y76.411 E31.50449
G1 X92.458 Y75.955 E31.57577
G1 X93.388 Y75.821 E31.60702
G1 X95.526 Y75.667 E31.67831
G1 X96 Y75.65 E31.69409
G1 X120 Y75.65 E32.49233
G1 X120.725 Y75.69 E32.51648
G1 X121.442 Y75.809 E32.54065
G1 X122.141 Y76.007 E32.56482
G1 X122.814 Y76.28 E32.58897
G1 X123.453 Y76.625 E32.61313
G1 X124.05 Y77.039 E32.63729
G1 X124.598 Y77.515 E32.66143
G1 X125.091 Y78.049 E32.6856
G1 X125.521 Y78.634 E32.70975
G1 X126.013 Y78.353 E32.7286
G1 X126.677 Y78.06 E32.75274
G1 X127.505 Y77.81 E32.7815
G1 X142.428 Y74.339 E33.29109
G1 X145.39 Y73.83 E33.39105
G1 X146.246 Y73.743 E33.41967
G1 X148.757 Y73.654 E33.50324
G1 X149.603 Y73.678 E33.53139
G1 X152.104 Y73.911 E33.61493
G1 X152.942 Y74.044 E33.64315
G1 X155.397 Y74.597 E33.72685
G1 X156.209 Y74.836 E33.75501
G1 X158.569 Y75.697 E33.83856
G1 X159.345 Y76.038 E33.86675
G1 X161.576 Y77.195 E33.95034
G1 X162.301 Y77.632 E33.9785
G1 X164.363 Y79.063 E34.06198
G1 X165.027 Y79.59 E34.09017
G1 X166.891 Y81.276 E34.17377
G1 X167.483 Y81.885 E34.20202
G1 X169.115 Y83.796 E34.2856
G1 X169.623 Y84.474 E34.31378
G1 X170.997 Y86.579 E34.39739
G1 X171.413 Y87.316 E34.42553
G1 X172.506 Y89.578 E34.50909
G1 X172.826 Y90.367 E34.53741
G1 X173.619 Y92.753 E34.62104
G1 X173.833 Y93.567 E34.64903
G1 X174.316 Y96.035 E34.73267
G1 X174.425 Y96.88 E34.76101
G1 X174.586 Y99.386 E34.84453
G1 X174.6 Y99.809 E34.85861
G1 X174.6 Y129.75 E35.85445
G1 X174.56 Y130.475 E35.8786
G1 X174.441 Y131.192 E35.90277
G1 X174.243 Y131.891 E35.92694
G1 X173.97 Y132.564 E35.95109
G1 X173.625 Y133.203 E35.97525
G1 X173.211 Y133.8 E35.99941
G1 X172.735 Y134.348 E36.02355
G1 X172.201 Y134.841 E36.04773
G1 X171.616 Y135.271 E36.07187
G1 X170.987 Y135.635 E36.09604
G1 X170.322 Y135.928 E36.12021
G1 X169.629 Y136.146 E36.14438
G1 X168.917 Y136.286 E36.16851
G1 X168 Y136.35 E36.19909
G1 X144 Y136.35 E36.99733
G1 X143.535 Y136.334 E37.0128
G1 X141.413 Y136.184 E37.08356
G1 X140.479 Y136.05 E37.11494
G1 X138.376 Y135.594 E37.18651
G1 X137.466 Y135.327 E37.21806
G1 X135.466 Y134.58 E37.28906
G1 X134.616 Y134.192 E37.32014
G1 X132.732 Y133.165 E37.39151
G1 X131.934 Y132.653 E37.42304
G1 X130.221 Y131.37 E37.49423
G1 X129.511 Y130.754 E37.52549
G1 X128 Y129.243 E37.59656
G1 X127.384 Y128.533 E37.62783
G1 X126.101 Y126.82 E37.69901
G1 X125.59 Y126.023 E37.7305
G1 X124.564 Y124.142 E37.80176
G1 X124.175 Y123.29 E37.83291
G1 X124.136 Y123.186 E37.83661
G1 X123.422 Y124.666 E37.89126
G1 X123.007 Y125.402 E37.91937
G1 X121.634 Y127.509 E38.00301
G1 X121.126 Y128.189 E38.03124
G1 X119.497 Y130.099 E38.11474
G1 X118.907 Y130.707 E38.14291
G1 X117.042 Y132.397 E38.22662
G1 X116.376 Y132.926 E38.25491
G1 X114.315 Y134.358 E38.33838
G1 X113.591 Y134.795 E38.36651
G1 X111.361 Y135.953 E38.45008
G1 X110.587 Y136.294 E38.47822
G1 X108.228 Y137.157 E38.56176
G1 X107.413 Y137.397 E38.59002
G1 X104.958 Y137.951 E38.67373
G1 X104.123 Y138.084 E38.70185
G1 X101.623 Y138.319 E38.78537
G1 X100.779 Y138.344 E38.81345
G1 X98.268 Y138.258 E38.89701
