;FLAVOR:Marlin
;TIME:23953
;Filament used: 17.5612m
;Layer height: 0.2
;MINX:82.7
;MINY:37.2
;MINZ:0.2
;MAXX:214.3
;MAXY:172.8
;MAXZ:78
;Generated with Cura_SteamEngine 4.9.1
M104 S210
M105
M109 S210
M82 ;absolute extrusion mode
; -- START GCODE --
G21                     ;set units to millimetres
G90                     ;set to absolute positioning
M106 S0                 ;set fan speed to zero (turned off)
G28 X0 Y0               ;move to the X/Y origin (Home)
G28 Z0                  ;move to the Z origin (Home)
G1 Z15.0 F1200          ;move Z to position 15.0 mm
G92 E0                  ;zero the extruded length
G1 E20 F200             ;extrude 20mm of feed stock
G92 E0                  ;zero the extruded length again
G1 F7200                ;set feedrate to 120 mm/s
; -- end of START GCODE --
G92 E0
G92 E0
G1 F1500 E-6.5
;LAYER_COUNT:390
;LAYER:0
M107
G0 F3600 X83.679 Y41.334 Z0.2
;TYPE:SKIRT
G1 F1500 E0
G1 F1200 X84.097 Y40.663 E0.02629
G1 X84.58 Y40.039 E0.05254
G1 X84.985 Y39.602 E0.07236
G1 X85.102 Y39.485 E0.07786
G1 X85.688 Y38.955 E0.10414
G1 X86.324 Y38.488 E0.13038
G1 X87.004 Y38.087 E0.15664
G1 X87.722 Y37.757 E0.18292
G1 X88.469 Y37.502 E0.20917
G1 X89.238 Y37.323 E0.23544
G1 X90.022 Y37.223 E0.26172
G1 X90.617 Y37.2 E0.28153
G1 X206.383 Y37.2 E4.13192
G1 X207.172 Y37.24 E4.1582
G1 X207.952 Y37.359 E4.18444
G1 X208.717 Y37.557 E4.21072
G1 X209.457 Y37.831 E4.23697
G1 X210.166 Y38.179 E4.26324
G1 X210.837 Y38.597 E4.28953
G1 X211.461 Y39.08 E4.31577
G1 X211.898 Y39.485 E4.33559
G1 X212.015 Y39.602 E4.34109
G1 X212.545 Y40.188 E4.36737
G1 X213.012 Y40.824 E4.39362
G1 X213.413 Y41.504 E4.41987
G1 X213.743 Y42.222 E4.44616
G1 X213.998 Y42.969 E4.47241
G1 X214.177 Y43.738 E4.49867
G1 X214.277 Y44.522 E4.52496
G1 X214.3 Y45.117 E4.54476
G1 X214.3 Y164.883 E8.5282
G1 X214.26 Y165.672 E8.55447
G1 X214.141 Y166.452 E8.58071
G1 X213.943 Y167.217 E8.607
G1 X213.669 Y167.957 E8.63324
G1 X213.321 Y168.666 E8.65951
G1 X212.903 Y169.337 E8.68581
G1 X212.42 Y169.961 E8.71205
G1 X212.015 Y170.398 E8.73187
G1 X211.898 Y170.515 E8.73737
G1 X211.312 Y171.045 E8.76365
G1 X210.676 Y171.512 E8.78989
G1 X209.996 Y171.913 E8.81615
G1 X209.278 Y172.243 E8.84243
G1 X208.531 Y172.498 E8.86869
G1 X207.762 Y172.677 E8.89495
G1 X206.978 Y172.777 E8.92123
G1 X206.383 Y172.8 E8.94104
G1 X90.617 Y172.8 E12.79143
G1 X89.828 Y172.76 E12.81771
G1 X89.048 Y172.641 E12.84395
G1 X88.283 Y172.443 E12.87023
G1 X87.543 Y172.169 E12.89648
G1 X86.834 Y171.821 E12.92275
G1 X86.163 Y171.403 E12.94904
G1 X85.539 Y170.92 E12.97529
G1 X85.102 Y170.515 E12.9951
G1 X84.985 Y170.398 E13.00061
G1 X84.455 Y169.812 E13.02689
G1 X83.988 Y169.176 E13.05313
G1 X83.587 Y168.496 E13.07939
G1 X83.257 Y167.778 E13.10567
G1 X83.002 Y167.031 E13.13192
G1 X82.823 Y166.262 E13.15818
G1 X82.723 Y165.478 E13.18447
G1 X82.7 Y164.883 E13.20427
G1 X82.7 Y45.117 E17.18771
G1 X82.74 Y44.328 E17.21398
G1 X82.859 Y43.548 E17.24023
G1 X83.057 Y42.783 E17.26651
G1 X83.331 Y42.043 E17.29275
G1 X83.679 Y41.334 E17.31902
G0 F3600 X84.078 Y41.441
G1 F1200 X84.494 Y40.794 E17.34461
G1 X84.975 Y40.194 E17.37018
G1 X85.384 Y39.767 E17.38985
G1 X85.956 Y39.253 E17.41543
G1 X86.578 Y38.8 E17.44102
G1 X87.243 Y38.414 E17.46659
G1 X87.945 Y38.099 E17.49219
G1 X88.676 Y37.859 E17.51778
G1 X89.427 Y37.696 E17.54334
G1 X90.192 Y37.612 E17.56893
G1 X90.617 Y37.6 E17.58307
G1 X206.383 Y37.6 E21.43347
G1 X207.151 Y37.64 E21.45905
G1 X207.911 Y37.759 E21.48463
G1 X208.654 Y37.957 E21.51021
G1 X209.373 Y38.231 E21.5358
G1 X210.059 Y38.578 E21.56137
G1 X210.706 Y38.994 E21.58695
G1 X211.306 Y39.475 E21.61253
G1 X211.733 Y39.884 E21.63219
G1 X212.247 Y40.456 E21.65777
G1 X212.7 Y41.078 E21.68336
G1 X213.086 Y41.743 E21.70894
G1 X213.401 Y42.445 E21.73453
G1 X213.641 Y43.176 E21.76012
G1 X213.804 Y43.927 E21.78568
G1 X213.888 Y44.692 E21.81128
G1 X213.9 Y45.117 E21.82542
G1 X213.9 Y164.883 E25.80885
G1 X213.86 Y165.651 E25.83443
G1 X213.741 Y166.411 E25.86001
G1 X213.543 Y167.154 E25.88559
G1 X213.269 Y167.873 E25.91118
G1 X212.922 Y168.559 E25.93675
G1 X212.506 Y169.206 E25.96233
G1 X212.025 Y169.806 E25.98791
G1 X211.616 Y170.233 E26.00758
G1 X211.044 Y170.747 E26.03315
G1 X210.422 Y171.2 E26.05875
G1 X209.757 Y171.586 E26.08432
G1 X209.055 Y171.901 E26.10991
G1 X208.324 Y172.141 E26.1355
G1 X207.573 Y172.304 E26.16106
G1 X206.808 Y172.388 E26.18666
G1 X206.383 Y172.4 E26.2008
G1 X90.617 Y172.4 E30.05119
G1 X89.849 Y172.36 E30.07677
G1 X89.089 Y172.241 E30.10236
G1 X88.346 Y172.043 E30.12793
G1 X87.627 Y171.769 E30.15352
G1 X86.941 Y171.422 E30.17909
G1 X86.294 Y171.006 E30.20468
G1 X85.694 Y170.525 E30.23025
G1 X85.267 Y170.116 E30.24992
G1 X84.753 Y169.544 E30.2755
G1 X84.3 Y168.922 E30.30109
G1 X83.914 Y168.257 E30.32666
G1 X83.599 Y167.555 E30.35226
G1 X83.359 Y166.824 E30.37785
G1 X83.196 Y166.073 E30.40341
G1 X83.112 Y165.308 E30.429
G1 X83.1 Y164.883 E30.44314
G1 X83.1 Y45.117 E34.42658
G1 X83.14 Y44.349 E34.45216
G1 X83.259 Y43.589 E34.47774
G1 X83.457 Y42.846 E34.50332
G1 X83.731 Y42.127 E34.52891
G1 X84.078 Y41.441 E34.55448
G0 F3600 X84.477 Y41.551
G1 F1200 X84.892 Y40.928 E34.57937
G1 X85.55 Y40.167 E34.61284
G1 X85.667 Y40.05 E34.61834
G1 X86.224 Y39.55 E34.64323
G1 X86.83 Y39.113 E34.66808
G1 X87.48 Y38.742 E34.69298
G1 X88.166 Y38.443 E34.71787
G1 X88.88 Y38.219 E34.74275
G1 X89.613 Y38.072 E34.76762
G1 X90.617 Y38 E34.8011
G1 X206.383 Y38 E38.65149
G1 X207.13 Y38.04 E38.67637
G1 X207.868 Y38.159 E38.70124
G1 X208.59 Y38.357 E38.72614
G1 X209.286 Y38.63 E38.751
G1 X209.949 Y38.977 E38.77589
G1 X210.572 Y39.392 E38.80079
G1 X211.333 Y40.05 E38.83425
G1 X211.45 Y40.167 E38.83975
G1 X211.95 Y40.724 E38.86465
G1 X212.387 Y41.33 E38.8895
G1 X212.758 Y41.98 E38.91439
G1 X213.057 Y42.666 E38.93928
G1 X213.281 Y43.38 E38.96417
G1 X213.428 Y44.113 E38.98903
G1 X213.5 Y45.117 E39.02251
G1 X213.5 Y164.883 E43.00595
G1 X213.46 Y165.63 E43.03083
G1 X213.341 Y166.368 E43.05569
G1 X213.143 Y167.09 E43.08059
G1 X212.87 Y167.786 E43.10546
G1 X212.523 Y168.449 E43.13035
G1 X212.108 Y169.072 E43.15524
G1 X211.45 Y169.833 E43.1887
G1 X211.333 Y169.95 E43.19421
G1 X210.776 Y170.45 E43.2191
G1 X210.17 Y170.887 E43.24395
G1 X209.52 Y171.258 E43.26884
G1 X208.834 Y171.557 E43.29373
G1 X208.12 Y171.781 E43.31862
G1 X207.387 Y171.928 E43.34349
G1 X206.383 Y172 E43.37697
G1 X90.617 Y172 E47.22736
G1 X89.87 Y171.96 E47.25224
G1 X89.132 Y171.841 E47.2771
G1 X88.41 Y171.643 E47.302
G1 X87.714 Y171.37 E47.32687
G1 X87.051 Y171.023 E47.35176
G1 X86.428 Y170.608 E47.37666
G1 X85.667 Y169.95 E47.41012
G1 X85.55 Y169.833 E47.41562
G1 X85.05 Y169.276 E47.44052
G1 X84.613 Y168.67 E47.46537
G1 X84.242 Y168.02 E47.49026
G1 X83.943 Y167.334 E47.51515
G1 X83.719 Y166.62 E47.54004
G1 X83.572 Y165.887 E47.5649
G1 X83.5 Y164.883 E47.59838
G1 X83.5 Y45.117 E51.58181
G1 X83.54 Y44.37 E51.60669
G1 X83.659 Y43.632 E51.63156
G1 X83.857 Y42.91 E51.65646
G1 X84.13 Y42.214 E51.68132
G1 X84.477 Y41.551 E51.70621
G0 F3600 X84.875 Y41.664
G1 F1200 X85.289 Y41.067 E51.73038
G1 X85.833 Y40.45 E51.75774
G1 X85.95 Y40.333 E51.76324
G1 X86.491 Y39.849 E51.78738
G1 X87.082 Y39.426 E51.81156
G1 X87.716 Y39.072 E51.83571
G1 X88.385 Y38.789 E51.85987
G1 X89.081 Y38.581 E51.88403
G1 X89.796 Y38.451 E51.9082
G1 X90.617 Y38.4 E51.93556
G1 X206.383 Y38.4 E55.78595
G1 X207.108 Y38.44 E55.8101
G1 X207.825 Y38.559 E55.83427
G1 X208.524 Y38.757 E55.85844
G1 X209.197 Y39.03 E55.88259
G1 X209.836 Y39.375 E55.90675
G1 X210.433 Y39.789 E55.93091
G1 X211.05 Y40.333 E55.95827
G1 X211.167 Y40.45 E55.96377
G1 X211.651 Y40.991 E55.98792
G1 X212.074 Y41.582 E56.01209
G1 X212.428 Y42.216 E56.03624
G1 X212.711 Y42.885 E56.0604
G1 X212.919 Y43.581 E56.08456
G1 X213.049 Y44.296 E56.10873
G1 X213.1 Y45.117 E56.13609
G1 X213.1 Y164.883 E60.11952
G1 X213.06 Y165.608 E60.14367
G1 X212.941 Y166.325 E60.16785
G1 X212.743 Y167.024 E60.19201
G1 X212.47 Y167.697 E60.21617
G1 X212.125 Y168.336 E60.24032
G1 X211.711 Y168.933 E60.26448
G1 X211.167 Y169.55 E60.29184
G1 X211.05 Y169.667 E60.29735
G1 X210.509 Y170.151 E60.32149
G1 X209.918 Y170.574 E60.34566
G1 X209.284 Y170.928 E60.36981
G1 X208.615 Y171.211 E60.39397
G1 X207.919 Y171.419 E60.41814
G1 X207.204 Y171.549 E60.44231
G1 X206.383 Y171.6 E60.46967
G1 X90.617 Y171.6 E64.32006
G1 X89.892 Y171.56 E64.34421
G1 X89.175 Y171.441 E64.36838
G1 X88.476 Y171.243 E64.39255
G1 X87.803 Y170.97 E64.4167
G1 X87.164 Y170.625 E64.44085
G1 X86.567 Y170.211 E64.46502
G1 X85.95 Y169.667 E64.49238
G1 X85.833 Y169.55 E64.49788
G1 X85.349 Y169.009 E64.52202
G1 X84.926 Y168.418 E64.5462
G1 X84.572 Y167.784 E64.57035
G1 X84.289 Y167.115 E64.59451
G1 X84.081 Y166.419 E64.61867
G1 X83.951 Y165.704 E64.64284
G1 X83.9 Y164.883 E64.6702
G1 X83.9 Y45.117 E68.65363
G1 X83.94 Y44.392 E68.67778
G1 X84.059 Y43.675 E68.70196
G1 X84.257 Y42.976 E68.72612
G1 X84.53 Y42.303 E68.75028
G1 X84.875 Y41.664 E68.77443
G0 F3600 X84.929 Y42.396
G1 F1200 X85.274 Y41.782 E68.79785
G1 X85.685 Y41.211 E68.82125
G1 X86.116 Y40.733 E68.84266
G1 X86.233 Y40.616 E68.84816
G1 X86.758 Y40.147 E68.87158
G1 X87.333 Y39.741 E68.89499
G1 X87.951 Y39.403 E68.91842
G1 X88.602 Y39.136 E68.94182
G1 X89.28 Y38.946 E68.96524
G1 X89.975 Y38.833 E68.98866
G1 X90.617 Y38.8 E69.01004
G1 X206.383 Y38.8 E72.86043
G1 X207.086 Y38.84 E72.88385
G1 X207.78 Y38.959 E72.90727
G1 X208.455 Y39.157 E72.93067
G1 X209.104 Y39.429 E72.95407
G1 X209.718 Y39.774 E72.9775
G1 X210.289 Y40.185 E73.0009
G1 X210.767 Y40.616 E73.0223
G1 X210.884 Y40.733 E73.02781
G1 X211.353 Y41.258 E73.05122
G1 X211.759 Y41.833 E73.07463
G1 X212.097 Y42.451 E73.09806
G1 X212.364 Y43.102 E73.12146
G1 X212.554 Y43.78 E73.14488
G1 X212.667 Y44.475 E73.1683
G1 X212.7 Y45.117 E73.18968
G1 X212.7 Y164.883 E77.17312
G1 X212.66 Y165.586 E77.19654
G1 X212.541 Y166.28 E77.21996
G1 X212.343 Y166.955 E77.24335
G1 X212.071 Y167.604 E77.26676
G1 X211.726 Y168.218 E77.29018
G1 X211.315 Y168.789 E77.31358
G1 X210.884 Y169.267 E77.33499
G1 X210.767 Y169.384 E77.34049
G1 X210.242 Y169.853 E77.36391
G1 X209.667 Y170.259 E77.38732
G1 X209.049 Y170.597 E77.41075
G1 X208.398 Y170.864 E77.43415
G1 X207.72 Y171.054 E77.45757
G1 X207.025 Y171.167 E77.48099
G1 X206.383 Y171.2 E77.50237
G1 X90.617 Y171.2 E81.35276
G1 X89.914 Y171.16 E81.37618
G1 X89.22 Y171.041 E81.3996
G1 X88.545 Y170.843 E81.423
G1 X87.896 Y170.571 E81.4464
G1 X87.282 Y170.226 E81.46983
G1 X86.711 Y169.815 E81.49323
G1 X86.233 Y169.384 E81.51463
G1 X86.116 Y169.267 E81.52014
G1 X85.647 Y168.742 E81.54355
G1 X85.241 Y168.167 E81.56696
G1 X84.903 Y167.549 E81.59039
G1 X84.636 Y166.898 E81.61379
G1 X84.446 Y166.22 E81.63721
G1 X84.333 Y165.525 E81.66063
G1 X84.3 Y164.883 E81.68201
G1 X84.3 Y45.117 E85.66545
G1 X84.34 Y44.414 E85.68887
G1 X84.459 Y43.72 E85.71229
G1 X84.657 Y43.045 E85.73568
G1 X84.929 Y42.396 E85.75909
G0 F3600 X85.328 Y42.491
G1 F1200 X85.672 Y41.903 E85.78174
G1 X86.082 Y41.359 E85.8044
G1 X86.516 Y40.899 E85.82544
G1 X87.025 Y40.446 E85.8481
G1 X87.583 Y40.057 E85.87072
G1 X88.183 Y39.735 E85.89337
G1 X88.817 Y39.486 E85.91603
G1 X89.476 Y39.313 E85.93869
G1 X90.15 Y39.219 E85.96132
G1 X90.617 Y39.2 E85.97687
G1 X206.383 Y39.2 E89.82726
G1 X207.063 Y39.24 E89.84992
G1 X207.733 Y39.359 E89.87255
G1 X208.385 Y39.556 E89.8952
G1 X209.009 Y39.828 E89.91784
G1 X209.597 Y40.172 E89.9405
G1 X210.141 Y40.582 E89.96316
G1 X210.601 Y41.016 E89.98419
G1 X211.054 Y41.525 E90.00686
G1 X211.443 Y42.083 E90.02948
G1 X211.765 Y42.683 E90.05213
G1 X212.014 Y43.317 E90.07478
G1 X212.187 Y43.976 E90.09744
G1 X212.281 Y44.65 E90.12008
G1 X212.3 Y45.117 E90.13562
G1 X212.3 Y164.883 E94.11906
G1 X212.26 Y165.563 E94.14171
G1 X212.141 Y166.233 E94.16435
G1 X211.944 Y166.885 E94.187
G1 X211.672 Y167.509 E94.20964
G1 X211.328 Y168.097 E94.2323
G1 X210.918 Y168.641 E94.25495
G1 X210.484 Y169.101 E94.27599
G1 X209.975 Y169.554 E94.29865
G1 X209.417 Y169.943 E94.32128
G1 X208.817 Y170.265 E94.34392
G1 X208.183 Y170.514 E94.36658
G1 X207.524 Y170.687 E94.38924
G1 X206.85 Y170.781 E94.41187
G1 X206.383 Y170.8 E94.42742
G1 X90.617 Y170.8 E98.27781
G1 X89.937 Y170.76 E98.30047
G1 X89.267 Y170.641 E98.3231
G1 X88.615 Y170.444 E98.34576
G1 X87.991 Y170.172 E98.3684
G1 X87.403 Y169.828 E98.39105
G1 X86.859 Y169.418 E98.41371
G1 X86.399 Y168.984 E98.43474
G1 X85.946 Y168.475 E98.45741
G1 X85.557 Y167.917 E98.48003
G1 X85.235 Y167.317 E98.50268
G1 X84.986 Y166.683 E98.52533
G1 X84.813 Y166.024 E98.548
G1 X84.719 Y165.35 E98.57063
G1 X84.7 Y164.883 E98.58618
G1 X84.7 Y45.117 E102.56961
G1 X84.74 Y44.437 E102.59227
G1 X84.859 Y43.767 E102.6149
G1 X85.056 Y43.115 E102.63755
G1 X85.328 Y42.491 E102.66019
G0 F3600 X85.728 Y42.59
G1 F1200 X86.07 Y42.029 E102.68205
G1 X86.682 Y41.299 E102.71373
G1 X86.799 Y41.182 E102.71923
G1 X87.291 Y40.746 E102.7411
G1 X87.832 Y40.374 E102.76293
G1 X88.414 Y40.07 E102.78477
G1 X89.029 Y39.839 E102.80662
G1 X89.668 Y39.684 E102.82849
G1 X90.617 Y39.6 E102.86018
G1 X206.383 Y39.6 E106.71057
G1 X207.039 Y39.64 E106.73243
G1 X207.685 Y39.759 E106.75428
G1 X208.312 Y39.956 E106.77614
G1 X208.91 Y40.228 E106.79799
G1 X209.471 Y40.57 E106.81984
G1 X210.201 Y41.182 E106.85153
G1 X210.318 Y41.299 E106.85703
G1 X210.754 Y41.791 E106.87889
G1 X211.126 Y42.332 E106.90073
G1 X211.43 Y42.914 E106.92257
G1 X211.661 Y43.529 E106.94442
G1 X211.816 Y44.168 E106.96629
G1 X211.9 Y45.117 E106.99798
G1 X211.9 Y164.883 E110.98141
G1 X211.86 Y165.539 E111.00327
G1 X211.741 Y166.185 E111.02512
G1 X211.544 Y166.812 E111.04698
G1 X211.272 Y167.41 E111.06883
G1 X210.93 Y167.971 E111.09068
G1 X210.318 Y168.701 E111.12236
G1 X210.201 Y168.818 E111.12787
G1 X209.709 Y169.254 E111.14973
G1 X209.168 Y169.626 E111.17157
G1 X208.586 Y169.93 E111.19341
G1 X207.971 Y170.161 E111.21526
G1 X207.332 Y170.316 E111.23713
G1 X206.383 Y170.4 E111.26881
G1 X90.617 Y170.4 E115.11921
G1 X89.961 Y170.36 E115.14107
G1 X89.315 Y170.241 E115.16291
G1 X88.688 Y170.044 E115.18477
G1 X88.09 Y169.772 E115.20662
G1 X87.529 Y169.43 E115.22848
G1 X86.799 Y168.818 E115.26016
G1 X86.682 Y168.701 E115.26566
G1 X86.246 Y168.209 E115.28753
G1 X85.874 Y167.668 E115.30937
G1 X85.57 Y167.086 E115.3312
G1 X85.339 Y166.471 E115.35305
G1 X85.184 Y165.832 E115.37492
G1 X85.1 Y164.883 E115.40661
G1 X85.1 Y45.117 E119.39004
G1 X85.14 Y44.461 E119.4119
G1 X85.259 Y43.815 E119.43375
G1 X85.456 Y43.188 E119.45561
G1 X85.728 Y42.59 E119.47746
G0 F3600 X86.127 Y42.693
G1 F1200 X86.467 Y42.161 E119.49846
G1 X86.964 Y41.581 E119.52386
G1 X87.081 Y41.464 E119.52937
G1 X87.556 Y41.047 E119.55039
G1 X88.079 Y40.692 E119.57141
G1 X88.643 Y40.406 E119.59245
G1 X89.238 Y40.194 E119.61346
G1 X89.856 Y40.058 E119.6345
G1 X90.617 Y40 E119.65989
G1 X206.383 Y40 E123.51028
G1 X207.014 Y40.04 E123.53131
G1 X207.635 Y40.159 E123.55234
G1 X208.235 Y40.356 E123.57334
G1 X208.807 Y40.627 E123.5944
G1 X209.339 Y40.967 E123.61539
G1 X209.919 Y41.464 E123.6408
G1 X210.036 Y41.581 E123.6463
G1 X210.453 Y42.056 E123.66733
G1 X210.808 Y42.579 E123.68835
G1 X211.094 Y43.143 E123.70938
G1 X211.306 Y43.738 E123.73039
G1 X211.442 Y44.356 E123.75144
G1 X211.5 Y45.117 E123.77682
G1 X211.5 Y164.883 E127.76025
G1 X211.46 Y165.514 E127.78128
G1 X211.341 Y166.135 E127.80231
G1 X211.144 Y166.735 E127.82332
G1 X210.873 Y167.307 E127.84437
G1 X210.533 Y167.839 E127.86537
G1 X210.036 Y168.419 E127.89077
G1 X209.919 Y168.536 E127.89628
G1 X209.444 Y168.953 E127.9173
G1 X208.921 Y169.308 E127.93832
G1 X208.357 Y169.594 E127.95936
G1 X207.762 Y169.806 E127.98037
G1 X207.144 Y169.942 E128.00141
G1 X206.383 Y170 E128.0268
G1 X90.617 Y170 E131.87719
G1 X89.986 Y169.96 E131.89822
G1 X89.365 Y169.841 E131.91925
G1 X88.765 Y169.644 E131.94025
G1 X88.193 Y169.373 E131.96131
G1 X87.661 Y169.033 E131.9823
G1 X87.081 Y168.536 E132.00771
G1 X86.964 Y168.419 E132.01321
G1 X86.547 Y167.944 E132.03423
G1 X86.192 Y167.421 E132.05526
G1 X85.906 Y166.857 E132.07629
G1 X85.694 Y166.262 E132.0973
G1 X85.558 Y165.644 E132.11835
G1 X85.5 Y164.883 E132.14373
G1 X85.5 Y45.117 E136.12716
G1 X85.54 Y44.486 E136.14819
G1 X85.659 Y43.865 E136.16922
G1 X85.856 Y43.265 E136.19023
