;FLAVOR:Marlin
;TIME:6584
;Filament used: 9.6299m
;Layer height: 0.3
;MINX:91.45
;MINY:56.7
;MINZ:0.2
;MAXX:205.55
;MAXY:153.3
;MAXZ:23
;Generated with Cura_SteamEngine 4.6.1
M104 S210
M105
M109 S210
M82 ;absolute extrusion mode
; -- START GCODE --
G21                     ;set units to millimetres
G90                     ;set to absolute positioning
M106 S0                 ;set fan speed to zero (turned off)
G28 X0 Y0               ;move to the X/Y origin (Home)
G28 Z0                  ;move to the Z origin (Home)
G1 Z15.0 F1200          ;move Z to position 15.0 mm
G92 E0                  ;zero the extruded length
G1 E20 F200             ;extrude 20mm of feed stock
G92 E0                  ;zero the extruded length again
G1 F7200                ;set feedrate to 120 mm/s
; -- end of START GCODE --
G92 E0
G92 E0
G1 F1500 E-6.5
;LAYER_COUNT:77
;LAYER:0
M107
G0 F3600 X93.33 Y79.539 Z0.2
;TYPE:SKIRT
G1 F1500 E0
G1 F1800 X93.735 Y79.102 E0.01982
G1 X94.438 Y78.455 E0.05159
G1 X95.074 Y77.988 E0.07784
G1 X95.754 Y77.587 E0.10409
G1 X96.472 Y77.257 E0.13038
G1 X97.219 Y77.002 E0.15663
G1 X97.988 Y76.823 E0.18289
G1 X98.772 Y76.723 E0.20918
G1 X99.367 Y76.7 E0.22898
G1 X156.658 Y76.7 E2.13449
G1 X156.95 Y76.715 E2.14421
G1 X156.95 Y64.617 E2.54659
G1 X156.99 Y63.828 E2.57287
G1 X157.109 Y63.048 E2.59911
G1 X157.307 Y62.283 E2.6254
G1 X157.581 Y61.543 E2.65164
G1 X157.929 Y60.834 E2.67791
G1 X158.347 Y60.163 E2.7042
G1 X158.83 Y59.539 E2.73045
G1 X159.235 Y59.102 E2.75027
G1 X159.938 Y58.455 E2.78204
G1 X160.574 Y57.988 E2.80829
G1 X161.254 Y57.587 E2.83454
G1 X161.972 Y57.257 E2.86083
G1 X162.719 Y57.002 E2.88708
G1 X163.488 Y56.823 E2.91334
G1 X164.272 Y56.723 E2.93963
G1 X164.867 Y56.7 E2.95943
G1 X176.533 Y56.7 E3.34744
G1 X177.322 Y56.74 E3.37372
G1 X178.102 Y56.859 E3.39996
G1 X178.867 Y57.057 E3.42625
G1 X179.607 Y57.331 E3.45249
G1 X179.754 Y57.403 E3.45794
G1 X180.072 Y57.257 E3.46957
G1 X180.819 Y57.002 E3.49583
G1 X181.588 Y56.823 E3.52209
G1 X182.372 Y56.723 E3.54837
G1 X182.967 Y56.7 E3.56818
G1 X194.633 Y56.7 E3.95619
G1 X195.422 Y56.74 E3.98247
G1 X196.202 Y56.859 E4.00871
G1 X196.967 Y57.057 E4.03499
G1 X197.707 Y57.331 E4.06124
G1 X198.416 Y57.679 E4.08751
G1 X199.087 Y58.097 E4.1138
G1 X199.711 Y58.58 E4.14005
G1 X200.148 Y58.985 E4.15986
G1 X200.795 Y59.688 E4.19164
G1 X201.262 Y60.324 E4.21788
G1 X201.663 Y61.004 E4.24414
G1 X201.993 Y61.722 E4.27042
G1 X202.248 Y62.469 E4.29668
G1 X202.427 Y63.238 E4.32294
G1 X202.527 Y64.022 E4.34922
G1 X202.55 Y64.617 E4.36903
G1 X202.55 Y98.455 E5.49449
G1 X202.711 Y98.58 E5.50126
G1 X203.148 Y98.985 E5.52108
G1 X203.795 Y99.688 E5.55286
G1 X204.262 Y100.324 E5.5791
G1 X204.663 Y101.004 E5.60536
G1 X204.993 Y101.722 E5.63164
G1 X205.248 Y102.469 E5.65789
G1 X205.427 Y103.238 E5.68416
G1 X205.527 Y104.022 E5.71044
G1 X205.55 Y104.617 E5.73025
G1 X205.55 Y105.383 E5.75572
G1 X205.51 Y106.172 E5.782
G1 X205.391 Y106.952 E5.80824
G1 X205.193 Y107.717 E5.83453
G1 X204.919 Y108.457 E5.86077
G1 X204.571 Y109.166 E5.88704
G1 X204.153 Y109.837 E5.91333
G1 X203.67 Y110.461 E5.93958
G1 X203.265 Y110.898 E5.9594
G1 X202.562 Y111.545 E5.99117
G1 X202.55 Y145.383 E7.11663
G1 X202.51 Y146.172 E7.14291
G1 X202.391 Y146.952 E7.16915
G1 X202.193 Y147.717 E7.19543
G1 X201.919 Y148.457 E7.22168
G1 X201.571 Y149.166 E7.24795
G1 X201.153 Y149.837 E7.27424
G1 X200.67 Y150.461 E7.30048
G1 X200.265 Y150.898 E7.3203
G1 X199.562 Y151.545 E7.35208
G1 X198.926 Y152.012 E7.37832
G1 X198.246 Y152.413 E7.40458
G1 X197.528 Y152.743 E7.43086
G1 X196.781 Y152.998 E7.45711
G1 X196.012 Y153.177 E7.48338
G1 X195.228 Y153.277 E7.50966
G1 X194.633 Y153.3 E7.52947
G1 X182.967 Y153.3 E7.91748
G1 X182.178 Y153.26 E7.94376
G1 X181.398 Y153.141 E7.97
G1 X180.633 Y152.943 E7.99628
G1 X179.893 Y152.669 E8.02253
G1 X179.746 Y152.597 E8.02797
G1 X179.428 Y152.743 E8.03961
G1 X178.681 Y152.998 E8.06586
G1 X177.912 Y153.177 E8.09212
G1 X177.128 Y153.277 E8.11841
G1 X176.533 Y153.3 E8.13821
G1 X164.867 Y153.3 E8.52623
G1 X164.078 Y153.26 E8.5525
G1 X163.298 Y153.141 E8.57875
G1 X162.533 Y152.943 E8.60503
G1 X161.793 Y152.669 E8.63127
G1 X161.084 Y152.321 E8.65754
G1 X160.413 Y151.903 E8.68384
G1 X159.789 Y151.42 E8.71008
G1 X159.352 Y151.015 E8.7299
G1 X158.705 Y150.312 E8.76168
G1 X158.238 Y149.676 E8.78792
G1 X157.837 Y148.996 E8.81418
G1 X157.507 Y148.278 E8.84046
G1 X157.252 Y147.531 E8.86671
G1 X157.073 Y146.762 E8.89297
G1 X156.973 Y145.978 E8.91926
G1 X156.95 Y145.383 E8.93906
G1 X156.95 Y133.3 E9.34095
G1 X99.367 Y133.3 E11.25617
G1 X98.578 Y133.26 E11.28244
G1 X97.798 Y133.141 E11.30868
G1 X97.033 Y132.943 E11.33497
G1 X96.293 Y132.669 E11.36121
G1 X95.584 Y132.321 E11.38748
G1 X94.913 Y131.903 E11.41377
G1 X94.289 Y131.42 E11.44002
G1 X93.852 Y131.015 E11.45984
G1 X93.205 Y130.312 E11.49161
G1 X92.738 Y129.676 E11.51786
G1 X92.337 Y128.996 E11.54411
G1 X92.007 Y128.278 E11.5704
G1 X91.752 Y127.531 E11.59665
G1 X91.573 Y126.762 E11.62291
G1 X91.473 Y125.978 E11.6492
G1 X91.45 Y125.383 E11.669
G1 X91.45 Y84.617 E13.02488
G1 X91.49 Y83.828 E13.05116
G1 X91.609 Y83.048 E13.0774
G1 X91.807 Y82.283 E13.10369
G1 X92.081 Y81.543 E13.12993
G1 X92.429 Y80.834 E13.1562
G1 X92.847 Y80.163 E13.18249
G1 X93.33 Y79.539 E13.20874
G0 F3600 X93.725 Y79.694
G1 F1800 X94.134 Y79.267 E13.22841
G1 X94.706 Y78.753 E13.25398
G1 X95.328 Y78.3 E13.27958
G1 X95.993 Y77.914 E13.30515
G1 X96.695 Y77.599 E13.33074
G1 X97.426 Y77.359 E13.35633
G1 X98.177 Y77.196 E13.38189
G1 X98.942 Y77.112 E13.40749
G1 X156.658 Y77.1 E15.32713
G1 X157.35 Y77.136 E15.35018
G1 X157.35 Y64.617 E15.76656
G1 X157.39 Y63.849 E15.79214
G1 X157.509 Y63.089 E15.81773
G1 X157.707 Y62.346 E15.8433
G1 X157.981 Y61.627 E15.86889
G1 X158.328 Y60.941 E15.89446
G1 X158.744 Y60.294 E15.92004
G1 X159.225 Y59.694 E15.94562
G1 X159.634 Y59.267 E15.96529
G1 X160.206 Y58.753 E15.99086
G1 X160.828 Y58.3 E16.01646
G1 X161.493 Y57.914 E16.04203
G1 X162.195 Y57.599 E16.06762
G1 X162.926 Y57.359 E16.09321
G1 X163.677 Y57.196 E16.11877
G1 X164.442 Y57.112 E16.14437
G1 X176.533 Y57.1 E16.54652
G1 X177.301 Y57.14 E16.5721
G1 X178.061 Y57.259 E16.59768
G1 X178.804 Y57.457 E16.62326
G1 X179.523 Y57.731 E16.64885
G1 X179.748 Y57.845 E16.65724
G1 X180.295 Y57.599 E16.67719
G1 X181.026 Y57.359 E16.70278
G1 X181.777 Y57.196 E16.72834
G1 X182.542 Y57.112 E16.75393
G1 X194.633 Y57.1 E17.15608
G1 X195.401 Y57.14 E17.18166
G1 X196.161 Y57.259 E17.20725
G1 X196.904 Y57.457 E17.23282
G1 X197.623 Y57.731 E17.25841
G1 X198.309 Y58.078 E17.28398
G1 X198.956 Y58.494 E17.30957
G1 X199.556 Y58.975 E17.33514
G1 X199.983 Y59.384 E17.35481
G1 X200.497 Y59.956 E17.38039
G1 X200.95 Y60.578 E17.40598
G1 X201.336 Y61.243 E17.43155
G1 X201.651 Y61.945 E17.45714
G1 X201.891 Y62.676 E17.48273
G1 X202.054 Y63.427 E17.50829
G1 X202.138 Y64.192 E17.53389
G1 X202.15 Y98.65 E18.67997
G1 X202.556 Y98.975 E18.69727
G1 X202.983 Y99.384 E18.71693
G1 X203.497 Y99.956 E18.74251
G1 X203.95 Y100.578 E18.7681
G1 X204.336 Y101.243 E18.79368
G1 X204.651 Y101.945 E18.81927
G1 X204.891 Y102.676 E18.84486
G1 X205.054 Y103.427 E18.87042
G1 X205.138 Y104.192 E18.89602
G1 X205.15 Y105.383 E18.93563
G1 X205.11 Y106.151 E18.96121
G1 X204.991 Y106.911 E18.98679
G1 X204.793 Y107.654 E19.01237
G1 X204.519 Y108.373 E19.03796
G1 X204.172 Y109.059 E19.06353
G1 X203.756 Y109.706 E19.08911
G1 X203.275 Y110.306 E19.11469
G1 X202.866 Y110.733 E19.13436
G1 X202.294 Y111.247 E19.15993
G1 X202.15 Y111.352 E19.16586
G1 X202.15 Y145.383 E20.29774
G1 X202.11 Y146.151 E20.32332
G1 X201.991 Y146.911 E20.3489
G1 X201.793 Y147.654 E20.37448
G1 X201.519 Y148.373 E20.40007
G1 X201.172 Y149.059 E20.42564
G1 X200.756 Y149.706 E20.45122
G1 X200.275 Y150.306 E20.4768
G1 X199.866 Y150.733 E20.49646
G1 X199.294 Y151.247 E20.52204
G1 X198.672 Y151.7 E20.54763
G1 X198.007 Y152.086 E20.57321
G1 X197.305 Y152.401 E20.5988
G1 X196.574 Y152.641 E20.62439
G1 X195.823 Y152.804 E20.64995
G1 X195.058 Y152.888 E20.67555
G1 X182.967 Y152.9 E21.07769
G1 X182.199 Y152.86 E21.10327
G1 X181.439 Y152.741 E21.12886
G1 X180.696 Y152.543 E21.15443
G1 X179.977 Y152.269 E21.18003
G1 X179.752 Y152.155 E21.18841
G1 X179.205 Y152.401 E21.20836
G1 X178.474 Y152.641 E21.23395
G1 X177.723 Y152.804 E21.25951
G1 X176.958 Y152.888 E21.28511
G1 X164.867 Y152.9 E21.68726
G1 X164.099 Y152.86 E21.71284
G1 X163.339 Y152.741 E21.73842
G1 X162.596 Y152.543 E21.764
G1 X161.877 Y152.269 E21.78959
G1 X161.191 Y151.922 E21.81516
G1 X160.544 Y151.506 E21.84074
G1 X159.944 Y151.025 E21.86632
G1 X159.517 Y150.616 E21.88598
G1 X159.003 Y150.044 E21.91156
G1 X158.55 Y149.422 E21.93716
G1 X158.164 Y148.757 E21.96273
G1 X157.849 Y148.055 E21.98832
G1 X157.609 Y147.324 E22.01391
G1 X157.446 Y146.573 E22.03947
G1 X157.362 Y145.808 E22.06507
G1 X157.35 Y132.9 E22.49439
G1 X99.367 Y132.9 E24.42291
G1 X98.599 Y132.86 E24.44849
G1 X97.839 Y132.741 E24.47408
G1 X97.096 Y132.543 E24.49965
G1 X96.377 Y132.269 E24.52524
G1 X95.691 Y131.922 E24.55081
G1 X95.044 Y131.506 E24.5764
G1 X94.444 Y131.025 E24.60197
G1 X94.017 Y130.616 E24.62164
G1 X93.503 Y130.044 E24.64722
G1 X93.05 Y129.422 E24.67281
G1 X92.664 Y128.757 E24.69838
G1 X92.349 Y128.055 E24.72397
G1 X92.109 Y127.324 E24.74956
G1 X91.946 Y126.573 E24.77512
G1 X91.862 Y125.808 E24.80072
G1 X91.85 Y84.617 E26.17074
G1 X91.89 Y83.849 E26.19632
G1 X92.009 Y83.089 E26.2219
G1 X92.207 Y82.346 E26.24748
G1 X92.481 Y81.627 E26.27307
G1 X92.828 Y80.941 E26.29864
G1 X93.244 Y80.294 E26.32422
G1 X93.725 Y79.694 E26.3498
G0 F3600 X93.642 Y80.428
G1 F1800 X94.3 Y79.667 E26.38326
G1 X94.974 Y79.05 E26.41365
G1 X95.58 Y78.613 E26.4385
G1 X96.23 Y78.242 E26.46339
G1 X96.916 Y77.943 E26.48828
G1 X97.63 Y77.719 E26.51317
G1 X98.363 Y77.572 E26.53804
G1 X99.367 Y77.5 E26.57152
G1 X156.658 Y77.5 E28.47702
G1 X157.405 Y77.54 E28.5019
G1 X157.75 Y77.589 E28.51349
G1 X157.75 Y64.617 E28.94494
G1 X157.79 Y63.87 E28.96983
G1 X157.909 Y63.132 E28.99469
G1 X158.107 Y62.41 E29.01959
G1 X158.38 Y61.714 E29.04446
G1 X158.727 Y61.051 E29.06934
G1 X159.142 Y60.428 E29.09424
G1 X159.8 Y59.667 E29.1277
G1 X160.474 Y59.05 E29.15809
G1 X161.08 Y58.613 E29.18294
G1 X161.73 Y58.242 E29.20784
G1 X162.416 Y57.943 E29.23273
G1 X163.13 Y57.719 E29.25762
G1 X163.863 Y57.572 E29.28248
G1 X164.867 Y57.5 E29.31596
G1 X176.533 Y57.5 E29.70397
G1 X177.28 Y57.54 E29.72885
G1 X178.018 Y57.659 E29.75372
G1 X178.74 Y57.857 E29.77862
G1 X179.436 Y58.13 E29.80348
G1 X179.744 Y58.291 E29.81504
G1 X180.516 Y57.943 E29.84321
G1 X181.23 Y57.719 E29.8681
G1 X181.963 Y57.572 E29.89296
G1 X182.967 Y57.5 E29.92644
G1 X194.633 Y57.5 E30.31445
G1 X195.38 Y57.54 E30.33933
G1 X196.118 Y57.659 E30.3642
G1 X196.84 Y57.857 E30.3891
G1 X197.536 Y58.13 E30.41396
G1 X198.199 Y58.477 E30.43885
G1 X198.822 Y58.892 E30.46375
G1 X199.583 Y59.55 E30.49721
G1 X200.2 Y60.224 E30.5276
G1 X200.637 Y60.83 E30.55245
G1 X201.008 Y61.48 E30.57734
G1 X201.307 Y62.166 E30.60223
G1 X201.531 Y62.88 E30.62712
G1 X201.678 Y63.613 E30.65199
G1 X201.75 Y64.617 E30.68547
G1 X201.75 Y98.844 E31.82386
G1 X202.583 Y99.55 E31.86018
G1 X203.2 Y100.224 E31.89057
G1 X203.637 Y100.83 E31.91542
G1 X204.008 Y101.48 E31.94031
G1 X204.307 Y102.166 E31.9652
G1 X204.531 Y102.88 E31.99009
G1 X204.678 Y103.613 E32.01496
G1 X204.75 Y104.617 E32.04844
G1 X204.75 Y105.383 E32.07391
G1 X204.71 Y106.13 E32.0988
G1 X204.591 Y106.868 E32.12366
G1 X204.393 Y107.59 E32.14856
G1 X204.12 Y108.286 E32.17342
G1 X203.773 Y108.949 E32.19831
G1 X203.358 Y109.572 E32.22321
G1 X202.7 Y110.333 E32.25667
G1 X202.026 Y110.95 E32.28706
G1 X201.75 Y111.149 E32.29838
G1 X201.75 Y145.383 E33.43701
G1 X201.71 Y146.13 E33.46189
G1 X201.591 Y146.868 E33.48675
G1 X201.393 Y147.59 E33.51165
G1 X201.12 Y148.286 E33.53652
G1 X200.773 Y148.949 E33.56141
G1 X200.358 Y149.572 E33.58631
G1 X199.7 Y150.333 E33.61977
G1 X199.026 Y150.95 E33.65016
G1 X198.42 Y151.387 E33.67501
G1 X197.77 Y151.758 E33.6999
G1 X197.084 Y152.057 E33.72479
G1 X196.37 Y152.281 E33.74968
G1 X195.637 Y152.428 E33.77454
G1 X194.633 Y152.5 E33.80802
G1 X182.967 Y152.5 E34.19604
G1 X182.22 Y152.46 E34.22092
G1 X181.482 Y152.341 E34.24578
G1 X180.76 Y152.143 E34.27068
G1 X180.064 Y151.87 E34.29555
G1 X179.756 Y151.709 E34.30711
G1 X178.984 Y152.057 E34.33527
G1 X178.27 Y152.281 E34.36016
G1 X177.537 Y152.428 E34.38502
G1 X176.533 Y152.5 E34.4185
G1 X164.867 Y152.5 E34.80652
G1 X164.12 Y152.46 E34.8314
G1 X163.382 Y152.341 E34.85626
G1 X162.66 Y152.143 E34.88116
G1 X161.964 Y151.87 E34.90603
G1 X161.301 Y151.523 E34.93092
G1 X160.678 Y151.108 E34.95581
G1 X159.917 Y150.45 E34.98927
G1 X159.3 Y149.776 E35.01967
G1 X158.863 Y149.17 E35.04452
G1 X158.492 Y148.52 E35.06941
G1 X158.193 Y147.834 E35.0943
G1 X157.969 Y147.12 E35.11919
G1 X157.822 Y146.387 E35.14405
G1 X157.75 Y145.383 E35.17753
G1 X157.75 Y132.5 E35.60602
G1 X99.367 Y132.5 E37.54785
G1 X98.62 Y132.46 E37.57273
G1 X97.882 Y132.341 E37.59759
G1 X97.16 Y132.143 E37.62249
G1 X96.464 Y131.87 E37.64736
G1 X95.801 Y131.523 E37.67225
G1 X95.178 Y131.108 E37.69714
G1 X94.417 Y130.45 E37.73061
G1 X93.8 Y129.776 E37.761
G1 X93.363 Y129.17 E37.78585
G1 X92.992 Y128.52 E37.81074
G1 X92.693 Y127.834 E37.83563
G1 X92.469 Y127.12 E37.86052
G1 X92.322 Y126.387 E37.88538
G1 X92.25 Y125.383 E37.91886
G1 X92.25 Y84.617 E39.27474
G1 X92.29 Y83.87 E39.29963
G1 X92.409 Y83.132 E39.32449
G1 X92.607 Y82.41 E39.34939
G1 X92.88 Y81.714 E39.37426
G1 X93.227 Y81.051 E39.39914
G1 X93.642 Y80.428 E39.42404
G0 F3600 X94.039 Y80.567
G1 F1800 X94.583 Y79.95 E39.4514
G1 X95.241 Y79.349 E39.48104
G1 X95.832 Y78.926 E39.50521
G1 X96.466 Y78.572 E39.52936
G1 X97.135 Y78.289 E39.55352
G1 X97.831 Y78.081 E39.57769
G1 X98.546 Y77.951 E39.60186
G1 X99.367 Y77.9 E39.62922
G1 X156.658 Y77.9 E41.53472
G1 X157.383 Y77.94 E41.55887
G1 X157.748 Y78.001 E41.57118
G1 X158.15 Y77.944 E41.58468
G1 X158.15 Y64.617 E42.02794
G1 X158.19 Y63.892 E42.05209
G1 X158.309 Y63.175 E42.07627
G1 X158.507 Y62.476 E42.10043
G1 X158.78 Y61.803 E42.12459
G1 X159.125 Y61.164 E42.14874
G1 X159.539 Y60.567 E42.1729
G1 X160.083 Y59.95 E42.20026
G1 X160.741 Y59.349 E42.2299
G1 X161.332 Y58.926 E42.25407
G1 X161.966 Y58.572 E42.27823
G1 X162.635 Y58.289 E42.30239
G1 X163.331 Y58.081 E42.32655
G1 X164.046 Y57.951 E42.35072
G1 X164.867 Y57.9 E42.37808
G1 X176.533 Y57.9 E42.76609
G1 X177.258 Y57.94 E42.79024
G1 X177.975 Y58.059 E42.81441
G1 X178.674 Y58.257 E42.83858
G1 X179.347 Y58.53 E42.86273
G1 X179.751 Y58.748 E42.878
G1 X180.066 Y58.572 E42.89
G1 X180.735 Y58.289 E42.91416
G1 X181.431 Y58.081 E42.93832
G1 X182.146 Y57.951 E42.96249
G1 X182.967 Y57.9 E42.98985
G1 X194.633 Y57.9 E43.37787
G1 X195.358 Y57.94 E43.40202
G1 X196.075 Y58.059 E43.42619
G1 X196.774 Y58.257 E43.45035
G1 X197.447 Y58.53 E43.47451
G1 X198.086 Y58.875 E43.49866
G1 X198.683 Y59.289 E43.52283
G1 X199.3 Y59.833 E43.55018
G1 X199.901 Y60.491 E43.57982
G1 X200.324 Y61.082 E43.604
G1 X200.678 Y61.716 E43.62815
G1 X200.961 Y62.385 E43.65231
G1 X201.169 Y63.081 E43.67647
G1 X201.299 Y63.796 E43.70064
G1 X201.35 Y64.617 E43.728
G1 X201.35 Y99.058 E44.87351
G1 X201.683 Y99.289 E44.88699
G1 X202.3 Y99.833 E44.91435
G1 X202.901 Y100.491 E44.94399
G1 X203.324 Y101.082 E44.96816
G1 X203.678 Y101.716 E44.99231
G1 X203.961 Y102.385 E45.01647
G1 X204.169 Y103.081 E45.04064
G1 X204.299 Y103.796 E45.06481
G1 X204.35 Y104.617 E45.09217
G1 X204.35 Y105.383 E45.11764
G1 X204.31 Y106.108 E45.14179
G1 X204.191 Y106.825 E45.16597
G1 X203.993 Y107.524 E45.19013
G1 X203.72 Y108.197 E45.21429
G1 X203.375 Y108.836 E45.23844
G1 X202.961 Y109.433 E45.2626
G1 X202.417 Y110.05 E45.28996
G1 X201.759 Y110.651 E45.3196
G1 X201.35 Y110.944 E45.33634
G1 X201.35 Y145.383 E46.48178
G1 X201.31 Y146.108 E46.50593
G1 X201.191 Y146.825 E46.5301
G1 X200.993 Y147.524 E46.55427
G1 X200.72 Y148.197 E46.57842
G1 X200.375 Y148.836 E46.60258
G1 X199.961 Y149.433 E46.62674
G1 X199.417 Y150.05 E46.6541
G1 X198.759 Y150.651 E46.68374
G1 X198.168 Y151.074 E46.70791
G1 X197.534 Y151.428 E46.73206
G1 X196.865 Y151.711 E46.75622
G1 X196.169 Y151.919 E46.78038
G1 X195.454 Y152.049 E46.80456
