;FLAVOR:Marlin
;TIME:1013
;Filament used: 1.14633m
;Layer height: 0.3
;MINX:66.586
;MINY:87.201
;MINZ:0.2
;MAXX:123.926
;MAXY:122.799
;MAXZ:17
;Generated with Cura_SteamEngine 4.6.1
M104 S210
M105
M109 S210
M82 ;absolute extrusion mode
; -- START GCODE --
G21                     ;set units to millimetres
G90                     ;set to absolute positioning
M106 S0                 ;set fan speed to zero (turned off)
G28 X0 Y0               ;move to the X/Y origin (Home)
G28 Z0                  ;move to the Z origin (Home)
G1 Z15.0 F1200          ;move Z to position 15.0 mm
G92 E0                  ;zero the extruded length
G1 E20 F200             ;extrude 20mm of feed stock
G92 E0                  ;zero the extruded length again
G1 F7200                ;set feedrate to 120 mm/s
; -- end of START GCODE --
G92 E0
G92 E0
G1 F1500 E-6.5
;LAYER_COUNT:57
;LAYER:0
M107
G0 F3600 X72.895 Y91.394 Z0.2
;TYPE:SKIRT
G1 F1500 E0
G1 F1800 X74.366 Y90.282 E0.06133
G1 X75.02 Y89.838 E0.08762
G1 X75.588 Y89.524 E0.10921
G1 X77.244 Y88.698 E0.17076
G1 X77.968 Y88.382 E0.19703
G1 X78.581 Y88.179 E0.21851
G1 X80.35 Y87.673 E0.27971
G1 X81.119 Y87.494 E0.30597
G1 X81.773 Y87.405 E0.32792
G1 X83.613 Y87.234 E0.38938
G1 X84.402 Y87.201 E0.41565
G1 X85.05 Y87.234 E0.43723
G1 X86.908 Y87.405 E0.49929
G1 X87.69 Y87.517 E0.52556
G1 X88.339 Y87.673 E0.54776
G1 X90.107 Y88.179 E0.60893
G1 X90.854 Y88.435 E0.63519
G1 X91.437 Y88.696 E0.65644
G1 X93.074 Y89.511 E0.71726
G1 X93.763 Y89.898 E0.74354
G1 X94.295 Y90.266 E0.76506
G1 X95.754 Y91.366 E0.82583
G1 X96.128 Y91.059 E0.84192
G1 X96.843 Y90.537 E0.87137
G1 X97.725 Y89.998 E0.90575
G1 X99.024 Y89.304 E0.95473
G1 X99.8 Y88.943 E0.9832
G1 X100.803 Y88.572 E1.01877
G1 X102.201 Y88.146 E1.06738
G1 X103.038 Y87.941 E1.09604
G1 X104.097 Y87.771 E1.13171
G1 X105.563 Y87.624 E1.18071
G1 X106.362 Y87.585 E1.20732
G1 X107.483 Y87.623 E1.24463
G1 X108.969 Y87.769 E1.29429
G1 X109.686 Y87.874 E1.31839
G1 X110.069 Y87.948 E1.33137
G1 X110.847 Y88.14 E1.35802
G1 X112.259 Y88.567 E1.40708
G1 X112.949 Y88.812 E1.43144
G1 X113.314 Y88.961 E1.44455
G1 X114.031 Y89.297 E1.47088
G1 X115.333 Y89.99 E1.51994
G1 X115.911 Y90.33 E1.54224
G1 X116.238 Y90.542 E1.55521
G1 X116.94 Y91.055 E1.58413
G1 X118.089 Y91.997 E1.63354
G1 X118.517 Y92.375 E1.65254
G1 X118.798 Y92.642 E1.66543
G1 X119.459 Y93.353 E1.69772
G1 X120.402 Y94.504 E1.74721
G1 X120.734 Y94.94 E1.76543
G1 X120.957 Y95.255 E1.77827
G1 X121.468 Y96.082 E1.8106
G1 X122.162 Y97.379 E1.85953
G1 X122.548 Y98.187 E1.88931
G1 X122.914 Y99.156 E1.92376
G1 X123.342 Y100.565 E1.97274
G1 X123.557 Y101.401 E2.00145
G1 X123.732 Y102.442 E2.03656
G1 X123.878 Y103.912 E2.08569
G1 X123.926 Y104.746 E2.11348
G1 X123.896 Y105.837 E2.14978
G1 X123.753 Y107.304 E2.1988
G1 X123.653 Y108.058 E2.2241
G1 X123.395 Y109.211 E2.2634
G1 X122.966 Y110.621 E2.31242
G1 X122.742 Y111.286 E2.33576
G1 X122.445 Y112.018 E2.36203
G1 X121.558 Y113.702 E2.42534
G1 X121.221 Y114.29 E2.44788
G1 X120.79 Y114.952 E2.47415
G1 X119.57 Y116.459 E2.53864
G1 X119.156 Y116.939 E2.55972
G1 X118.606 Y117.506 E2.586
G1 X117.087 Y118.773 E2.65179
G1 X116.648 Y119.119 E2.67038
G1 X116.003 Y119.575 E2.69665
G1 X115.505 Y119.865 E2.71582
G1 X114.201 Y120.561 E2.76498
G1 X113.709 Y120.813 E2.78336
G1 X112.988 Y121.135 E2.80963
G1 X112.423 Y121.329 E2.8295
G1 X110.656 Y121.861 E2.89087
G1 X109.889 Y122.05 E2.91715
G1 X109.175 Y122.154 E2.94115
G1 X107.315 Y122.338 E3.00331
G1 X106.526 Y122.376 E3.02958
G1 X105.802 Y122.34 E3.05369
G1 X103.936 Y122.161 E3.11604
G1 X103.155 Y122.046 E3.1423
G1 X102.439 Y121.868 E3.16684
G1 X100.656 Y121.333 E3.22875
G1 X99.912 Y121.068 E3.25502
G1 X99.249 Y120.756 E3.27939
G1 X97.59 Y119.878 E3.34182
G1 X96.912 Y119.474 E3.36807
G1 X96.321 Y119.038 E3.3925
G1 X95.79 Y118.606 E3.41527
G1 X94.318 Y119.719 E3.47665
G1 X93.665 Y120.163 E3.50291
G1 X93.099 Y120.475 E3.52441
G1 X91.447 Y121.3 E3.58582
G1 X90.723 Y121.617 E3.61211
G1 X90.105 Y121.822 E3.63377
G1 X88.334 Y122.328 E3.69503
G1 X87.565 Y122.506 E3.72128
G1 X86.913 Y122.595 E3.74317
G1 X85.073 Y122.766 E3.80463
G1 X84.284 Y122.799 E3.83089
G1 X83.641 Y122.767 E3.85231
G1 X81.802 Y122.599 E3.91373
G1 X81.021 Y122.487 E3.93997
G1 X80.382 Y122.334 E3.96182
G1 X78.614 Y121.832 E4.02295
G1 X77.866 Y121.579 E4.04921
G1 X77.276 Y121.316 E4.0707
G1 X75.618 Y120.493 E4.13226
G1 X74.929 Y120.106 E4.15855
G1 X74.392 Y119.735 E4.18026
G1 X72.919 Y118.625 E4.2416
G1 X72.313 Y118.119 E4.26786
G1 X71.85 Y117.652 E4.28973
G1 X70.606 Y116.288 E4.35113
G1 X70.104 Y115.678 E4.37741
G1 X69.741 Y115.144 E4.39888
G1 X68.769 Y113.577 E4.46022
G1 X68.387 Y112.885 E4.48651
G1 X68.128 Y112.293 E4.508
G1 X67.46 Y110.576 E4.56927
G1 X67.211 Y109.827 E4.59553
G1 X67.063 Y109.187 E4.61738
G1 X66.722 Y107.37 E4.67886
G1 X66.616 Y106.587 E4.70514
G1 X66.588 Y105.939 E4.72672
G1 X66.586 Y104.099 E4.78792
G1 X66.625 Y103.311 E4.81416
G1 X66.717 Y102.67 E4.83569
G1 X67.053 Y100.857 E4.89702
G1 X67.236 Y100.088 E4.92331
G1 X67.445 Y99.471 E4.94498
G1 X68.11 Y97.747 E5.00644
G1 X68.431 Y97.025 E5.03272
G1 X68.752 Y96.453 E5.05454
G1 X69.723 Y94.882 E5.11596
G1 X70.172 Y94.232 E5.14224
G1 X70.583 Y93.74 E5.16356
G1 X71.824 Y92.373 E5.22497
G1 X72.384 Y91.816 E5.25124
G1 X72.895 Y91.394 E5.27328
G0 F3600 X73.137 Y91.713
G1 F1800 X74.608 Y90.601 E5.33461
G1 X75.244 Y90.17 E5.36017
G1 X75.767 Y89.882 E5.38002
G1 X77.423 Y89.056 E5.44157
G1 X78.128 Y88.749 E5.46715
G1 X78.691 Y88.563 E5.48687
G1 X80.46 Y88.057 E5.54807
G1 X81.209 Y87.885 E5.57363
G1 X81.81 Y87.804 E5.5938
G1 X83.65 Y87.633 E5.65526
G1 X84.419 Y87.601 E5.68086
G1 X85.013 Y87.632 E5.70064
G1 X86.871 Y87.803 E5.7627
G1 X87.632 Y87.913 E5.78827
G1 X88.229 Y88.058 E5.80871
G1 X89.997 Y88.564 E5.86987
G1 X90.725 Y88.813 E5.89546
G1 X91.259 Y89.054 E5.91495
G1 X92.896 Y89.869 E5.97577
G1 X93.566 Y90.247 E6.00136
G1 X94.054 Y90.585 E6.0211
G1 X95.531 Y91.699 E6.08263
G1 X95.752 Y91.884 E6.09222
G1 X96.381 Y91.368 E6.11928
G1 X97.06 Y90.873 E6.14723
G1 X97.914 Y90.351 E6.18052
G1 X99.213 Y89.657 E6.2295
G1 X99.949 Y89.315 E6.25649
G1 X100.92 Y88.954 E6.29095
G1 X102.318 Y88.528 E6.33956
G1 X103.111 Y88.334 E6.36671
G1 X104.137 Y88.169 E6.40127
G1 X105.603 Y88.022 E6.45028
G1 X106.361 Y87.985 E6.47552
G1 X107.444 Y88.021 E6.51156
G1 X108.93 Y88.167 E6.56122
G1 X109.61 Y88.266 E6.58408
G1 X109.993 Y88.34 E6.59705
G1 X110.731 Y88.523 E6.62234
G1 X112.143 Y88.95 E6.6714
G1 X112.798 Y89.182 E6.69452
G1 X113.163 Y89.331 E6.70763
G1 X113.843 Y89.65 E6.73261
G1 X115.145 Y90.343 E6.78167
G1 X115.694 Y90.666 E6.80285
G1 X116.021 Y90.878 E6.81581
G1 X116.687 Y91.364 E6.84324
G1 X117.836 Y92.306 E6.89265
G1 X118.241 Y92.664 E6.91063
G1 X118.522 Y92.931 E6.92352
G1 X119.149 Y93.606 E6.95417
G1 X120.092 Y94.757 E7.00366
G1 X120.408 Y95.171 E7.02098
G1 X120.631 Y95.486 E7.03382
G1 X121.116 Y96.271 E7.06451
G1 X121.81 Y97.568 E7.11343
G1 X122.184 Y98.352 E7.14232
G1 X122.532 Y99.272 E7.17504
G1 X122.96 Y100.681 E7.22402
G1 X123.168 Y101.494 E7.25193
G1 X123.334 Y102.482 E7.28525
G1 X123.48 Y103.952 E7.33438
G1 X123.526 Y104.763 E7.3614
G1 X123.498 Y105.798 E7.39584
G1 X123.355 Y107.265 E7.44486
G1 X123.257 Y108.001 E7.46956
G1 X123.013 Y109.095 E7.50684
G1 X122.584 Y110.505 E7.55586
G1 X122.364 Y111.155 E7.57868
G1 X122.074 Y111.867 E7.60425
G1 X121.205 Y113.514 E7.66619
G1 X120.876 Y114.089 E7.68822
G1 X120.455 Y114.733 E7.71381
G1 X119.261 Y116.206 E7.77688
G1 X118.855 Y116.675 E7.79751
G1 X118.319 Y117.227 E7.8231
G1 X116.833 Y118.464 E7.88741
G1 X116.401 Y118.805 E7.90571
G1 X115.772 Y119.248 E7.9313
G1 X115.316 Y119.512 E7.94883
G1 X114.012 Y120.208 E7.99799
G1 X113.528 Y120.456 E8.01608
G1 X112.825 Y120.769 E8.04167
G1 X112.307 Y120.946 E8.05988
G1 X110.54 Y121.478 E8.12126
G1 X109.793 Y121.661 E8.14684
G1 X109.135 Y121.756 E8.16895
G1 X107.275 Y121.94 E8.23111
G1 X106.507 Y121.976 E8.25668
G1 X105.84 Y121.942 E8.2789
G1 X103.974 Y121.763 E8.34125
G1 X103.214 Y121.65 E8.3668
G1 X102.554 Y121.485 E8.38943
G1 X100.771 Y120.95 E8.45134
G1 X100.047 Y120.691 E8.47692
G1 X99.437 Y120.403 E8.49936
G1 X97.778 Y119.525 E8.56178
G1 X97.117 Y119.13 E8.5874
G1 X96.573 Y118.727 E8.60991
G1 X95.789 Y118.09 E8.64351
G1 X94.077 Y119.4 E8.71521
G1 X93.44 Y119.831 E8.74079
G1 X92.92 Y120.117 E8.76053
G1 X91.268 Y120.942 E8.82195
G1 X90.563 Y121.25 E8.84753
G1 X89.995 Y121.437 E8.86742
G1 X88.224 Y121.943 E8.92868
G1 X87.474 Y122.116 E8.95428
G1 X86.876 Y122.196 E8.97435
G1 X85.036 Y122.367 E9.03581
G1 X84.267 Y122.399 E9.06141
G1 X83.678 Y122.368 E9.08103
G1 X81.839 Y122.2 E9.14245
G1 X81.077 Y122.091 E9.16805
G1 X80.491 Y121.95 E9.1881
G1 X78.723 Y121.448 E9.24923
G1 X77.995 Y121.199 E9.27482
G1 X77.454 Y120.957 E9.29453
G1 X75.796 Y120.134 E9.3561
G1 X75.126 Y119.757 E9.38167
G1 X74.633 Y119.416 E9.4016
G1 X73.16 Y118.306 E9.46295
G1 X72.57 Y117.812 E9.48854
G1 X72.145 Y117.383 E9.50863
G1 X70.901 Y116.019 E9.57003
G1 X70.413 Y115.424 E9.59562
G1 X70.081 Y114.933 E9.61534
G1 X69.109 Y113.366 E9.67667
G1 X68.738 Y112.692 E9.70226
G1 X68.501 Y112.148 E9.72199
G1 X67.833 Y110.431 E9.78327
G1 X67.591 Y109.701 E9.80885
G1 X67.456 Y109.113 E9.82891
G1 X67.115 Y107.296 E9.8904
G1 X67.013 Y106.534 E9.91597
G1 X66.988 Y105.939 E9.93578
G1 X66.986 Y104.099 E9.99698
G1 X67.025 Y103.331 E10.02256
G1 X67.11 Y102.743 E10.04232
G1 X67.446 Y100.93 E10.10364
G1 X67.625 Y100.182 E10.12923
G1 X67.818 Y99.615 E10.14915
G1 X68.483 Y97.891 E10.2106
G1 X68.797 Y97.189 E10.23618
G1 X69.092 Y96.663 E10.25624
G1 X70.063 Y95.092 E10.31767
G1 X70.501 Y94.46 E10.34324
G1 X70.879 Y94.009 E10.36281
G1 X72.12 Y92.642 E10.42422
G1 X72.666 Y92.1 E10.44981
G1 X73.137 Y91.713 E10.47009
G0 F3600 X73.378 Y92.032
G1 F1800 X74.849 Y90.92 E10.53142
G1 X75.469 Y90.501 E10.55631
G1 X75.946 Y90.24 E10.57439
G1 X77.602 Y89.414 E10.63594
G1 X78.288 Y89.116 E10.66082
G1 X78.801 Y88.948 E10.67877
G1 X80.57 Y88.442 E10.73997
G1 X81.299 Y88.275 E10.76484
G1 X81.847 Y88.202 E10.78323
G1 X83.687 Y88.031 E10.84469
G1 X84.435 Y88.002 E10.86959
G1 X84.977 Y88.03 E10.88764
G1 X86.835 Y88.201 E10.9497
G1 X87.575 Y88.31 E10.97458
G1 X88.119 Y88.442 E10.9932
G1 X89.887 Y88.948 E11.05436
G1 X90.594 Y89.192 E11.07924
G1 X91.081 Y89.412 E11.09701
G1 X92.718 Y90.227 E11.15783
G1 X93.369 Y90.595 E11.18271
G1 X93.813 Y90.904 E11.2007
G1 X95.29 Y92.018 E11.26223
G1 X95.749 Y92.404 E11.28218
G1 X96.635 Y91.677 E11.3203
G1 X97.277 Y91.209 E11.34672
G1 X98.102 Y90.704 E11.37889
G1 X99.401 Y90.01 E11.42788
G1 X100.097 Y89.686 E11.45341
G1 X101.037 Y89.337 E11.48676
G1 X102.435 Y88.911 E11.53537
G1 X103.185 Y88.727 E11.56105
G1 X104.177 Y88.567 E11.59447
G1 X105.643 Y88.42 E11.64348
G1 X106.359 Y88.385 E11.66732
G1 X107.404 Y88.42 E11.7021
G1 X108.89 Y88.566 E11.75176
G1 X109.534 Y88.659 E11.7734
G1 X109.917 Y88.733 E11.78638
G1 X110.615 Y88.906 E11.81029
G1 X112.027 Y89.333 E11.85936
G1 X112.647 Y89.552 E11.88123
G1 X113.012 Y89.701 E11.89434
G1 X113.655 Y90.003 E11.91797
G1 X114.957 Y90.696 E11.96702
G1 X115.476 Y91.001 E11.98705
G1 X115.803 Y91.213 E12.00001
G1 X116.433 Y91.674 E12.02597
G1 X117.582 Y92.616 E12.07539
G1 X117.966 Y92.954 E12.0924
G1 X118.247 Y93.221 E12.1053
G1 X118.84 Y93.86 E12.13429
G1 X119.783 Y95.011 E12.18378
G1 X120.304 Y95.717 E12.21297
G1 X120.763 Y96.459 E12.24198
G1 X121.457 Y97.756 E12.29091
G1 X121.82 Y98.518 E12.31898
G1 X122.149 Y99.388 E12.34992
G1 X122.577 Y100.797 E12.3989
G1 X122.778 Y101.587 E12.42601
G1 X122.936 Y102.521 E12.45752
G1 X123.082 Y103.991 E12.50665
G1 X123.127 Y104.781 E12.53297
G1 X123.1 Y105.759 E12.56551
G1 X122.957 Y107.226 E12.61453
G1 X122.861 Y107.943 E12.63859
G1 X122.63 Y108.979 E12.6739
G1 X122.201 Y110.389 E12.72292
G1 X121.986 Y111.023 E12.74518
G1 X121.547 Y112.025 E12.78157
G1 X120.852 Y113.325 E12.8306
G1 X120.53 Y113.888 E12.85217
G1 X119.893 Y114.805 E12.8893
G1 X118.952 Y115.952 E12.93865
G1 X118.554 Y116.412 E12.95888
G1 X118.032 Y116.948 E12.98377
G1 X116.579 Y118.154 E13.04657
G1 X116.154 Y118.49 E13.06459
G1 X115.542 Y118.92 E13.08947
G1 X113.824 Y119.855 E13.15452
G1 X113.347 Y120.1 E13.17236
G1 X112.663 Y120.403 E13.19724
G1 X112.192 Y120.563 E13.21378
G1 X110.425 Y121.095 E13.27516
G1 X109.698 Y121.272 E13.30005
G1 X109.096 Y121.358 E13.32027
G1 X107.236 Y121.542 E13.38244
G1 X106.489 Y121.576 E13.40731
G1 X105.879 Y121.544 E13.42763
G1 X104.013 Y121.365 E13.48998
G1 X103.273 Y121.254 E13.51486
G1 X102.669 Y121.102 E13.53558
G1 X100.886 Y120.567 E13.59749
G1 X100.182 Y120.314 E13.62238
G1 X99.624 Y120.049 E13.64292
G1 X97.965 Y119.171 E13.70535
G1 X97.323 Y118.786 E13.73025
G1 X96.825 Y118.417 E13.75086
G1 X95.784 Y117.571 E13.79548
G1 X95.312 Y117.965 E13.81593
G1 X93.836 Y119.081 E13.87747
G1 X93.216 Y119.499 E13.90234
G1 X92.741 Y119.76 E13.92037
G1 X91.089 Y120.585 E13.98179
G1 X90.403 Y120.882 E14.00665
G1 X89.885 Y121.053 E14.02479
G1 X88.114 Y121.559 E14.08605
G1 X87.385 Y121.725 E14.11092
G1 X86.839 Y121.798 E14.12924
G1 X84.999 Y121.969 E14.19071
G1 X84.251 Y121.998 E14.2156
G1 X83.714 Y121.97 E14.23349
G1 X81.875 Y121.802 E14.29491
G1 X81.135 Y121.694 E14.31978
G1 X80.6 Y121.565 E14.33808
G1 X78.832 Y121.063 E14.39921
G1 X78.124 Y120.82 E14.42411
G1 X77.632 Y120.599 E14.44205
G1 X75.974 Y119.776 E14.50361
G1 X75.322 Y119.408 E14.52852
G1 X74.873 Y119.096 E14.5467
G1 X73.4 Y117.986 E14.60805
G1 X72.828 Y117.505 E14.6329
G1 X72.441 Y117.113 E14.65122
G1 X71.197 Y115.749 E14.71263
G1 X70.723 Y115.17 E14.73751
G1 X70.42 Y114.722 E14.7555
G1 X69.448 Y113.155 E14.81683
G1 X69.089 Y112.499 E14.8417
G1 X68.873 Y112.003 E14.8597
G1 X68.205 Y110.286 E14.92098
G1 X67.972 Y109.575 E14.94586
G1 X67.849 Y109.039 E14.96415
G1 X67.508 Y107.222 E15.02564
G1 X67.41 Y106.481 E15.0505
G1 X67.388 Y105.939 E15.06854
G1 X67.386 Y104.099 E15.12974
G1 X67.425 Y103.352 E15.15462
G1 X67.503 Y102.815 E15.17267
G1 X67.839 Y101.002 E15.234
G1 X68.015 Y100.275 E15.25887
G1 X68.191 Y99.759 E15.27701
G1 X68.856 Y98.035 E15.33847
G1 X69.162 Y97.352 E15.36336
G1 X69.433 Y96.874 E15.38163
G1 X70.404 Y95.303 E15.44306
G1 X70.83 Y94.688 E15.46794
G1 X71.175 Y94.278 E15.48577
G1 X72.416 Y92.911 E15.54717
G1 X72.948 Y92.385 E15.57206
G1 X73.378 Y92.032 E15.59056
G0 F3600 X73.619 Y92.351
G1 F1800 X75.09 Y91.239 E15.65189
G1 X75.693 Y90.834 E15.67605
G1 X76.124 Y90.598 E15.6924
G1 X77.78 Y89.772 E15.75395
G1 X78.447 Y89.484 E15.77811
G1 X78.911 Y89.332 E15.79435
G1 X80.68 Y88.826 E15.85555
G1 X81.388 Y88.665 E15.8797
G1 X81.884 Y88.6 E15.89633
G1 X83.724 Y88.429 E15.9578
G1 X84.45 Y88.402 E15.98196
G1 X86.798 Y88.6 E16.06033
G1 X87.516 Y88.706 E16.08447
G1 X88.009 Y88.827 E16.10136
G1 X89.777 Y89.333 E16.16252
G1 X90.463 Y89.571 E16.18667
G1 X90.902 Y89.77 E16.2027
G1 X92.539 Y90.585 E16.26352
G1 X93.171 Y90.944 E16.2877
G1 X93.572 Y91.224 E16.30397
G1 X95.049 Y92.338 E16.3655
G1 X95.604 Y92.806 E16.38964
G1 X95.74 Y92.929 E16.39574
G1 X96.889 Y91.986 E16.44518
G1 X97.494 Y91.545 E16.47008
G1 X98.291 Y91.057 E16.50116
G1 X99.59 Y90.363 E16.55015
G1 X100.246 Y90.057 E16.57422
G1 X101.153 Y89.72 E16.60641
G1 X102.551 Y89.294 E16.65502
G1 X103.259 Y89.12 E16.67926
G1 X104.217 Y88.965 E16.71154
G1 X105.683 Y88.818 E16.76055
G1 X106.358 Y88.785 E16.78302
G1 X107.365 Y88.818 E16.81653
G1 X108.851 Y88.964 E16.8662
G1 X109.458 Y89.052 E16.8866
G1 X109.841 Y89.126 E16.89957
G1 X110.499 Y89.289 E16.92212
G1 X111.911 Y89.716 E16.97118
G1 X112.495 Y89.923 E16.99179
G1 X113.467 Y90.356 E17.02718
G1 X114.769 Y91.049 E17.07624
G1 X115.258 Y91.337 E17.09511
G1 X115.585 Y91.549 E17.10807
G1 X116.179 Y91.983 E17.13254
G1 X117.328 Y92.925 E17.18196
G1 X117.971 Y93.511 E17.2109
G1 X118.53 Y94.113 E17.23822
G1 X119.473 Y95.264 E17.28771
G1 X119.978 Y95.949 E17.31601
G1 X120.41 Y96.648 E17.34334
G1 X121.104 Y97.945 E17.39227
G1 X121.456 Y98.684 E17.4195
G1 X121.766 Y99.505 E17.44868
G1 X122.194 Y100.914 E17.49766
G1 X122.389 Y101.68 E17.52395
G1 X122.538 Y102.561 E17.55367
G1 X122.684 Y104.031 E17.6028
G1 X122.727 Y104.798 E17.62835
G1 X122.702 Y105.72 E17.65903
G1 X122.559 Y107.187 E17.70805
G1 X122.465 Y107.886 E17.73151
G1 X122.247 Y108.862 E17.76477
