;FLAVOR:Marlin
;TIME:11574
;Filament used: 16.4342m
;Layer height: 0.3
;MINX:85.523
;MINY:60.365
;MINZ:0.2
;MAXX:211.477
;MAXY:149.635
;MAXZ:41.9
;Generated with Cura_SteamEngine 4.6.1
M104 S210
M105
M109 S210
M82 ;absolute extrusion mode
; -- START GCODE --
G21                     ;set units to millimetres
G90                     ;set to absolute positioning
M106 S0                 ;set fan speed to zero (turned off)
G28 X0 Y0               ;move to the X/Y origin (Home)
G28 Z0                  ;move to the Z origin (Home)
G1 Z15.0 F1200          ;move Z to position 15.0 mm
G92 E0                  ;zero the extruded length
G1 E20 F200             ;extrude 20mm of feed stock
G92 E0                  ;zero the extruded length again
G1 F7200                ;set feedrate to 120 mm/s
; -- end of START GCODE --
G92 E0
G92 E0
G1 F1500 E-6.5
;LAYER_COUNT:140
;LAYER:0
M107
G0 F3600 X92.59 Y63.711 Z0.2
;TYPE:SKIRT
G1 F1500 E0
G1 F1800 X93.073 Y63.087 E0.02625
G1 X93.616 Y62.514 E0.0525
G1 X94.215 Y61.999 E0.07878
G1 X94.863 Y61.548 E0.10503
G1 X95.554 Y61.164 E0.13133
G1 X96.279 Y60.852 E0.15758
G1 X97.032 Y60.615 E0.18383
G1 X97.806 Y60.456 E0.21012
G1 X98.591 Y60.375 E0.23636
G1 X105.493 Y60.365 E0.46593
G1 X106.282 Y60.405 E0.4922
G1 X107.062 Y60.524 E0.51844
G1 X107.827 Y60.722 E0.54473
G1 X108.567 Y60.996 E0.57097
G1 X109.276 Y61.344 E0.59724
G1 X109.947 Y61.762 E0.62353
G1 X110.571 Y62.245 E0.64978
G1 X111.144 Y62.788 E0.67604
G1 X111.659 Y63.387 E0.70231
G1 X112.11 Y64.035 E0.72857
G1 X112.494 Y64.726 E0.75486
G1 X112.806 Y65.451 E0.78111
G1 X112.991 Y66.035 E0.80149
G1 X203.677 Y66.035 E3.81772
G1 X204.466 Y66.075 E3.84399
G1 X205.246 Y66.194 E3.87024
G1 X206.011 Y66.392 E3.89652
G1 X206.751 Y66.666 E3.92276
G1 X207.46 Y67.014 E3.94903
G1 X208.131 Y67.432 E3.97533
G1 X208.755 Y67.915 E4.00157
G1 X209.328 Y68.458 E4.02783
G1 X209.843 Y69.057 E4.0541
G1 X210.294 Y69.705 E4.08036
G1 X210.678 Y70.396 E4.10665
G1 X210.99 Y71.121 E4.13291
G1 X211.227 Y71.874 E4.15916
G1 X211.386 Y72.648 E4.18544
G1 X211.467 Y73.433 E4.21169
G1 X211.477 Y141.835 E6.48675
G1 X211.437 Y142.624 E6.51303
G1 X211.318 Y143.404 E6.53927
G1 X211.12 Y144.169 E6.56555
G1 X210.846 Y144.909 E6.5918
G1 X210.498 Y145.618 E6.61807
G1 X210.08 Y146.289 E6.64436
G1 X209.597 Y146.913 E6.67061
G1 X209.054 Y147.486 E6.69686
G1 X208.455 Y148.001 E6.72314
G1 X207.807 Y148.452 E6.74939
G1 X207.116 Y148.836 E6.77569
G1 X206.391 Y149.148 E6.80194
G1 X205.638 Y149.385 E6.8282
G1 X204.864 Y149.544 E6.85448
G1 X204.079 Y149.625 E6.88072
G1 X93.323 Y149.635 E10.56448
G1 X92.534 Y149.595 E10.59076
G1 X91.754 Y149.476 E10.617
G1 X90.989 Y149.278 E10.64329
G1 X90.249 Y149.004 E10.66953
G1 X89.54 Y148.656 E10.6958
G1 X88.869 Y148.238 E10.72209
G1 X88.245 Y147.755 E10.74834
G1 X87.672 Y147.212 E10.77459
G1 X87.157 Y146.613 E10.80087
G1 X86.706 Y145.965 E10.82713
G1 X86.322 Y145.274 E10.85342
G1 X86.01 Y144.549 E10.87967
G1 X85.773 Y143.796 E10.90593
G1 X85.614 Y143.022 E10.93221
G1 X85.533 Y142.237 E10.95846
G1 X85.523 Y135.335 E11.18802
G1 X85.563 Y134.546 E11.21429
G1 X85.682 Y133.766 E11.24054
G1 X85.88 Y133.001 E11.26682
G1 X86.154 Y132.261 E11.29307
G1 X86.502 Y131.552 E11.31933
G1 X86.92 Y130.881 E11.34563
G1 X87.403 Y130.257 E11.37187
G1 X87.946 Y129.684 E11.39813
G1 X88.545 Y129.169 E11.4244
G1 X89.193 Y128.718 E11.45066
G1 X89.884 Y128.334 E11.47696
G1 X90.609 Y128.022 E11.50321
G1 X91.193 Y127.837 E11.52358
G1 X91.193 Y68.165 E13.50828
G1 X91.233 Y67.376 E13.53456
G1 X91.352 Y66.596 E13.5608
G1 X91.55 Y65.831 E13.58708
G1 X91.824 Y65.091 E13.61333
G1 X92.172 Y64.382 E13.6396
G1 X92.59 Y63.711 E13.66589
G0 F3600 X92.987 Y63.842
G1 F1800 X93.468 Y63.242 E13.69147
G1 X94.009 Y62.695 E13.71706
G1 X94.604 Y62.207 E13.74265
G1 X95.246 Y61.784 E13.76822
G1 X95.929 Y61.429 E13.79382
G1 X96.644 Y61.148 E13.81938
G1 X97.386 Y60.942 E13.84499
G1 X98.144 Y60.814 E13.87056
G1 X98.993 Y60.765 E13.89884
G1 X105.493 Y60.765 E14.11503
G1 X106.261 Y60.805 E14.14061
G1 X107.021 Y60.924 E14.1662
G1 X107.764 Y61.122 E14.19177
G1 X108.483 Y61.396 E14.21736
G1 X109.169 Y61.743 E14.24293
G1 X109.816 Y62.159 E14.26852
G1 X110.416 Y62.64 E14.29409
G1 X110.963 Y63.181 E14.31968
G1 X111.451 Y63.776 E14.34528
G1 X111.874 Y64.418 E14.37085
G1 X112.229 Y65.101 E14.39645
G1 X112.51 Y65.816 E14.422
G1 X112.69 Y66.435 E14.44344
G1 X203.677 Y66.435 E17.46968
G1 X204.445 Y66.475 E17.49526
G1 X205.205 Y66.594 E17.52084
G1 X205.948 Y66.792 E17.54642
G1 X206.667 Y67.066 E17.57201
G1 X207.353 Y67.413 E17.59758
G1 X208 Y67.829 E17.62316
G1 X208.6 Y68.31 E17.64874
G1 X209.147 Y68.851 E17.67433
G1 X209.635 Y69.446 E17.69992
G1 X210.058 Y70.088 E17.7255
G1 X210.413 Y70.771 E17.7511
G1 X210.694 Y71.486 E17.77665
G1 X210.9 Y72.228 E17.80226
G1 X211.028 Y72.986 E17.82783
G1 X211.077 Y73.835 E17.85611
G1 X211.077 Y141.835 E20.1178
G1 X211.037 Y142.603 E20.14338
G1 X210.918 Y143.363 E20.16897
G1 X210.72 Y144.106 E20.19454
G1 X210.446 Y144.825 E20.22013
G1 X210.099 Y145.511 E20.2457
G1 X209.683 Y146.158 E20.27129
G1 X209.202 Y146.758 E20.29686
G1 X208.661 Y147.305 E20.32245
G1 X208.066 Y147.793 E20.34805
G1 X207.424 Y148.216 E20.37362
G1 X206.741 Y148.571 E20.39922
G1 X206.026 Y148.852 E20.42477
G1 X205.284 Y149.058 E20.45038
G1 X204.526 Y149.186 E20.47595
G1 X203.677 Y149.235 E20.50424
G1 X93.323 Y149.235 E24.17463
G1 X92.555 Y149.195 E24.2002
G1 X91.795 Y149.076 E24.22579
G1 X91.052 Y148.878 E24.25137
G1 X90.333 Y148.604 E24.27696
G1 X89.647 Y148.257 E24.30253
G1 X89 Y147.841 E24.32811
G1 X88.4 Y147.36 E24.35369
G1 X87.853 Y146.819 E24.37928
G1 X87.365 Y146.224 E24.40487
G1 X86.942 Y145.582 E24.43044
G1 X86.587 Y144.899 E24.45604
G1 X86.306 Y144.184 E24.48159
G1 X86.1 Y143.442 E24.50721
G1 X85.972 Y142.684 E24.53278
G1 X85.923 Y141.835 E24.56106
G1 X85.923 Y135.335 E24.77725
G1 X85.963 Y134.567 E24.80283
G1 X86.082 Y133.807 E24.82842
G1 X86.28 Y133.064 E24.85399
G1 X86.554 Y132.345 E24.87958
G1 X86.901 Y131.659 E24.90515
G1 X87.317 Y131.012 E24.93073
G1 X87.798 Y130.412 E24.95631
G1 X88.339 Y129.865 E24.9819
G1 X88.934 Y129.377 E25.00749
G1 X89.576 Y128.954 E25.03307
G1 X90.259 Y128.599 E25.05867
G1 X90.974 Y128.318 E25.08422
G1 X91.593 Y128.138 E25.10566
G1 X91.593 Y68.165 E27.10037
G1 X91.633 Y67.397 E27.12595
G1 X91.752 Y66.637 E27.15153
G1 X91.95 Y65.894 E27.17711
G1 X92.224 Y65.175 E27.2027
G1 X92.571 Y64.489 E27.22827
G1 X92.987 Y63.842 E27.25385
G0 F3600 X93.385 Y63.976
G1 F1800 X93.864 Y63.402 E27.27872
G1 X94.401 Y62.881 E27.3036
G1 X94.991 Y62.422 E27.32847
G1 X95.627 Y62.027 E27.35337
G1 X96.301 Y61.703 E27.37824
G1 X97.006 Y61.453 E27.40312
G1 X97.734 Y61.279 E27.42802
G1 X98.476 Y61.184 E27.4529
G1 X98.993 Y61.165 E27.4701
G1 X105.493 Y61.165 E27.68629
G1 X106.24 Y61.205 E27.71117
G1 X106.978 Y61.324 E27.73604
G1 X107.7 Y61.522 E27.76094
G1 X108.396 Y61.795 E27.7858
G1 X109.059 Y62.142 E27.81069
G1 X109.682 Y62.557 E27.83559
G1 X110.256 Y63.036 E27.86046
G1 X110.777 Y63.573 E27.88534
G1 X111.236 Y64.163 E27.9102
G1 X111.631 Y64.799 E27.93511
G1 X111.955 Y65.473 E27.95998
G1 X112.26 Y66.375 E27.99165
G1 X112.382 Y66.835 E28.00748
G1 X203.677 Y66.835 E31.04396
G1 X204.424 Y66.875 E31.06884
G1 X205.162 Y66.994 E31.0937
G1 X205.884 Y67.192 E31.11861
G1 X206.58 Y67.465 E31.14347
G1 X207.243 Y67.812 E31.16836
G1 X207.866 Y68.227 E31.19326
G1 X208.44 Y68.706 E31.21812
G1 X208.961 Y69.243 E31.24301
G1 X209.42 Y69.833 E31.26787
G1 X209.815 Y70.469 E31.29277
G1 X210.139 Y71.143 E31.31765
G1 X210.389 Y71.848 E31.34252
G1 X210.563 Y72.576 E31.36742
G1 X210.658 Y73.318 E31.3923
G1 X210.677 Y73.835 E31.40951
G1 X210.677 Y141.835 E33.6712
G1 X210.637 Y142.582 E33.69608
G1 X210.518 Y143.32 E33.72094
G1 X210.32 Y144.042 E33.74584
G1 X210.047 Y144.738 E33.77071
G1 X209.7 Y145.401 E33.7956
G1 X209.285 Y146.024 E33.82049
G1 X208.806 Y146.598 E33.84536
G1 X208.269 Y147.119 E33.87024
G1 X207.679 Y147.578 E33.89511
G1 X207.043 Y147.973 E33.92001
G1 X206.369 Y148.297 E33.94488
G1 X205.664 Y148.547 E33.96976
G1 X204.936 Y148.721 E33.99466
G1 X204.194 Y148.816 E34.01954
G1 X203.677 Y148.835 E34.03674
G1 X93.323 Y148.835 E37.70713
G1 X92.576 Y148.795 E37.73201
G1 X91.838 Y148.676 E37.75688
G1 X91.116 Y148.478 E37.78178
G1 X90.42 Y148.205 E37.80664
G1 X89.757 Y147.858 E37.83153
G1 X89.134 Y147.443 E37.85643
G1 X88.56 Y146.964 E37.88129
G1 X88.039 Y146.427 E37.90618
G1 X87.58 Y145.837 E37.93104
G1 X87.185 Y145.201 E37.95594
G1 X86.861 Y144.527 E37.98082
G1 X86.611 Y143.822 E38.0057
G1 X86.437 Y143.094 E38.03059
G1 X86.342 Y142.352 E38.05547
G1 X86.323 Y141.835 E38.07268
G1 X86.323 Y135.335 E38.28887
G1 X86.363 Y134.588 E38.31375
G1 X86.482 Y133.85 E38.33861
G1 X86.68 Y133.128 E38.36351
G1 X86.953 Y132.432 E38.38838
G1 X87.3 Y131.769 E38.41327
G1 X87.715 Y131.146 E38.43817
G1 X88.194 Y130.572 E38.46303
G1 X88.731 Y130.051 E38.48792
G1 X89.321 Y129.592 E38.51278
G1 X89.957 Y129.197 E38.53768
G1 X90.631 Y128.873 E38.56255
G1 X91.533 Y128.568 E38.59422
G1 X91.993 Y128.446 E38.61005
G1 X91.993 Y68.165 E40.61501
G1 X92.033 Y67.418 E40.63989
G1 X92.152 Y66.68 E40.66475
G1 X92.35 Y65.958 E40.68965
G1 X92.623 Y65.262 E40.71452
G1 X92.97 Y64.599 E40.73941
G1 X93.385 Y63.976 E40.7643
G0 F3600 X93.782 Y64.115
G1 F1800 X94.258 Y63.567 E40.78845
G1 X94.792 Y63.074 E40.81262
G1 X95.377 Y62.644 E40.83677
G1 X96.006 Y62.28 E40.86094
G1 X96.671 Y61.987 E40.88511
G1 X97.364 Y61.769 E40.90927
G1 X98.076 Y61.629 E40.93341
G1 X98.993 Y61.565 E40.96398
G1 X105.493 Y61.565 E41.18017
G1 X106.218 Y61.605 E41.20432
G1 X106.935 Y61.724 E41.22849
G1 X107.634 Y61.922 E41.25266
G1 X108.307 Y62.195 E41.27681
G1 X108.946 Y62.54 E41.30097
G1 X109.543 Y62.954 E41.32513
G1 X110.091 Y63.43 E41.34927
G1 X110.584 Y63.964 E41.37344
G1 X111.014 Y64.549 E41.39759
G1 X111.378 Y65.178 E41.42176
G1 X111.671 Y65.843 E41.44593
G1 X111.874 Y66.477 E41.46808
G1 X112.075 Y67.235 E41.49416
G1 X203.677 Y67.235 E44.54085
G1 X204.402 Y67.275 E44.565
G1 X205.119 Y67.394 E44.58918
G1 X205.818 Y67.592 E44.61334
G1 X206.491 Y67.865 E44.6375
G1 X207.13 Y68.21 E44.66165
G1 X207.727 Y68.624 E44.68581
G1 X208.275 Y69.1 E44.70995
G1 X208.768 Y69.634 E44.73413
G1 X209.198 Y70.219 E44.75828
G1 X209.562 Y70.848 E44.78245
G1 X209.855 Y71.513 E44.80662
G1 X210.073 Y72.206 E44.83078
G1 X210.213 Y72.918 E44.85491
G1 X210.277 Y73.835 E44.88549
G1 X210.277 Y141.835 E47.14718
G1 X210.237 Y142.56 E47.17133
G1 X210.118 Y143.277 E47.1955
G1 X209.92 Y143.976 E47.21966
G1 X209.647 Y144.649 E47.24382
G1 X209.302 Y145.288 E47.26797
G1 X208.888 Y145.885 E47.29214
G1 X208.412 Y146.433 E47.31628
G1 X207.878 Y146.926 E47.34045
G1 X207.293 Y147.356 E47.3646
G1 X206.664 Y147.72 E47.38877
G1 X205.999 Y148.013 E47.41294
G1 X205.306 Y148.231 E47.4371
G1 X204.594 Y148.371 E47.46124
G1 X203.677 Y148.435 E47.49181
G1 X93.323 Y148.435 E51.1622
G1 X92.598 Y148.395 E51.18635
G1 X91.881 Y148.276 E51.21052
G1 X91.182 Y148.078 E51.23469
G1 X90.509 Y147.805 E51.25884
G1 X89.87 Y147.46 E51.283
G1 X89.273 Y147.046 E51.30716
G1 X88.725 Y146.57 E51.3313
G1 X88.232 Y146.036 E51.35548
G1 X87.802 Y145.451 E51.37962
G1 X87.438 Y144.822 E51.40379
G1 X87.145 Y144.157 E51.42796
G1 X86.927 Y143.464 E51.45213
G1 X86.787 Y142.752 E51.47626
G1 X86.723 Y141.835 E51.50684
G1 X86.723 Y135.335 E51.72303
G1 X86.763 Y134.61 E51.74718
G1 X86.882 Y133.893 E51.77135
G1 X87.08 Y133.194 E51.79551
G1 X87.353 Y132.521 E51.81967
G1 X87.698 Y131.882 E51.84382
G1 X88.112 Y131.285 E51.86799
G1 X88.588 Y130.737 E51.89213
G1 X89.122 Y130.244 E51.9163
G1 X89.707 Y129.814 E51.94045
G1 X90.336 Y129.45 E51.96462
G1 X91.001 Y129.157 E51.98879
G1 X91.635 Y128.954 E52.01093
G1 X92.393 Y128.753 E52.03701
G1 X92.393 Y68.165 E54.05218
G1 X92.433 Y67.44 E54.07633
G1 X92.552 Y66.723 E54.1005
G1 X92.75 Y66.024 E54.12467
G1 X93.023 Y65.351 E54.14882
G1 X93.368 Y64.712 E54.17298
G1 X93.782 Y64.115 E54.19714
G0 F3600 X93.767 Y64.83
G1 F1800 X94.178 Y64.259 E54.22054
G1 X94.652 Y63.738 E54.24397
G1 X95.182 Y63.274 E54.26739
G1 X95.761 Y62.874 E54.2908
G1 X96.382 Y62.542 E54.31422
G1 X97.036 Y62.282 E54.33763
G1 X97.716 Y62.098 E54.36106
G1 X98.412 Y61.992 E54.38448
G1 X98.993 Y61.965 E54.40382
G1 X105.493 Y61.965 E54.62001
G1 X106.196 Y62.005 E54.64343
G1 X106.89 Y62.124 E54.66685
G1 X107.565 Y62.322 E54.69025
G1 X108.214 Y62.594 E54.71365
G1 X108.828 Y62.939 E54.73708
G1 X109.399 Y63.35 E54.76048
G1 X109.92 Y63.824 E54.7839
G1 X110.384 Y64.354 E54.80733
G1 X110.784 Y64.933 E54.83074
G1 X111.116 Y65.554 E54.85416
G1 X111.376 Y66.208 E54.87757
G1 X111.766 Y67.635 E54.92677
G1 X203.677 Y67.635 E57.98374
G1 X204.38 Y67.675 E58.00716
G1 X205.074 Y67.794 E58.03058
G1 X205.749 Y67.992 E58.05398
G1 X206.398 Y68.264 E58.07738
G1 X207.012 Y68.609 E58.10081
G1 X207.583 Y69.02 E58.12421
G1 X208.104 Y69.494 E58.14763
G1 X208.568 Y70.024 E58.17106
G1 X208.968 Y70.603 E58.19447
G1 X209.3 Y71.224 E58.21789
G1 X209.56 Y71.878 E58.2413
G1 X209.744 Y72.558 E58.26473
G1 X209.85 Y73.254 E58.28815
G1 X209.877 Y73.835 E58.30749
G1 X209.877 Y141.835 E60.56918
G1 X209.837 Y142.538 E60.5926
G1 X209.718 Y143.232 E60.61602
G1 X209.52 Y143.907 E60.63941
G1 X209.248 Y144.556 E60.66282
G1 X208.903 Y145.17 E60.68624
G1 X208.492 Y145.741 E60.70964
G1 X208.018 Y146.262 E60.73307
G1 X207.488 Y146.726 E60.7565
G1 X206.909 Y147.126 E60.77991
G1 X206.288 Y147.458 E60.80333
G1 X205.634 Y147.718 E60.82674
G1 X204.954 Y147.902 E60.85017
G1 X204.258 Y148.008 E60.87358
G1 X203.677 Y148.035 E60.89293
G1 X93.323 Y148.035 E64.56332
G1 X92.62 Y147.995 E64.58674
G1 X91.926 Y147.876 E64.61015
G1 X91.251 Y147.678 E64.63355
G1 X90.602 Y147.406 E64.65696
G1 X89.988 Y147.061 E64.68038
G1 X89.417 Y146.65 E64.70378
G1 X88.896 Y146.176 E64.72721
G1 X88.432 Y145.646 E64.75064
G1 X88.032 Y145.067 E64.77404
G1 X87.7 Y144.446 E64.79746
G1 X87.44 Y143.792 E64.82087
G1 X87.256 Y143.112 E64.8443
G1 X87.15 Y142.416 E64.86772
G1 X87.123 Y141.835 E64.88706
G1 X87.123 Y135.335 E65.10325
G1 X87.163 Y134.632 E65.12667
G1 X87.282 Y133.938 E65.15009
G1 X87.48 Y133.263 E65.17349
G1 X87.752 Y132.614 E65.19689
G1 X88.097 Y132 E65.22032
G1 X88.508 Y131.429 E65.24372
G1 X88.982 Y130.908 E65.26715
G1 X89.512 Y130.444 E65.29057
G1 X90.091 Y130.044 E65.31398
G1 X90.712 Y129.712 E65.3374
G1 X91.366 Y129.452 E65.36081
G1 X92.793 Y129.062 E65.41001
G1 X92.793 Y68.165 E67.43546
G1 X92.833 Y67.462 E67.45887
G1 X92.952 Y66.768 E67.48229
G1 X93.15 Y66.093 E67.50569
G1 X93.422 Y65.444 E67.5291
G1 X93.767 Y64.83 E67.55252
G0 F3600 X94.165 Y64.951
G1 F1800 X94.575 Y64.407 E67.57518
G1 X95.046 Y63.916 E67.59781
G1 X95.571 Y63.482 E67.62046
G1 X96.143 Y63.113 E67.6431
G1 X96.755 Y62.814 E67.66576
G1 X97.397 Y62.589 E67.68838
G1 X98.062 Y62.44 E67.71105
G1 X98.993 Y62.365 E67.74212
G1 X105.493 Y62.365 E67.95831
G1 X106.173 Y62.405 E67.98096
G1 X106.843 Y62.524 E68.0036
G1 X107.495 Y62.721 E68.02625
G1 X108.119 Y62.993 E68.04889
G1 X108.707 Y63.337 E68.07155
G1 X109.251 Y63.747 E68.0942
G1 X109.742 Y64.218 E68.11683
G1 X110.176 Y64.743 E68.13949
G1 X110.545 Y65.315 E68.16213
G1 X110.844 Y65.927 E68.18478
G1 X111.1 Y66.682 E68.2113
G1 X111.458 Y68.035 E68.25785
G1 X203.677 Y68.035 E71.32507
G1 X204.357 Y68.075 E71.34772
G1 X205.027 Y68.194 E71.37035
G1 X205.679 Y68.391 E71.39301
G1 X206.303 Y68.663 E71.41565
G1 X206.891 Y69.007 E71.43831
G1 X207.435 Y69.417 E71.46096
G1 X207.926 Y69.888 E71.48359
G1 X208.36 Y70.413 E71.50625
G1 X208.729 Y70.985 E71.52889
G1 X209.028 Y71.597 E71.55154
G1 X209.253 Y72.239 E71.57417
G1 X209.402 Y72.904 E71.59684
G1 X209.477 Y73.835 E71.6279
G1 X209.477 Y141.835 E73.88959
G1 X209.437 Y142.515 E73.91225
G1 X209.318 Y143.185 E73.93488
G1 X209.121 Y143.837 E73.95753
G1 X208.849 Y144.461 E73.98017
G1 X208.505 Y145.049 E74.00283
G1 X208.095 Y145.593 E74.02549
G1 X207.624 Y146.084 E74.04812
G1 X207.099 Y146.518 E74.07077
G1 X206.527 Y146.887 E74.09341
G1 X205.915 Y147.186 E74.11607
G1 X205.273 Y147.411 E74.1387
G1 X204.608 Y147.56 E74.16136
G1 X203.677 Y147.635 E74.19243
G1 X93.323 Y147.635 E77.86282
G1 X92.643 Y147.595 E77.88547
G1 X91.973 Y147.476 E77.90811
G1 X91.321 Y147.279 E77.93076
G1 X90.697 Y147.007 E77.9534
